;FLAVOR:UltiGCode
;TIME:4693
;MATERIAL:6609
;MATERIAL2:0
;NOZZLE_DIAMETER:0.4
;Generated with Cura_SteamEngine 2.7.0

;LAYER_COUNT:33
;LAYER:0
M107
G0 F4320 X69.696 Y98.383 Z0.2
;TYPE:WALL-OUTER
G1 F1800 X70.465 Y97.85 E0.0655
G1 X71.277 Y97.335 E0.1328
G1 X72.129 Y96.836 E0.20192
G1 X73.007 Y96.366 E0.27163
G1 X73.959 Y95.891 E0.34611
G1 X73.96 Y95.89 E0.34621
G1 X74.116 Y95.813 E0.35838
G1 X74.037 Y95.657 E0.36628
G1 X74.032 Y95.648 E0.367
G1 X73.954 Y95.492 E0.37921
G1 X74.11 Y95.414 E0.3871
G1 X74.325 Y95.305 E0.40398
G1 X74.485 Y95.225 E0.4165
G1 X74.559 Y95.387 E0.42448
G1 X74.56 Y95.388 E0.42458
G1 X74.648 Y95.577 E0.43918
G1 X75.677 Y95.14 E0.51743
G1 X76.564 Y94.791 E0.58416
G1 X77.483 Y94.453 E0.6527
G1 X78.422 Y94.13 E0.72221
G1 X79.076 Y93.918 E0.77033
G1 X79.738 Y93.715 E0.8188
G1 X80.414 Y93.517 E0.86811
G1 X81.104 Y93.324 E0.91827
G1 X81.8 Y93.138 E0.9687
G1 X82.512 Y92.958 E1.0201
G1 X83.977 Y92.615 E1.12543
G1 X85.489 Y92.296 E1.2336
G1 X87.047 Y92.001 E1.34459
G1 X87.846 Y91.862 E1.40136
G1 X89.487 Y91.601 E1.51768
G1 X91.329 Y91.341 E1.6479
G1 X92.354 Y91.212 E1.72021
G1 X93.402 Y91.091 E1.79406
G1 X94.466 Y90.977 E1.86897
G1 X95.548 Y90.87 E1.94508
G1 X96.648 Y90.772 E2.02238
G1 X97.765 Y90.681 E2.10083
G1 X99.098 Y90.585 E2.19438
G1 X99.075 Y90.186 E2.22236
G1 X99.674 Y90.147 E2.26438
G1 X99.7 Y90.544 E2.29223
G1 X101.235 Y90.456 E2.39985
G1 X102.617 Y90.389 E2.49671
G1 X104.024 Y90.332 E2.59528
G1 X105.457 Y90.285 E2.69564
G1 X106.914 Y90.249 E2.79766
G1 X108.395 Y90.223 E2.90135
G1 X109.901 Y90.206 E3.00677
G1 X111.503 Y90.2 E3.11892
G1 X113.032 Y90.205 E3.22595
G1 X116.02 Y90.248 E3.43513
G1 X117.477 Y90.284 E3.53715
G1 X118.91 Y90.331 E3.63751
G1 X120.317 Y90.388 E3.73608
G1 X121.7 Y90.456 E3.83301
G1 X123.235 Y90.544 E3.94064
G1 X123.261 Y90.147 E3.96849
G1 X123.859 Y90.186 E4.01044
G1 X123.834 Y90.583 E4.03828
G1 X126.255 Y90.767 E4.20824
G1 X127.355 Y90.865 E4.28554
G1 X129.503 Y91.086 E4.4367
G1 X130.551 Y91.207 E4.51054
G1 X131.577 Y91.336 E4.58293
G1 X133.427 Y91.597 E4.71371
G1 X135.069 Y91.858 E4.8301
G1 X136.656 Y92.142 E4.94295
G1 X138.194 Y92.449 E5.05273
G1 X139.676 Y92.778 E5.159
G1 X141.113 Y93.132 E5.2626
G1 X142.501 Y93.51 E5.3633
G1 X143.844 Y93.913 E5.46145
G1 X144.489 Y94.121 E5.50889
G1 X145.431 Y94.444 E5.5786
G1 X146.35 Y94.781 E5.64711
G1 X147.233 Y95.129 E5.71355
G1 X148.287 Y95.577 E5.79372
G1 X148.375 Y95.388 E5.80831
G1 X148.45 Y95.225 E5.82087
G1 X148.61 Y95.305 E5.82888
G1 X148.611 Y95.306 E5.82897
G1 X148.825 Y95.414 E5.84575
G1 X148.981 Y95.492 E5.85796
G1 X148.902 Y95.648 E5.86586
G1 X148.897 Y95.657 E5.86658
G1 X148.819 Y95.813 E5.87879
G1 X148.975 Y95.891 E5.88668
G1 X149.928 Y96.366 E5.96122
G1 X150.805 Y96.836 E6.03087
G1 X151.657 Y97.334 E6.09995
G1 X152.469 Y97.849 E6.16726
G1 X153.238 Y98.382 E6.23275
G1 X153.617 Y98.662 E6.26574
G1 X154.352 Y99.243 E6.33132
G1 X154.709 Y99.545 E6.36406
G1 X155.048 Y99.846 E6.39579
G1 X155.369 Y100.146 E6.42654
G1 X155.796 Y100.566 E6.46847
G1 X156.211 Y101.003 E6.51066
G1 X156.695 Y101.554 E6.56199
G1 X157.155 Y102.129 E6.61354
G1 X157.591 Y102.729 E6.66546
G1 X157.987 Y103.329 E6.71578
G1 X158.357 Y103.953 E6.76656
G1 X158.699 Y104.599 E6.81773
G1 X159.001 Y105.241 E6.86739
G1 X159.272 Y105.905 E6.91759
G1 X159.509 Y106.575 E6.96734
G1 X159.711 Y107.248 E7.01653
G1 X159.88 Y107.925 E7.06537
G1 X160.019 Y108.621 E7.11505
G1 X160.128 Y109.327 E7.16506
G1 X160.205 Y110.043 E7.21547
G1 X160.252 Y110.775 E7.26681
G1 X160.267 Y111.496 E7.31729
G1 X160.252 Y112.225 E7.36834
G1 X160.206 Y112.949 E7.41912
G1 X160.129 Y113.664 E7.46946
G1 X160.019 Y114.379 E7.5201
G1 X159.882 Y115.066 E7.56913
G1 X159.711 Y115.752 E7.61862
G1 X159.509 Y116.425 E7.66781
G1 X159.272 Y117.095 E7.71756
G1 X159.005 Y117.75 E7.76707
G1 X158.699 Y118.401 E7.81742
G1 X158.357 Y119.047 E7.86859
G1 X157.992 Y119.663 E7.91871
G1 X157.591 Y120.271 E7.96969
G1 X157.155 Y120.871 E8.02161
G1 X156.701 Y121.439 E8.07251
G1 X156.211 Y121.997 E8.12449
G1 X155.801 Y122.429 E8.16618
G1 X155.369 Y122.854 E8.20861
G1 X155.04 Y123.162 E8.24015
G1 X154.357 Y123.753 E8.30338
G1 X153.623 Y124.333 E8.36886
G1 X153.239 Y124.617 E8.40229
G1 X152.47 Y125.15 E8.46779
G1 X151.658 Y125.665 E8.5351
G1 X150.806 Y126.164 E8.60421
G1 X149.928 Y126.634 E8.67393
G1 X148.976 Y127.109 E8.7484
G1 X148.975 Y127.11 E8.7485
G1 X148.819 Y127.187 E8.76068
G1 X148.898 Y127.343 E8.76857
G1 X148.903 Y127.352 E8.76929
G1 X148.981 Y127.508 E8.7815
G1 X148.825 Y127.586 E8.7894
G1 X148.61 Y127.695 E8.80627
G1 X148.45 Y127.775 E8.81879
G1 X148.376 Y127.613 E8.82678
G1 X148.375 Y127.612 E8.82688
G1 X148.287 Y127.423 E8.84147
G1 X147.258 Y127.86 E8.91973
G1 X146.371 Y128.209 E8.98645
G1 X145.452 Y128.547 E9.05499
G1 X144.513 Y128.87 E9.1245
G1 X143.859 Y129.082 E9.17263
G1 X143.197 Y129.285 E9.2211
G1 X142.521 Y129.483 E9.27041
G1 X141.831 Y129.676 E9.32056
G1 X141.135 Y129.862 E9.37099
G1 X140.423 Y130.042 E9.4224
G1 X138.958 Y130.385 E9.52772
G1 X137.446 Y130.704 E9.63589
G1 X135.888 Y130.999 E9.74689
G1 X135.089 Y131.138 E9.80366
G1 X133.448 Y131.399 E9.91997
G1 X131.606 Y131.659 E10.05019
G1 X130.581 Y131.788 E10.12251
G1 X129.533 Y131.909 E10.19635
G1 X128.469 Y132.023 E10.27126
G1 X127.387 Y132.13 E10.34737
G1 X126.287 Y132.228 E10.42467
G1 X125.17 Y132.319 E10.50312
G1 X123.834 Y132.416 E10.59689
G1 X123.859 Y132.814 E10.6248
G1 X123.261 Y132.853 E10.66675
G1 X123.235 Y132.456 E10.6946
G1 X121.7 Y132.544 E10.80223
G1 X120.318 Y132.611 E10.89908
G1 X118.911 Y132.668 E10.99765
G1 X117.478 Y132.715 E11.09802
G1 X116.021 Y132.751 E11.20004
G1 X114.54 Y132.777 E11.30372
G1 X113.034 Y132.794 E11.40915
G1 X111.431 Y132.8 E11.52136
G1 X109.903 Y132.795 E11.62832
G1 X106.915 Y132.752 E11.8375
G1 X105.458 Y132.716 E11.93953
G1 X104.025 Y132.669 E12.03989
G1 X102.618 Y132.612 E12.13846
G1 X101.235 Y132.544 E12.23539
G1 X99.7 Y132.456 E12.34301
G1 X99.674 Y132.853 E12.37086
G1 X99.076 Y132.814 E12.41281
G1 X99.101 Y132.417 E12.44066
G1 X96.68 Y132.233 E12.61062
G1 X95.58 Y132.135 E12.68792
G1 X93.432 Y131.914 E12.83907
G1 X92.384 Y131.793 E12.91292
G1 X91.358 Y131.664 E12.98531
G1 X89.508 Y131.403 E13.11609
G1 X87.866 Y131.142 E13.23247
G1 X86.279 Y130.858 E13.34533
G1 X84.741 Y130.551 E13.45511
G1 X83.259 Y130.222 E13.56138
G1 X81.822 Y129.868 E13.66497
G1 X80.434 Y129.49 E13.76567
G1 X79.091 Y129.087 E13.86382
G1 X78.446 Y128.879 E13.91126
G1 X77.504 Y128.556 E13.98097
G1 X76.585 Y128.219 E14.04949
G1 X75.697 Y127.869 E14.11631
G1 X74.648 Y127.423 E14.1961
G1 X74.56 Y127.612 E14.21069
G1 X74.485 Y127.775 E14.22325
G1 X74.325 Y127.695 E14.23125
G1 X74.324 Y127.694 E14.23135
G1 X74.11 Y127.586 E14.24813
G1 X73.954 Y127.508 E14.26034
G1 X74.033 Y127.352 E14.26824
G1 X74.038 Y127.343 E14.26896
G1 X74.116 Y127.187 E14.28117
G1 X73.96 Y127.109 E14.28906
G1 X73.007 Y126.634 E14.3636
G1 X72.13 Y126.164 E14.43325
G1 X71.278 Y125.666 E14.50233
G1 X70.466 Y125.151 E14.56964
G1 X69.697 Y124.618 E14.63513
G1 X69.313 Y124.334 E14.66856
G1 X68.578 Y123.753 E14.73415
G1 X68.226 Y123.455 E14.76643
G1 X67.884 Y123.151 E14.79846
G1 X67.566 Y122.854 E14.82892
G1 X67.134 Y122.429 E14.87134
G1 X66.724 Y121.997 E14.91303
G1 X66.234 Y121.439 E14.96502
G1 X65.78 Y120.871 E15.01592
G1 X65.344 Y120.271 E15.06783
G1 X64.943 Y119.663 E15.11882
G1 X64.578 Y119.047 E15.16894
G1 X64.236 Y118.401 E15.2201
G1 X63.93 Y117.75 E15.27046
G1 X63.658 Y117.086 E15.32069
G1 X63.485 Y116.603 E15.3566
G1 X63.324 Y116.098 E15.3937
G1 X63.182 Y115.593 E15.43042
G1 X63.056 Y115.081 E15.46733
G1 X62.95 Y114.565 E15.50421
G1 X62.86 Y114.041 E15.54142
G1 X62.789 Y113.533 E15.57733
G1 X62.787 Y113.513 E15.57874
G1 X62.755 Y113.2 E15.60076
G1 X62.787 Y113.2
G1 X62.808 Y113.2 E15.60218
G1 X65.667 Y113.2 E15.80231
G1 X65.667 Y109.8 E16.04031
G1 X62.808 Y109.8 E16.24044
G1 X62.787 Y109.8 E16.24191
G1 X62.755 Y109.8 E16.24415
G1 X62.787 Y109.487 E16.25428
G1 X62.789 Y109.467 E16.25563
G1 X62.86 Y108.959 E16.29154
G1 X62.95 Y108.436 E16.32869
G1 X63.056 Y107.919 E16.36563
G1 X63.182 Y107.407 E16.40254
G1 X63.324 Y106.902 E16.43926
G1 X63.485 Y106.397 E16.47636
G1 X63.658 Y105.914 E16.51228
G1 X63.93 Y105.25 E16.56251
G1 X64.236 Y104.599 E16.61286
G1 X64.578 Y103.953 E16.66403
G1 X64.943 Y103.337 E16.71415
G1 X65.344 Y102.729 E16.76513
G1 X65.78 Y102.129 E16.81705
G1 X66.234 Y101.561 E16.86795
G1 X66.724 Y101.003 E16.91993
G1 X67.134 Y100.571 E16.96162
G1 X67.566 Y100.146 E17.00404
G1 X67.895 Y99.838 E17.03559
G1 X68.578 Y99.247 E17.09881
G1 X69.312 Y98.667 E17.1643
G1 X69.696 Y98.383 E17.19773
G0 F4320 X69.86 Y98.269
G0 X69.916 Y98.352
G0 X66.2 Y121.142
;TYPE:SKIN
G1 F1800 X68.723 Y123.665 E17.44749
G1 X68.784 Y123.726
G0 F4320 X70.601 Y125.048
G1 F1800 X64.999 Y119.446 E18.00206
G1 X64.938 Y119.385
G0 F4320 X64.375 Y118.327
G1 F1800 X71.884 Y125.836 E18.74542
G1 X71.945 Y125.897
G0 F4320 X72.984 Y126.442
G1 F1800 X63.968 Y117.425 E19.63801
G1 X63.907 Y117.364
G0 F4320 X63.659 Y116.621
G1 F1800 X73.98 Y126.942 E20.65973
G1 X74.041 Y127.003
G0 F4320 X74.269 Y127.231
G1 F1800 X74.469 Y127.431 E20.67953
G0 F4320 X74.884 Y127.352
G1 F1800 X63.431 Y115.898 E21.81337
G1 X63.37 Y115.837
G0 F4320 X63.254 Y115.226
G1 F1800 X75.744 Y127.716 E23.04982
G1 X75.805 Y127.777
G0 F4320 X76.561 Y128.038
G1 F1800 X63.117 Y114.594 E24.38071
G1 X63.056 Y114.533
G0 F4320 X63.012 Y113.994
G1 F1800 X77.347 Y128.329 E25.7998
G1 X77.408 Y128.39
G0 F4320 X78.107 Y128.594
G1 F1800 X62.936 Y113.424 E27.3016
G1 X62.875 Y113.363
G0 F4320 X63.364 Y113.356
G1 F1800 X78.848 Y128.841 E28.83449
G1 X78.909 Y128.902
G0 F4320 X79.564 Y129.061
G1 F1800 X63.859 Y113.356 E30.3892
G1 X63.798 Y113.295
G0 F4320 X64.354 Y113.356
G1 F1800 X80.271 Y129.273 E31.96491
G1 X80.332 Y129.334
G0 F4320 X80.96 Y129.468
G1 F1800 X64.849 Y113.356 E33.55986
G1 X64.788 Y113.295
G0 F4320 X65.344 Y113.356
G1 F1800 X81.641 Y129.654 E35.17323
G1 X81.702 Y129.715
G0 F4320 X82.306 Y129.824
G1 F1800 X65.824 Y113.342 E36.80487
G1 X65.763 Y113.281
G0 F4320 X65.824 Y112.847
G1 F1800 X82.963 Y129.986 E38.50154
G1 X83.024 Y130.047
G0 F4320 X83.609 Y130.137
G1 F1800 X65.824 Y112.352 E40.26217
G1 X65.763 Y112.291
G0 F4320 X65.824 Y111.857
G1 F1800 X84.246 Y130.278 E42.0858
G1 X84.307 Y130.339
G0 F4320 X84.878 Y130.416
G1 F1800 X65.824 Y111.362 E43.97205
G1 X65.763 Y111.301
G0 F4320 X65.824 Y110.867
G1 F1800 X85.496 Y130.539 E45.91948
G1 X85.557 Y130.6
G0 F4320 X86.115 Y130.663
G1 F1800 X65.824 Y110.372 E47.92819
G1 X65.763 Y110.311
G0 F4320 X65.824 Y109.877
G1 F1800 X86.723 Y130.776 E49.99708
G1 X86.784 Y130.837
G0 F4320 X87.326 Y130.884
G1 F1800 X63.455 Y107.012 E52.36024
G1 X63.394 Y106.951
G0 F4320 X63.574 Y106.637
G1 F1800 X87.928 Y130.99 E54.77112
G1 X87.989 Y131.051
G0 F4320 X88.517 Y131.084
G1 F1800 X63.699 Y106.266 E57.22797
G1 X63.638 Y106.205
G0 F4320 X63.831 Y105.904
G1 F1800 X89.105 Y131.178 E59.72997
G1 X89.166 Y131.239
G0 F4320 X89.69 Y131.268
G1 F1800 X63.975 Y105.553 E62.27563
G1 X63.914 Y105.492
G0 F4320 X64.123 Y105.206
G1 F1800 X90.267 Y131.35 E64.86375
G1 X90.328 Y131.411
G0 F4320 X90.843 Y131.431
G1 F1800 X64.281 Y104.869 E67.49325
G1 X64.22 Y104.808
G0 F4320 X64.445 Y104.538
G1 F1800 X91.417 Y131.51 E70.16334
G1 X91.478 Y131.571
G0 F4320 X91.983 Y131.581
G1 F1800 X64.616 Y104.214 E72.87254
G1 X64.555 Y104.153
G0 F4320 X64.793 Y103.896
G1 F1800 X92.548 Y131.651 E75.62014
G1 X92.609 Y131.712
G0 F4320 X93.108 Y131.716
G1 F1800 X64.977 Y103.585 E78.40497
G1 X64.916 Y103.524
G0 F4320 X65.167 Y103.28
G1 F1800 X93.665 Y131.778 E81.22613
G1 X93.726 Y131.839
G0 F4320 X94.217 Y131.835
G1 F1800 X65.364 Y102.983 E84.08238
G1 X65.303 Y102.922
G0 F4320 X65.567 Y102.69
G1 F1800 X94.768 Y131.891 E86.97313
G1 X94.829 Y131.952
G0 F4320 X95.32 Y131.948
G1 F1800 X65.775 Y102.403 E89.89794
G1 X65.714 Y102.342
G0 F4320 X65.987 Y102.12
G1 F1800 X95.868 Y132.001 E92.85601
G1 X95.929 Y132.062
G0 F4320 X96.411 Y132.05
G1 F1800 X66.207 Y101.845 E95.8461
G1 X66.146 Y101.784
G0 F4320 X66.43 Y101.573
G1 F1800 X96.951 Y132.094 E98.86752
G1 X97.012 Y132.155
G0 F4320 X97.487 Y132.135
G1 F1800 X66.662 Y101.31 E101.91904
G1 X66.601 Y101.249
G0 F4320 X66.895 Y101.049
G1 F1800 X98.022 Y132.175 E105.00041
G1 X98.083 Y132.236
G0 F4320 X98.558 Y132.216
G1 F1800 X67.136 Y100.795 E108.11098
G1 X67.075 Y100.734
G0 F4320 X67.383 Y100.547
G1 F1800 X99.094 Y132.257 E111.25016
G1 X99.155 Y132.318
G0 F4320 X99.259 Y132.422
G1 F1800 X99.52 Y132.683 E111.276
G0 F4320 X99.623 Y132.291
G1 F1800 X67.633 Y100.301 E114.44285
G1 X67.572 Y100.24
G0 F4320 X67.887 Y100.061
G1 F1800 X100.148 Y132.322 E117.63652
G1 X100.209 Y132.383
G0 F4320 X100.674 Y132.352
G1 F1800 X68.148 Y99.827 E120.85638
G1 X68.087 Y99.766
G0 F4320 X68.413 Y99.597
G1 F1800 X101.199 Y132.383 E124.10203
G1 X101.26 Y132.444
G0 F4320 X101.72 Y132.408
G1 F1800 X68.679 Y99.367 E127.37292
G1 X68.618 Y99.306
G0 F4320 X68.955 Y99.149
G1 F1800 X102.24 Y132.434 E130.66797
G1 X102.301 Y132.495
G0 F4320 X102.759 Y132.458
G1 F1800 X69.232 Y98.93 E133.98702
G1 X69.171 Y98.869
G0 F4320 X69.512 Y98.715
G1 F1800 X103.275 Y132.479 E137.32944
G1 X103.336 Y132.54
G0 F4320 X103.791 Y132.5
G1 F1800 X69.797 Y98.505 E140.69472
G1 X69.736 Y98.444
G0 F4320 X70.089 Y98.302
G1 F1800 X104.305 Y132.518 E144.08193
G1 X104.366 Y132.579
G0 F4320 X104.817 Y132.535
G1 F1800 X70.381 Y98.099 E147.49092
G1 X70.32 Y98.038
G0 F4320 X70.678 Y97.901
G1 F1800 X105.328 Y132.552 E150.92115
G1 X105.389 Y132.613
G0 F4320 X105.837 Y132.566
G1 F1800 X70.981 Y97.71 E154.37172
G1 X70.92 Y97.649
G0 F4320 X71.284 Y97.517
G1 F1800 X106.344 Y132.578 E157.84253
G1 X106.405 Y132.639
G0 F4320 X106.852 Y132.591
G1 F1800 X71.593 Y97.332 E161.33299
G1 X71.532 Y97.271
G0 F4320 X71.905 Y97.149
G1 F1800 X107.355 Y132.598 E164.84231
G1 X107.416 Y132.659
G0 F4320 X107.857 Y132.606
G1 F1800 X72.217 Y96.966 E168.37049
G1 X72.156 Y96.905
G0 F4320 X72.54 Y96.794
G1 F1800 X108.359 Y132.613 E171.91639
G1 X108.42 Y132.674
G0 F4320 X108.861 Y132.62
G1 F1800 X72.863 Y96.621 E175.48006
G1 X72.802 Y96.56
G0 F4320 X73.188 Y96.452
G1 F1800 X109.363 Y132.627 E179.0612
G1 X109.424 Y132.688
G0 F4320 X109.866 Y132.635
G1 F1800 X73.518 Y96.287 E182.65947
G1 X73.457 Y96.226
G0 F4320 X73.848 Y96.122
G1 F1800 X110.363 Y132.637 E186.27427
G1 X110.424 Y132.698
G0 F4320 X110.86 Y132.639
G1 F1800 X74.178 Y95.957 E189.90561
G1 X74.117 Y95.896
G0 F4320 X74.24 Y95.524
G1 F1800 X111.356 Y132.64 E193.5799
G1 X111.417 Y132.701
G0 F4320 X111.85 Y132.639
G1 F1800 X74.866 Y95.655 E197.24113
G1 X74.805 Y95.594
G0 F4320 X75.213 Y95.507
G1 F1800 X112.343 Y132.637 E200.91681
G1 X112.404 Y132.698
G0 F4320 X112.836 Y132.635
G1 F1800 X75.561 Y95.36 E204.60685
G1 X75.5 Y95.299
G0 F4320 X75.912 Y95.216
G1 F1800 X113.328 Y132.632 E208.31085
G1 X113.389 Y132.693
G0 F4320 X113.817 Y132.626
G1 F1800 X76.267 Y95.076 E212.02811
G1 X76.206 Y95.015
G0 F4320 X76.622 Y94.936
G1 F1800 X114.306 Y132.62 E215.75863
G1 X114.367 Y132.681
G0 F4320 X114.794 Y132.613
G1 F1800 X76.984 Y94.803 E219.50163
G1 X76.923 Y94.742
G0 F4320 X77.346 Y94.67
G1 F1800 X115.281 Y132.605 E223.257
G1 X115.342 Y132.666
G0 F4320 X115.767 Y132.596
G1 F1800 X77.711 Y94.54 E227.02436
G1 X77.65 Y94.479
G0 F4320 X78.079 Y94.413
G1 F1800 X116.251 Y132.586 E230.80324
G1 X116.312 Y132.647
G0 F4320 X116.734 Y132.574
G1 F1800 X78.447 Y94.287 E234.59346
G1 X78.386 Y94.226
G0 F4320 X78.821 Y94.165
G1 F1800 X117.217 Y132.562 E238.39452
G1 X117.278 Y132.623
G0 F4320 X117.698 Y132.547
G1 F1800 X79.195 Y94.045 E242.20607
G1 X79.134 Y93.984
G0 F4320 X79.574 Y93.929
G1 F1800 X118.178 Y132.532 E246.02762
G1 X118.239 Y132.593
G0 F4320 X118.658 Y132.517
G1 F1800 X79.956 Y93.815 E249.85893
G1 X79.895 Y93.754
G0 F4320 X80.339 Y93.703
G1 F1800 X119.135 Y132.499 E253.69954
G1 X119.196 Y132.56
G0 F4320 X119.611 Y132.48
G1 F1800 X80.724 Y93.594 E257.5491
G1 X80.663 Y93.533
G0 F4320 X81.112 Y93.486
G1 F1800 X120.086 Y132.46 E261.40733
G1 X120.147 Y132.521
G0 F4320 X120.56 Y132.439
G1 F1800 X81.502 Y93.381 E265.27388
G1 X81.441 Y93.32
G0 F4320 X81.893 Y93.277
G1 F1800 X121.032 Y132.417 E269.14849
G1 X121.093 Y132.478
G0 F4320 X121.504 Y132.393
