;START_OF_HEADER
;HEADER_VERSION:0.1
;FLAVOR:Griffin
;GENERATOR.NAME:Cura_SteamEngine
;GENERATOR.VERSION:2.7.0
;GENERATOR.BUILD_DATE:2017-08-30
;TARGET_MACHINE.NAME:Ultimaker 3 Extended
;EXTRUDER_TRAIN.0.INITIAL_TEMPERATURE:205
;EXTRUDER_TRAIN.0.MATERIAL.VOLUME_USED:7011
;EXTRUDER_TRAIN.0.MATERIAL.GUID:506c9f0d-e3aa-4bd4-b2d2-23e2425b1aa9
;EXTRUDER_TRAIN.0.NOZZLE.DIAMETER:0.4
;EXTRUDER_TRAIN.0.NOZZLE.NAME:AA 0.4
;BUILD_PLATE.INITIAL_TEMPERATURE:60
;PRINT.TIME:4284
;PRINT.SIZE.MIN.X:9
;PRINT.SIZE.MIN.Y:6
;PRINT.SIZE.MIN.Z:0.27
;PRINT.SIZE.MAX.X:168.621
;PRINT.SIZE.MAX.Y:132.231
;PRINT.SIZE.MAX.Z:8.27
;END_OF_HEADER
;Generated with Cura_SteamEngine 2.7.0

T0
G92 E0

M109 S205
G0 F15000 X9 Y6 Z2
G280
G1 F1500 E-6.5
;LAYER_COUNT:33
;LAYER:0
M107
M204 S625
M205 X6 Y6
G0 F4285.7 X72.193 Y92.051 Z0.27
M204 S500
M205 X5 Y5
;TYPE:SKIRT
G1 F1500 E0
G1 F1200 X77.173 Y88.642 E0.0894
G1 X77.585 Y88.403 E0.09645
G1 X78.204 Y88.104 E0.10664
G1 X78.73 Y87.905 E0.11497
G1 X83.11 Y86.681 E0.18234
G1 X85.637 Y85.959 E0.22127
G1 X85.82 Y85.913 E0.22406
G1 X90.859 Y84.793 E0.30053
G1 X91.08 Y84.752 E0.30386
G1 X104.033 Y82.822 E0.49785
G1 X104.518 Y82.787 E0.50506
G1 X123.711 Y82.892 E0.78937
G1 X128.351 Y82.783 E0.85813
G1 X128.888 Y82.816 E0.8661
G1 X141.064 Y84.609 E1.04841
G1 X141.213 Y84.635 E1.05065
G1 X144.383 Y85.258 E1.0985
G1 X144.522 Y85.288 E1.10061
G1 X147.5 Y86.013 E1.14601
G1 X147.612 Y86.043 E1.14773
G1 X154.209 Y87.906 E1.24928
G1 X154.771 Y88.124 E1.25821
G1 X155.675 Y88.578 E1.27319
G1 X156.044 Y88.795 E1.27953
G1 X159.894 Y91.431 E1.34865
G1 X160.067 Y91.559 E1.35184
G1 X162.041 Y93.117 E1.38909
G1 X162.344 Y93.389 E1.39512
G1 X164.007 Y95.09 E1.43036
G1 X164.261 Y95.384 E1.43612
G1 X165.401 Y96.878 E1.46395
G1 X165.593 Y97.159 E1.469
G1 X166.352 Y98.412 E1.4907
G1 X166.531 Y98.753 E1.4964
G1 X167.428 Y100.744 E1.52875
G1 X167.587 Y101.18 E1.53562
G1 X168.17 Y103.232 E1.56722
G1 X168.237 Y103.516 E1.57155
G1 X168.373 Y104.243 E1.5825
G1 X168.412 Y104.523 E1.58669
G1 X168.606 Y106.537 E1.61666
G1 X168.621 Y106.864 E1.62151
G1 X168.609 Y108.507 E1.64585
G1 X168.593 Y108.801 E1.65021
G1 X168.449 Y110.237 E1.67159
G1 X168.408 Y110.517 E1.67578
G1 X168.14 Y111.917 E1.6969
G1 X168.05 Y112.274 E1.70235
G1 X167.411 Y114.302 E1.73385
G1 X167.27 Y114.67 E1.73969
G1 X166.652 Y116.02 E1.76168
G1 X166.473 Y116.356 E1.76732
G1 X165.33 Y118.223 E1.79975
G1 X165.122 Y118.522 E1.80514
G1 X164.269 Y119.612 E1.82565
G1 X164.083 Y119.829 E1.82988
G1 X162.94 Y121.046 E1.85461
G1 X162.708 Y121.269 E1.85938
G1 X161.031 Y122.726 E1.89229
G1 X160.757 Y122.939 E1.89743
G1 X156.044 Y126.203 E1.98235
G1 X155.661 Y126.43 E1.98895
G1 X154.785 Y126.87 E2.00347
G1 X154.222 Y127.089 E2.01242
G1 X147.288 Y129.044 E2.11914
G1 X147.115 Y129.087 E2.12178
G1 X142.076 Y130.207 E2.19824
G1 X141.847 Y130.25 E2.20169
G1 X133.209 Y131.514 E2.33101
G1 X129.253 Y132.156 E2.39038
G1 X128.69 Y132.197 E2.39874
G1 X123.585 Y132.11 E2.47438
G1 X116.672 Y132.174 E2.57679
G1 X116.612 Y132.174 E2.57768
G1 X111.904 Y132.129 E2.64742
G1 X104.908 Y132.231 E2.75106
G1 X104.543 Y132.215 E2.75648
G1 X102.978 Y132.057 E2.77978
G1 X102.831 Y132.039 E2.78197
G1 X92.875 Y130.561 E2.93107
G1 X92.771 Y130.543 E2.93263
G1 X89.655 Y129.974 E2.97955
G1 X89.499 Y129.942 E2.98191
G1 X85.46 Y128.993 E3.04337
G1 X85.323 Y128.957 E3.04547
G1 X78.724 Y127.093 E3.14705
G1 X78.161 Y126.875 E3.15599
G1 X77.258 Y126.421 E3.17096
G1 X76.884 Y126.2 E3.1774
G1 X72.589 Y123.245 E3.25463
G1 X72.376 Y123.085 E3.25857
G1 X70.685 Y121.699 E3.29096
G1 X70.392 Y121.426 E3.29689
G1 X68.629 Y119.564 E3.33488
G1 X68.342 Y119.213 E3.34159
G1 X67.078 Y117.424 E3.37404
G1 X66.881 Y117.107 E3.37957
G1 X66.178 Y115.812 E3.4014
G1 X66.012 Y115.457 E3.4072
G1 X65.257 Y113.533 E3.43782
G1 X65.14 Y113.171 E3.44346
G1 X64.73 Y111.593 E3.46761
G1 X64.663 Y111.265 E3.47257
G1 X64.414 Y109.6 E3.49751
G1 X64.379 Y109.117 E3.50468
G1 X64.393 Y105.743 E3.55466
G1 X64.44 Y105.211 E3.56257
G1 X64.826 Y102.994 E3.59591
G1 X64.929 Y102.575 E3.6023
G1 X65.542 Y100.652 E3.6322
G1 X65.681 Y100.294 E3.63789
G1 X66.283 Y98.98 E3.6593
G1 X66.462 Y98.644 E3.66493
G1 X67.605 Y96.778 E3.69735
G1 X67.812 Y96.479 E3.70274
G1 X68.666 Y95.388 E3.72326
G1 X68.852 Y95.171 E3.72749
G1 X69.995 Y93.954 E3.75223
G1 X70.227 Y93.731 E3.75699
G1 X71.904 Y92.274 E3.7899
G1 X72.193 Y92.051 E3.79531
M204 S625
M205 X6 Y6
G1 F1500 E-2.70469
G0 F4285.7 X72.269 Y92.152
G0 X74.234 Y94.696
G0 X74.365 Y94.72
G0 X74.305 Y94.641
M204 S500
M205 X5 Y5
;TYPE:WALL-OUTER
G1 F1500 E3.79531
G1 F1200 X74.689 Y94.358 E3.80238
G1 X75.461 Y93.823 E3.81629
G1 X76.276 Y93.306 E3.83059
G1 X77.114 Y92.816 E3.84497
G1 X77.995 Y92.344 E3.85977
G1 X78.926 Y91.884 E3.87515
G1 X79.084 Y91.806 E3.87776
G1 X79.005 Y91.649 E3.87944
G1 X79.004 Y91.648 E3.87946
G1 X78.998 Y91.637 E3.87965
G1 X78.92 Y91.481 E3.88223
G1 X79.076 Y91.403 E3.8839
G1 X79.336 Y91.272 E3.88822
G1 X79.496 Y91.191 E3.89087
G1 X79.572 Y91.354 E3.89258
G1 X79.661 Y91.544 E3.89568
G1 X80.66 Y91.12 E3.91176
G1 X81.548 Y90.77 E3.9259
G1 X82.459 Y90.435 E3.94028
G1 X83.4 Y90.111 E3.95502
G1 X84.059 Y89.898 E3.96528
G1 X84.72 Y89.694 E3.97553
G1 X85.396 Y89.496 E3.98596
G1 X86.085 Y89.303 E3.99656
G1 X87.494 Y88.936 E4.01813
G1 X88.955 Y88.594 E4.04036
G1 X90.468 Y88.275 E4.06326
G1 X92.029 Y87.98 E4.08679
G1 X93.645 Y87.706 E4.11107
G1 X95.308 Y87.456 E4.13599
G1 X96.306 Y87.32 E4.15091
G1 X97.338 Y87.189 E4.16632
G1 X98.386 Y87.068 E4.18194
G1 X99.454 Y86.953 E4.19786
G1 X100.537 Y86.846 E4.21398
G1 X101.64 Y86.747 E4.23038
G1 X102.759 Y86.657 E4.24701
G1 X104.071 Y86.562 E4.2665
G1 X104.048 Y86.163 E4.27242
G1 X104.524 Y86.131 E4.27948
G1 X104.698 Y86.12 E4.28207
G1 X104.708 Y86.294 E4.28373
G1 X104.709 Y86.295 E4.28375
G1 X104.724 Y86.518 E4.28706
G1 X106.215 Y86.433 E4.30919
G1 X107.596 Y86.365 E4.32967
G1 X109.003 Y86.308 E4.35053
G1 X110.435 Y86.261 E4.37175
G1 X111.891 Y86.224 E4.39333
G1 X113.371 Y86.198 E4.41525
G1 X114.877 Y86.182 E4.43756
G1 X116.528 Y86.175 E4.46202
G1 X118.057 Y86.181 E4.48467
G1 X119.563 Y86.197 E4.50698
G1 X121.043 Y86.223 E4.52891
G1 X122.499 Y86.26 E4.55048
G1 X123.931 Y86.307 E4.57171
G1 X125.338 Y86.364 E4.59257
G1 X128.211 Y86.517 E4.63519
G1 X128.226 Y86.295 E4.63848
G1 X128.227 Y86.294 E4.6385
G1 X128.237 Y86.12 E4.64108
G1 X128.411 Y86.131 E4.64275
G1 X128.886 Y86.163 E4.6498
G1 X128.86 Y86.56 E4.6557
G1 X131.243 Y86.741 E4.6911
G1 X132.345 Y86.839 E4.70749
G1 X134.497 Y87.06 E4.73953
G1 X136.581 Y87.311 E4.77063
G1 X138.431 Y87.572 E4.7983
G1 X140.073 Y87.833 E4.82293
G1 X141.657 Y88.117 E4.84677
G1 X143.199 Y88.425 E4.87006
G1 X144.686 Y88.755 E4.89263
G1 X146.12 Y89.108 E4.9145
G1 X147.508 Y89.486 E4.93581
G1 X148.847 Y89.888 E4.95652
G1 X149.497 Y90.098 E4.96664
G1 X150.441 Y90.422 E4.98143
G1 X151.352 Y90.755 E4.99579
G1 X152.242 Y91.106 E5.00997
G1 X153.274 Y91.544 E5.02657
G1 X153.363 Y91.354 E5.02968
G1 X153.439 Y91.191 E5.03235
G1 X153.599 Y91.272 E5.03404
G1 X154.015 Y91.481 E5.04094
G1 X153.93 Y91.65 E5.04374
G1 X153.929 Y91.651 E5.04376
G1 X153.852 Y91.806 E5.04633
G1 X154.008 Y91.883 E5.04799
G1 X154.968 Y92.359 E5.06387
G1 X155.848 Y92.831 E5.07866
G1 X156.686 Y93.322 E5.09305
G1 X157.494 Y93.836 E5.10723
G1 X158.267 Y94.372 E5.12117
G1 X158.649 Y94.655 E5.12821
G1 X159.372 Y95.227 E5.14186
G1 X159.724 Y95.526 E5.14871
G1 X160.07 Y95.834 E5.15557
G1 X160.386 Y96.128 E5.16196
G1 X160.814 Y96.549 E5.17085
G1 X161.229 Y96.986 E5.17978
G1 X161.714 Y97.538 E5.19067
G1 X162.175 Y98.114 E5.2016
G1 X162.611 Y98.714 E5.21258
G1 X163.008 Y99.316 E5.22326
G1 X163.379 Y99.941 E5.23403
G1 X163.722 Y100.587 E5.24487
G1 X164.024 Y101.231 E5.2554
G1 X164.296 Y101.896 E5.26605
G1 X164.53 Y102.558 E5.27645
G1 X164.733 Y103.233 E5.28689
G1 X164.904 Y103.92 E5.29738
G1 X165.044 Y104.618 E5.30792
G1 X165.153 Y105.325 E5.31852
G1 X165.23 Y106.041 E5.32918
G1 X165.277 Y106.766 E5.33995
G1 X165.292 Y107.496 E5.35076
G1 X165.277 Y108.227 E5.36159
G1 X165.231 Y108.951 E5.37234
G1 X165.154 Y109.667 E5.38301
G1 X165.045 Y110.375 E5.39362
G1 X164.906 Y111.072 E5.40415
G1 X164.735 Y111.759 E5.41463
G1 X164.53 Y112.442 E5.4252
G1 X164.299 Y113.096 E5.43547
G1 X164.024 Y113.769 E5.44624
G1 X163.722 Y114.413 E5.45678
G1 X163.383 Y115.052 E5.46749
G1 X163.008 Y115.684 E5.47838
G1 X162.611 Y116.286 E5.48906
G1 X162.175 Y116.886 E5.50005
G1 X161.719 Y117.456 E5.51086
G1 X161.229 Y118.014 E5.52186
G1 X160.818 Y118.447 E5.53071
G1 X160.386 Y118.872 E5.53968
G1 X160.053 Y119.182 E5.54642
G1 X159.371 Y119.774 E5.5598
G1 X159.002 Y120.072 E5.56683
G1 X158.63 Y120.359 E5.57379
G1 X158.246 Y120.642 E5.58085
G1 X157.474 Y121.177 E5.59477
G1 X156.659 Y121.694 E5.60906
G1 X155.821 Y122.184 E5.62344
G1 X154.94 Y122.656 E5.63825
G1 X154.009 Y123.116 E5.65363
G1 X153.851 Y123.194 E5.65624
G1 X153.93 Y123.351 E5.65792
G1 X153.931 Y123.352 E5.65794
G1 X153.937 Y123.363 E5.65813
G1 X154.015 Y123.519 E5.66071
G1 X153.859 Y123.597 E5.66238
G1 X153.599 Y123.728 E5.66669
G1 X153.439 Y123.809 E5.66935
G1 X153.363 Y123.646 E5.67105
G1 X153.274 Y123.456 E5.67416
G1 X152.275 Y123.88 E5.69024
G1 X151.387 Y124.23 E5.70438
G1 X150.476 Y124.565 E5.71875
G1 X149.535 Y124.889 E5.7335
G1 X148.876 Y125.102 E5.74376
G1 X148.215 Y125.306 E5.754
G1 X147.539 Y125.504 E5.76444
G1 X146.85 Y125.697 E5.77504
G1 X145.441 Y126.064 E5.79661
G1 X143.98 Y126.406 E5.81883
G1 X142.467 Y126.725 E5.84174
G1 X140.906 Y127.02 E5.86527
G1 X139.29 Y127.294 E5.88955
G1 X137.627 Y127.544 E5.91446
G1 X136.629 Y127.68 E5.92938
G1 X135.597 Y127.811 E5.94479
G1 X134.549 Y127.932 E5.96042
G1 X133.481 Y128.047 E5.97633
G1 X132.398 Y128.154 E5.99245
G1 X131.295 Y128.253 E6.00886
G1 X128.86 Y128.44 E6.04503
G1 X128.886 Y128.837 E6.05093
G1 X128.411 Y128.869 E6.05798
G1 X128.237 Y128.88 E6.06056
G1 X128.227 Y128.706 E6.06223
G1 X128.226 Y128.705 E6.06225
G1 X128.211 Y128.482 E6.06556
G1 X126.72 Y128.567 E6.08768
G1 X125.339 Y128.635 E6.10817
G1 X123.932 Y128.692 E6.12902
G1 X122.5 Y128.739 E6.15025
G1 X121.044 Y128.776 E6.17182
G1 X119.564 Y128.802 E6.19375
G1 X118.058 Y128.818 E6.21606
G1 X116.406 Y128.825 E6.24053
G1 X114.878 Y128.819 E6.26317
G1 X113.372 Y128.803 E6.28548
G1 X111.892 Y128.777 E6.3074
G1 X110.436 Y128.74 E6.32898
G1 X109.004 Y128.693 E6.3502
G1 X107.597 Y128.636 E6.37106
G1 X104.724 Y128.483 E6.41368
G1 X104.709 Y128.705 E6.41698
G1 X104.708 Y128.706 E6.417
G1 X104.698 Y128.88 E6.41958
G1 X104.524 Y128.869 E6.42125
G1 X104.049 Y128.837 E6.4283
G1 X104.075 Y128.44 E6.43419
G1 X101.692 Y128.259 E6.4696
G1 X100.59 Y128.161 E6.48598
G1 X98.438 Y127.94 E6.51803
G1 X96.354 Y127.689 E6.54912
G1 X94.504 Y127.428 E6.5768
G1 X92.862 Y127.167 E6.60143
G1 X91.278 Y126.883 E6.62527
G1 X89.736 Y126.575 E6.64856
G1 X88.249 Y126.245 E6.67112
G1 X86.811 Y125.891 E6.69306
G1 X85.427 Y125.514 E6.71431
G1 X84.088 Y125.112 E6.73502
G1 X83.435 Y124.901 E6.74518
G1 X82.494 Y124.578 E6.75992
G1 X81.583 Y124.245 E6.77429
G1 X80.693 Y123.894 E6.78846
G1 X79.661 Y123.456 E6.80507
G1 X79.572 Y123.646 E6.80818
G1 X79.496 Y123.809 E6.81084
G1 X79.336 Y123.728 E6.81254
G1 X78.92 Y123.519 E6.81944
G1 X79.005 Y123.35 E6.82224
G1 X79.006 Y123.349 E6.82226
G1 X79.083 Y123.194 E6.82482
G1 X78.927 Y123.117 E6.82649
G1 X77.967 Y122.641 E6.84236
G1 X77.087 Y122.169 E6.85715
G1 X76.249 Y121.678 E6.87154
G1 X75.435 Y121.16 E6.88583
G1 X74.664 Y120.625 E6.89974
G1 X74.281 Y120.341 E6.9068
G1 X73.563 Y119.773 E6.92036
G1 X73.211 Y119.474 E6.9272
G1 X72.862 Y119.163 E6.93413
G1 X72.549 Y118.872 E6.94046
G1 X72.117 Y118.447 E6.94944
G1 X71.706 Y118.014 E6.95828
G1 X71.216 Y117.456 E6.96928
G1 X70.76 Y116.886 E6.98009
G1 X70.324 Y116.286 E6.99108
G1 X69.927 Y115.684 E7.00176
G1 X69.552 Y115.052 E7.01265
G1 X69.213 Y114.413 E7.02336
G1 X68.911 Y113.769 E7.0339
G1 X68.635 Y113.096 E7.04467
G1 X68.459 Y112.605 E7.0524
G1 X68.299 Y112.106 E7.06016
G1 X68.159 Y111.605 E7.06787
G1 X68.032 Y111.087 E7.07577
G1 X67.925 Y110.57 E7.08359
G1 X67.835 Y110.045 E7.09148
G1 X67.762 Y109.52 E7.09933
G1 X67.762 Y109.516 E7.09939
G1 X67.727 Y109.175 E7.10447
G1 X67.762 Y109.175
G1 X67.767 Y109.175 E7.10454
G1 X70.642 Y109.175 E7.14713
G1 X70.642 Y105.825 E7.19676
G1 X67.767 Y105.825 E7.23934
G1 X67.762 Y105.825 E7.23942
G1 X67.727 Y105.825 E7.23994
G1 X67.762 Y105.484 E7.24251
G1 X67.762 Y105.48 E7.24257
G1 X67.835 Y104.955 E7.25042
G1 X67.925 Y104.431 E7.25829
G1 X68.032 Y103.913 E7.26613
G1 X68.158 Y103.395 E7.27403
G1 X68.299 Y102.894 E7.28174
G1 X68.459 Y102.395 E7.2895
G1 X68.635 Y101.904 E7.29723
G1 X68.911 Y101.231 E7.308
G1 X69.213 Y100.587 E7.31854
G1 X69.552 Y99.948 E7.32925
G1 X69.927 Y99.316 E7.34014
G1 X70.324 Y98.714 E7.35082
G1 X70.76 Y98.114 E7.36181
G1 X71.216 Y97.544 E7.37262
G1 X71.706 Y96.986 E7.38362
G1 X72.117 Y96.553 E7.39247
G1 X72.549 Y96.128 E7.40144
G1 X72.882 Y95.818 E7.40818
G1 X73.564 Y95.226 E7.42156
G1 X73.933 Y94.928 E7.42859
G1 X74.305 Y94.641 E7.43555
M204 S625
M205 X6 Y6
G0 F4285.7 X74.466 Y94.523
G0 X74.524 Y94.603
G0 X71.286 Y117.318
M204 S500
M205 X5 Y5
;TYPE:SKIN
G1 F1200 X73.518 Y119.551 E7.48231
M204 S625
M205 X6 Y6
G0 F4285.7 X75.486 Y121.024
M204 S500
M205 X5 Y5
G1 F1200 X70.005 Y115.543 E7.59714
M204 S625
M205 X6 Y6
G0 F4285.7 X69.373 Y114.416
M204 S500
M205 X5 Y5
G1 F1200 X76.788 Y121.83 E7.75246
M204 S625
M205 X6 Y6
G0 F4285.7 X77.894 Y122.442
M204 S500
M205 X5 Y5
G1 F1200 X68.952 Y113.499 E7.9398
M204 S625
M205 X6 Y6
G0 F4285.7 X68.638 Y112.691
M204 S500
M205 X5 Y5
G1 F1200 X78.886 Y122.938 E8.15448
M204 S625
M205 X6 Y6
G0 F4285.7 X79.205 Y123.258
M204 S500
M205 X5 Y5
G1 F1200 X79.473 Y123.525 E8.16008
M204 S625
M205 X6 Y6
G0 F4285.7 X79.805 Y123.363
M204 S500
M205 X5 Y5
G1 F1200 X68.404 Y111.961 E8.39894
M204 S625
M205 X6 Y6
G0 F4285.7 X68.225 Y111.288
M204 S500
M205 X5 Y5
G1 F1200 X80.667 Y123.73 E8.65959
M204 S625
M205 X6 Y6
G0 F4285.7 X81.488 Y124.056
M204 S500
M205 X5 Y5
G1 F1200 X68.085 Y110.653 E8.94037
M204 S625
M205 X6 Y6
G0 F4285.7 X67.977 Y110.049
M204 S500
M205 X5 Y5
G1 F1200 X82.275 Y124.348 E9.23991
M204 S625
M205 X6 Y6
G0 F4285.7 X83.036 Y124.614
M204 S500
M205 X5 Y5
G1 F1200 X67.897 Y109.475 E9.55706
M204 S625
M205 X6 Y6
G0 F4285.7 X68.231 Y109.314
M204 S500
M205 X5 Y5
G1 F1200 X83.781 Y124.864 E9.88282
M204 S625
M205 X6 Y6
G0 F4285.7 X84.501 Y125.089
M204 S500
M205 X5 Y5
G1 F1200 X68.726 Y109.314 E10.21329
M204 S625
M205 X6 Y6
G0 F4285.7 X69.221 Y109.314
M204 S500
M205 X5 Y5
G1 F1200 X85.209 Y125.302 E10.54823
M204 S625
M205 X6 Y6
G0 F4285.7 X85.898 Y125.496
M204 S500
M205 X5 Y5
G1 F1200 X69.716 Y109.314 E10.88723
M204 S625
M205 X6 Y6
G0 F4285.7 X70.211 Y109.314
M204 S500
M205 X5 Y5
G1 F1200 X86.578 Y125.681 E11.2301
M204 S625
M205 X6 Y6
G0 F4285.7 X87.244 Y125.852
M204 S500
M205 X5 Y5
G1 F1200 X70.706 Y109.314 E11.57656
M204 S625
M205 X6 Y6
G0 F4285.7 X70.782 Y108.895
M204 S500
M205 X5 Y5
G1 F1200 X87.901 Y126.014 E11.93519
M204 S625
M205 X6 Y6
G0 F4285.7 X88.548 Y126.166
M204 S500
M205 X5 Y5
G1 F1200 X70.782 Y108.4 E12.30737
M204 S625
M205 X6 Y6
G0 F4285.7 X70.782 Y107.905
M204 S500
M205 X5 Y5
G1 F1200 X89.185 Y126.308 E12.6929
M204 S625
M205 X6 Y6
G0 F4285.7 X89.818 Y126.446
M204 S500
M205 X5 Y5
G1 F1200 X70.782 Y107.41 E13.09169
M204 S625
M205 X6 Y6
G0 F4285.7 X70.782 Y106.915
M204 S500
M205 X5 Y5
G1 F1200 X90.437 Y126.57 E13.50345
M204 S625
M205 X6 Y6
G0 F4285.7 X91.055 Y126.693
M204 S500
M205 X5 Y5
G1 F1200 X70.782 Y106.42 E13.92815
M204 S625
M205 X6 Y6
G0 F4285.7 X70.782 Y105.925
M204 S500
M205 X5 Y5
G1 F1200 X91.666 Y126.809 E14.36565
M204 S625
M205 X6 Y6
G0 F4285.7 X92.269 Y126.917
M204 S500
M205 X5 Y5
G1 F1200 X68.399 Y103.047 E14.86571
M204 S625
M205 X6 Y6
G0 F4285.7 X68.517 Y102.67
M204 S500
M205 X5 Y5
G1 F1200 X92.872 Y127.026 E15.37594
M204 S625
M205 X6 Y6
G0 F4285.7 X93.461 Y127.119
M204 S500
M205 X5 Y5
G1 F1200 X68.641 Y102.299 E15.8959
M204 S625
M205 X6 Y6
G0 F4285.7 X68.771 Y101.935
M204 S500
M205 X5 Y5
G1 F1200 X94.05 Y127.213 E16.42546
M204 S625
M205 X6 Y6
G0 F4285.7 X94.636 Y127.304
M204 S500
M205 X5 Y5
G1 F1200 X68.916 Y101.584 E16.96427
M204 S625
M205 X6 Y6
G0 F4285.7 X69.062 Y101.235
