;FLAVOR:UltiGCode
;TIME:2473
;MATERIAL:3654
;MATERIAL2:0
;NOZZLE_DIAMETER:0.4
;Generated with Cura_SteamEngine 2.7.0

;LAYER_COUNT:36
;LAYER:0
M107
G0 F4320 X93.5 Y76.7 Z0.2
;TYPE:WALL-OUTER
G1 F1800 X108.8 Y76.7 E1.071
G1 X108.8 Y93.7 E2.261
G1 X114.2 Y93.7 E2.639
G1 X114.2 Y76.7 E3.829
G1 X129.5 Y76.7 E4.9
G1 X129.5 Y118.249 E7.80843
G1 X129.83 Y119.014 E7.86675
G1 X130.118 Y119.76 E7.92273
G1 X130.37 Y120.501 E7.97751
G1 X130.594 Y121.26 E8.03291
G1 X130.788 Y122.027 E8.08829
G1 X130.953 Y122.809 E8.14424
G1 X131.084 Y123.582 E8.19912
G1 X131.185 Y124.367 E8.25452
G1 X131.254 Y125.155 E8.30989
G1 X131.292 Y125.945 E8.36525
G1 X131.299 Y126.735 E8.42056
G1 X131.273 Y127.534 E8.47652
G1 X131.216 Y128.316 E8.5314
G1 X131.128 Y129.103 E8.58684
G1 X131.007 Y129.893 E8.64278
G1 X130.857 Y130.661 E8.69756
G1 X130.676 Y131.431 E8.75292
G1 X130.462 Y132.201 E8.80887
G1 X130.222 Y132.947 E8.86372
G1 X129.948 Y133.69 E8.91916
G1 X129.646 Y134.421 E8.97452
G1 X129.312 Y135.147 E9.03046
G1 X128.957 Y135.845 E9.08528
G1 X128.569 Y136.535 E9.14069
G1 X128.154 Y137.209 E9.1961
G1 X127.714 Y137.866 E9.25145
G1 X127.247 Y138.504 E9.30679
G1 X126.753 Y139.123 E9.36223
G1 X126.231 Y139.729 E9.41822
G1 X125.697 Y140.302 E9.47305
G1 X125.134 Y140.858 E9.52844
G1 X124.544 Y141.396 E9.58433
G1 X123.938 Y141.906 E9.63977
G1 X123.319 Y142.385 E9.69456
G1 X122.674 Y142.845 E9.75002
G1 X122.013 Y143.278 E9.80533
G1 X121.334 Y143.685 E9.86074
G1 X120.632 Y144.068 E9.91672
G1 X119.93 Y144.415 E9.97154
G1 X119.2 Y144.741 E10.0275
G1 X118.473 Y145.031 E10.08229
G1 X117.719 Y145.297 E10.13826
G1 X116.967 Y145.53 E10.19337
G1 X116.206 Y145.733 E10.2485
G1 X115.434 Y145.905 E10.30387
G1 X114.648 Y146.048 E10.35979
G1 X113.869 Y146.157 E10.41485
G1 X113.085 Y146.236 E10.47001
G1 X112.287 Y146.284 E10.52597
G1 X111.5 Y146.3 E10.58107
G1 X110.713 Y146.284 E10.63617
G1 X109.915 Y146.236 E10.69213
G1 X109.131 Y146.157 E10.74729
G1 X108.352 Y146.048 E10.80235
G1 X107.566 Y145.905 E10.85827
G1 X106.794 Y145.733 E10.91364
G1 X106.033 Y145.53 E10.96877
G1 X105.281 Y145.297 E11.02388
G1 X104.527 Y145.031 E11.07985
G1 X103.8 Y144.741 E11.13464
G1 X103.07 Y144.415 E11.1906
G1 X102.368 Y144.068 E11.24542
G1 X101.666 Y143.685 E11.3014
G1 X100.987 Y143.278 E11.35681
G1 X100.326 Y142.845 E11.41212
G1 X99.681 Y142.385 E11.46758
G1 X99.062 Y141.906 E11.52237
G1 X98.456 Y141.396 E11.57781
G1 X97.866 Y140.858 E11.6337
G1 X97.303 Y140.302 E11.68909
G1 X96.769 Y139.729 E11.74392
G1 X96.247 Y139.123 E11.79991
G1 X95.753 Y138.504 E11.85535
G1 X95.286 Y137.866 E11.91069
G1 X94.846 Y137.209 E11.96604
G1 X94.431 Y136.535 E12.02145
G1 X94.043 Y135.845 E12.07686
G1 X93.688 Y135.147 E12.13168
G1 X93.354 Y134.421 E12.18762
G1 X93.052 Y133.69 E12.24298
G1 X92.779 Y132.947 E12.29839
G1 X92.538 Y132.201 E12.35327
G1 X92.324 Y131.431 E12.40921
G1 X92.142 Y130.661 E12.4646
G1 X91.993 Y129.893 E12.51936
G1 X91.872 Y129.103 E12.5753
G1 X91.783 Y128.316 E12.63075
G1 X91.727 Y127.534 E12.68563
G1 X91.701 Y126.744 E12.74096
G1 X91.708 Y125.953 E12.79633
G1 X91.746 Y125.155 E12.85225
G1 X91.814 Y124.375 E12.90706
G1 X91.915 Y123.589 E12.96253
G1 X92.047 Y122.809 E13.01791
G1 X92.21 Y122.035 E13.07328
G1 X92.404 Y121.268 E13.12866
G1 X92.631 Y120.501 E13.18465
G1 X92.882 Y119.76 E13.23941
G1 X93.167 Y119.021 E13.29486
G1 X93.5 Y118.249 E13.35371
G1 X93.5 Y76.7 E16.26214
G0 F4320 X93.7 Y76.7
G0 X93.7 Y76.8
G0 X108.772 Y93.728
G0 X114.228 Y93.728
G0 X129.341 Y77.369
;TYPE:SKIN
G1 F1800 X128.83 Y76.858 E16.31273
G1 X128.769 Y76.797
G0 F4320 X128.335 Y76.858
G1 F1800 X129.341 Y77.864 E16.41232
G1 X129.402 Y77.925
G0 F4320 X129.341 Y78.359
G1 F1800 X127.84 Y76.858 E16.56091
G1 X127.779 Y76.797
G0 F4320 X127.345 Y76.858
G1 F1800 X129.341 Y78.854 E16.7585
G1 X129.402 Y78.915
G0 F4320 X129.341 Y79.349
G1 F1800 X126.85 Y76.858 E17.0051
G1 X126.789 Y76.797
G0 F4320 X126.355 Y76.858
G1 F1800 X129.341 Y79.844 E17.3007
G1 X129.402 Y79.905
G0 F4320 X129.341 Y80.339
G1 F1800 X125.86 Y76.858 E17.6453
G1 X125.799 Y76.797
G0 F4320 X125.365 Y76.858
G1 F1800 X129.341 Y80.834 E18.0389
G1 X129.402 Y80.895
G0 F4320 X129.341 Y81.329
G1 F1800 X124.87 Y76.858 E18.48151
G1 X124.809 Y76.797
G0 F4320 X124.375 Y76.858
G1 F1800 X129.341 Y81.824 E18.97312
G1 X129.402 Y81.885
G0 F4320 X129.341 Y82.319
G1 F1800 X123.88 Y76.858 E19.51373
G1 X123.819 Y76.797
G0 F4320 X123.385 Y76.858
G1 F1800 X129.341 Y82.814 E20.10334
G1 X129.402 Y82.875
G0 F4320 X129.341 Y83.309
G1 F1800 X122.89 Y76.858 E20.74196
G1 X122.829 Y76.797
G0 F4320 X122.395 Y76.858
G1 F1800 X129.341 Y83.804 E21.42958
G1 X129.402 Y83.865
G0 F4320 X129.341 Y84.299
G1 F1800 X121.9 Y76.858 E22.1662
G1 X121.839 Y76.797
G0 F4320 X121.405 Y76.858
G1 F1800 X129.341 Y84.794 E22.95182
G1 X129.402 Y84.855
G0 F4320 X129.341 Y85.289
G1 F1800 X120.911 Y76.858 E23.7864
G1 X120.85 Y76.797
G0 F4320 X120.416 Y76.858
G1 F1800 X129.341 Y85.784 E24.66998
G1 X129.402 Y85.845
G0 F4320 X129.341 Y86.279
G1 F1800 X119.921 Y76.858 E25.60256
G1 X119.86 Y76.797
G0 F4320 X119.426 Y76.858
G1 F1800 X129.341 Y86.774 E26.58415
G1 X129.402 Y86.835
G0 F4320 X129.341 Y87.268
G1 F1800 X118.931 Y76.858 E27.61468
G1 X118.87 Y76.797
G0 F4320 X118.436 Y76.858
G1 F1800 X129.341 Y87.763 E28.69422
G1 X129.402 Y87.824
G0 F4320 X129.341 Y88.258
G1 F1800 X117.941 Y76.858 E29.82276
G1 X117.88 Y76.797
G0 F4320 X117.446 Y76.858
G1 F1800 X129.341 Y88.753 E31.00031
G1 X129.402 Y88.814
G0 F4320 X129.341 Y89.248
G1 F1800 X116.951 Y76.858 E32.22686
G1 X116.89 Y76.797
G0 F4320 X116.456 Y76.858
G1 F1800 X129.341 Y89.743 E33.50241
G1 X129.402 Y89.804
G0 F4320 X129.341 Y90.238
G1 F1800 X115.961 Y76.858 E34.82696
G1 X115.9 Y76.797
G0 F4320 X115.466 Y76.858
G1 F1800 X129.341 Y90.733 E36.20051
G1 X129.402 Y90.794
G0 F4320 X129.341 Y91.228
G1 F1800 X114.971 Y76.858 E37.62307
G1 X114.91 Y76.797
G0 F4320 X114.476 Y76.858
G1 F1800 X129.341 Y91.723 E39.09463
G1 X129.402 Y91.784
G0 F4320 X129.341 Y92.218
G1 F1800 X114.356 Y77.233 E40.57807
G1 X114.295 Y77.172
G0 F4320 X114.356 Y77.728
G1 F1800 X129.341 Y92.713 E42.06151
G1 X129.402 Y92.774
G0 F4320 X129.341 Y93.208
G1 F1800 X114.356 Y78.223 E43.54495
G1 X114.295 Y78.162
G0 F4320 X114.356 Y78.718
G1 F1800 X129.341 Y93.703 E45.02839
G1 X129.402 Y93.764
G0 F4320 X129.341 Y94.198
G1 F1800 X114.356 Y79.213 E46.51183
G1 X114.295 Y79.152
G0 F4320 X114.356 Y79.708
G1 F1800 X129.341 Y94.693 E47.99527
G1 X129.402 Y94.754
G0 F4320 X129.341 Y95.188
G1 F1800 X114.356 Y80.203 E49.47871
G1 X114.295 Y80.142
G0 F4320 X114.356 Y80.698
G1 F1800 X129.341 Y95.683 E50.96215
G1 X129.402 Y95.744
G0 F4320 X129.341 Y96.178
G1 F1800 X114.356 Y81.193 E52.44559
G1 X114.295 Y81.132
G0 F4320 X114.356 Y81.688
G1 F1800 X129.341 Y96.673 E53.92903
G1 X129.402 Y96.734
G0 F4320 X129.341 Y97.168
G1 F1800 X114.356 Y82.183 E55.41246
G1 X114.295 Y82.122
G0 F4320 X114.356 Y82.678
G1 F1800 X129.341 Y97.663 E56.8959
G1 X129.402 Y97.724
G0 F4320 X129.341 Y98.158
G1 F1800 X114.356 Y83.173 E58.37934
G1 X114.295 Y83.112
G0 F4320 X114.356 Y83.668
G1 F1800 X129.341 Y98.653 E59.86278
G1 X129.402 Y98.714
G0 F4320 X129.341 Y99.148
G1 F1800 X114.356 Y84.163 E61.34622
G1 X114.295 Y84.102
G0 F4320 X114.356 Y84.658
G1 F1800 X129.341 Y99.643 E62.82966
G1 X129.402 Y99.704
G0 F4320 X129.341 Y100.138
G1 F1800 X114.356 Y85.153 E64.3131
G1 X114.295 Y85.092
G0 F4320 X114.356 Y85.648
G1 F1800 X129.341 Y100.633 E65.79654
G1 X129.402 Y100.694
G0 F4320 X129.341 Y101.128
G1 F1800 X114.356 Y86.143 E67.27998
G1 X114.295 Y86.082
G0 F4320 X114.356 Y86.638
G1 F1800 X129.341 Y101.623 E68.76342
G1 X129.402 Y101.684
G0 F4320 X129.341 Y102.118
G1 F1800 X114.356 Y87.133 E70.24686
G1 X114.295 Y87.072
G0 F4320 X114.356 Y87.628
G1 F1800 X129.341 Y102.613 E71.7303
G1 X129.402 Y102.674
G0 F4320 X129.341 Y103.108
G1 F1800 X114.356 Y88.123 E73.21374
G1 X114.295 Y88.062
G0 F4320 X114.356 Y88.618
G1 F1800 X129.341 Y103.603 E74.69718
G1 X129.402 Y103.664
G0 F4320 X129.341 Y104.098
G1 F1800 X114.356 Y89.113 E76.18061
G1 X114.295 Y89.052
G0 F4320 X114.356 Y89.608
G1 F1800 X129.341 Y104.593 E77.66405
G1 X129.402 Y104.654
G0 F4320 X129.341 Y105.088
G1 F1800 X114.356 Y90.103 E79.14749
G1 X114.295 Y90.042
G0 F4320 X114.356 Y90.598
G1 F1800 X129.341 Y105.583 E80.63093
G1 X129.402 Y105.644
G0 F4320 X129.341 Y106.078
G1 F1800 X114.356 Y91.093 E82.11437
G1 X114.295 Y91.032
G0 F4320 X114.356 Y91.588
G1 F1800 X129.341 Y106.573 E83.59781
G1 X129.402 Y106.634
G0 F4320 X129.341 Y107.067
G1 F1800 X114.356 Y92.082 E85.08125
G1 X114.295 Y92.021
G0 F4320 X114.356 Y92.577
G1 F1800 X129.341 Y107.562 E86.56469
G1 X129.402 Y107.623
G0 F4320 X129.341 Y108.057
G1 F1800 X114.356 Y93.072 E88.04813
G1 X114.295 Y93.011
G0 F4320 X114.356 Y93.567
G1 F1800 X129.341 Y108.552 E89.53157
G1 X129.402 Y108.613
G0 F4320 X129.341 Y109.047
G1 F1800 X114.152 Y93.858 E91.0352
G1 X114.091 Y93.797
G0 F4320 X113.657 Y93.858
G1 F1800 X129.341 Y109.542 E92.58784
G1 X129.402 Y109.603
G0 F4320 X129.341 Y110.037
G1 F1800 X113.162 Y93.858 E94.18948
G1 X113.101 Y93.797
G0 F4320 X112.667 Y93.858
G1 F1800 X129.341 Y110.532 E95.84012
G1 X129.402 Y110.593
G0 F4320 X129.341 Y111.027
G1 F1800 X112.172 Y93.858 E97.53977
G1 X112.111 Y93.797
G0 F4320 X111.677 Y93.858
G1 F1800 X129.341 Y111.522 E99.28841
G1 X129.402 Y111.583
G0 F4320 X129.341 Y112.017
G1 F1800 X111.182 Y93.858 E101.08606
G1 X111.121 Y93.797
G0 F4320 X110.687 Y93.858
G1 F1800 X129.341 Y112.512 E102.93271
G1 X129.402 Y112.573
G0 F4320 X129.341 Y113.007
G1 F1800 X110.192 Y93.858 E104.82837
G1 X110.131 Y93.797
G0 F4320 X109.697 Y93.858
G1 F1800 X129.341 Y113.502 E106.77302
G1 X129.402 Y113.563
G0 F4320 X129.341 Y113.997
G1 F1800 X109.202 Y93.858 E108.76668
G1 X109.141 Y93.797
G0 F4320 X108.707 Y93.858
G1 F1800 X129.341 Y114.492 E110.80935
G1 X129.402 Y114.553
G0 F4320 X129.341 Y114.987
G1 F1800 X93.657 Y79.303 E114.34188
G1 X93.596 Y79.242
G0 F4320 X93.657 Y78.808
G1 F1800 X108.641 Y93.792 E115.82522
G1 X108.702 Y93.853
G0 F4320 X108.641 Y93.297
G1 F1800 X93.657 Y78.313 E117.30856
G1 X93.596 Y78.252
G0 F4320 X93.657 Y77.818
G1 F1800 X108.641 Y92.802 E118.7919
G1 X108.702 Y92.863
G0 F4320 X108.641 Y92.307
G1 F1800 X93.657 Y77.323 E120.27524
G1 X93.596 Y77.262
G0 F4320 X93.687 Y76.858
G1 F1800 X108.641 Y91.812 E121.75561
G1 X108.702 Y91.873
G0 F4320 X108.641 Y91.317
G1 F1800 X94.182 Y76.858 E123.18698
G1 X94.121 Y76.797
G0 F4320 X94.677 Y76.858
G1 F1800 X108.641 Y90.822 E124.56935
G1 X108.702 Y90.883
G0 F4320 X108.641 Y90.327
G1 F1800 X95.172 Y76.858 E125.90271
G1 X95.111 Y76.797
G0 F4320 X95.667 Y76.858
G1 F1800 X108.641 Y89.832 E127.18707
G1 X108.702 Y89.893
G0 F4320 X108.641 Y89.337
G1 F1800 X96.162 Y76.858 E128.42243
G1 X96.101 Y76.797
G0 F4320 X96.657 Y76.858
G1 F1800 X108.641 Y88.842 E129.60878
G1 X108.702 Y88.903
G0 F4320 X108.641 Y88.347
G1 F1800 X97.152 Y76.858 E130.74614
G1 X97.091 Y76.797
G0 F4320 X97.647 Y76.858
G1 F1800 X108.641 Y87.852 E131.83449
G1 X108.702 Y87.913
G0 F4320 X108.641 Y87.357
G1 F1800 X98.142 Y76.858 E132.87383
G1 X98.081 Y76.797
G0 F4320 X98.637 Y76.858
G1 F1800 X108.641 Y86.862 E133.86418
G1 X108.702 Y86.923
G0 F4320 X108.641 Y86.367
G1 F1800 X99.132 Y76.858 E134.80552
G1 X99.071 Y76.797
G0 F4320 X99.627 Y76.858
G1 F1800 X108.641 Y85.872 E135.69786
G1 X108.702 Y85.933
G0 F4320 X108.641 Y85.377
G1 F1800 X100.122 Y76.858 E136.5412
G1 X100.061 Y76.797
G0 F4320 X100.617 Y76.858
G1 F1800 X108.641 Y84.882 E137.33554
G1 X108.702 Y84.943
G0 F4320 X108.641 Y84.387
G1 F1800 X101.112 Y76.858 E138.08087
G1 X101.051 Y76.797
G0 F4320 X101.607 Y76.858
G1 F1800 X108.641 Y83.892 E138.7772
G1 X108.702 Y83.953
G0 F4320 X108.641 Y83.397
G1 F1800 X102.101 Y76.858 E139.42458
G1 X102.04 Y76.797
G0 F4320 X102.596 Y76.858
G1 F1800 X108.641 Y82.902 E140.02295
G1 X108.702 Y82.963
G0 F4320 X108.641 Y82.407
G1 F1800 X103.091 Y76.858 E140.57233
G1 X103.03 Y76.797
G0 F4320 X103.586 Y76.858
G1 F1800 X108.641 Y81.912 E141.0727
G1 X108.702 Y81.973
G0 F4320 X108.641 Y81.417
G1 F1800 X104.081 Y76.858 E141.52406
G1 X104.02 Y76.797
G0 F4320 X104.576 Y76.858
G1 F1800 X108.641 Y80.922 E141.92643
G1 X108.702 Y80.983
G0 F4320 X108.641 Y80.427
G1 F1800 X105.071 Y76.858 E142.27979
G1 X105.01 Y76.797
G0 F4320 X105.566 Y76.858
G1 F1800 X108.641 Y79.932 E142.58415
G1 X108.702 Y79.993
G0 F4320 X108.641 Y79.437
G1 F1800 X106.061 Y76.858 E142.83951
G1 X106 Y76.797
G0 F4320 X106.556 Y76.858
G1 F1800 X108.641 Y78.942 E143.04586
G1 X108.702 Y79.003
G0 F4320 X108.641 Y78.447
G1 F1800 X107.051 Y76.858 E143.20321
G1 X106.99 Y76.797
G0 F4320 X107.546 Y76.858
G1 F1800 X108.641 Y77.952 E143.31156
G1 X108.702 Y78.013
G0 F4320 X108.641 Y77.457
G1 F1800 X108.041 Y76.858 E143.37091
G1 X107.98 Y76.797
G0 F4320 X108.536 Y76.858
G1 F1800 X108.641 Y76.962 E143.38126
G0 F4320 X93.657 Y79.798
G1 F1800 X129.341 Y115.482 E146.91379
G1 X129.402 Y115.543
G0 F4320 X129.341 Y115.977
G1 F1800 X93.657 Y80.293 E150.44633
G1 X93.596 Y80.232
G0 F4320 X93.657 Y80.788
G1 F1800 X129.341 Y116.472 E153.97886
G1 X129.402 Y116.533
G0 F4320 X129.341 Y116.967
G1 F1800 X93.657 Y81.283 E157.5114
G1 X93.596 Y81.222
G0 F4320 X93.657 Y81.778
G1 F1800 X129.341 Y117.462 E161.04394
G1 X129.402 Y117.523
G0 F4320 X129.341 Y117.957
G1 F1800 X93.657 Y82.273 E164.57647
G1 X93.596 Y82.212
G0 F4320 X93.657 Y82.768
G1 F1800 X129.471 Y118.582 E168.12188
G1 X129.532 Y118.643
G0 F4320 X129.818 Y119.423
G1 F1800 X93.657 Y83.263 E171.70158
G1 X93.596 Y83.202
G0 F4320 X93.657 Y83.758
G1 F1800 X130.099 Y120.2 E175.30916
G1 X130.16 Y120.261
G0 F4320 X130.329 Y120.925
G1 F1800 X93.657 Y84.253 E178.9395
G1 X93.596 Y84.192
G0 F4320 X93.657 Y84.748
G1 F1800 X130.517 Y121.608 E182.58845
G1 X130.578 Y121.669
G0 F4320 X130.675 Y122.26
G1 F1800 X93.657 Y85.243 E186.253
G1 X93.596 Y85.182
G0 F4320 X93.657 Y85.738
G1 F1800 X130.804 Y122.885 E189.93037
G1 X130.865 Y122.946
G0 F4320 X130.906 Y123.482
G1 F1800 X93.657 Y86.233 E193.61783
G1 X93.596 Y86.172
G0 F4320 X93.657 Y86.728
G1 F1800 X130.985 Y124.055 E197.31306
G1 X131.046 Y124.116
G0 F4320 X131.048 Y124.614
G1 F1800 X93.657 Y87.223 E201.01458
G1 X93.596 Y87.162
G0 F4320 X93.657 Y87.718
G1 F1800 X131.094 Y125.155 E204.72066
G1 X131.155 Y125.216
G0 F4320 X131.12 Y125.676
G1 F1800 X93.657 Y88.212 E208.42935
G1 X93.596 Y88.151
G0 F4320 X93.657 Y88.707
G1 F1800 X131.135 Y126.186 E212.13954
G1 X131.196 Y126.247
G0 F4320 X131.14 Y126.685
G1 F1800 X93.657 Y89.202 E215.85016
G1 X93.596 Y89.141
G0 F4320 X93.657 Y89.697
G1 F1800 X131.125 Y127.166 E219.55936
G1 X131.186 Y127.227
G0 F4320 X131.105 Y127.64
G1 F1800 X93.657 Y90.192 E223.26652
G1 X93.596 Y90.131
G0 F4320 X93.657 Y90.687
G1 F1800 X131.072 Y128.102 E226.97041
G1 X131.133 Y128.163
G0 F4320 X131.029 Y128.554
G1 F1800 X93.657 Y91.182 E230.67005
G1 X93.596 Y91.121
G0 F4320 X93.657 Y91.677
G1 F1800 X130.98 Y129 E234.36484
G1 X131.041 Y129.061
G0 F4320 X130.917 Y129.432
G1 F1800 X93.657 Y92.172 E238.05339
G1 X93.596 Y92.111
G0 F4320 X93.657 Y92.667
G1 F1800 X130.851 Y129.861 E241.73541
G1 X130.912 Y129.922
G0 F4320 X130.77 Y130.275
G1 F1800 X93.657 Y93.162 E245.40941
G1 X93.596 Y93.101
G0 F4320 X93.657 Y93.657
G1 F1800 X130.688 Y130.688 E249.07529
G1 X130.749 Y130.749
G0 F4320 X130.594 Y131.089
G1 F1800 X93.657 Y94.152 E252.73187
G1 X93.596 Y94.091
G0 F4320 X93.657 Y94.647
G1 F1800 X130.496 Y131.486 E256.37875
G1 X130.557 Y131.547
G0 F4320 X130.389 Y131.874
G1 F1800 X93.657 Y95.142 E260.01503
G1 X93.596 Y95.081
G0 F4320 X93.657 Y95.637
G1 F1800 X130.277 Y132.257 E263.64022
G1 X130.338 Y132.318
G0 F4320 X130.157 Y132.632
G1 F1800 X93.657 Y96.132 E267.25354
G1 X93.596 Y96.071
G0 F4320 X93.657 Y96.627
G1 F1800 X130.032 Y133.002 E270.85448
G1 X130.093 Y133.063
G0 F4320 X129.899 Y133.364
G1 F1800 X93.657 Y97.122 E274.44225
G1 X93.596 Y97.061
G0 F4320 X93.657 Y97.617
G1 F1800 X129.763 Y133.723 E278.01657
G1 X129.824 Y133.784
G0 F4320 X129.618 Y134.073
G1 F1800 X93.657 Y98.112 E281.57652
G1 X93.596 Y98.051
G0 F4320 X93.657 Y98.607
G1 F1800 X129.471 Y134.421 E285.12193
G1 X129.532 Y134.482
G0 F4320 X129.316 Y134.761
G1 F1800 X93.657 Y99.102 E288.65199
G1 X93.596 Y99.041
G0 F4320 X93.657 Y99.597
G1 F1800 X129.159 Y135.099 E292.16651
