;START_OF_HEADER
;HEADER_VERSION:0.1
;FLAVOR:Griffin
;GENERATOR.NAME:Cura_SteamEngine
;GENERATOR.VERSION:2.7.0
;GENERATOR.BUILD_DATE:2017-08-30
;TARGET_MACHINE.NAME:Ultimaker 3 Extended
;EXTRUDER_TRAIN.0.INITIAL_TEMPERATURE:205
;EXTRUDER_TRAIN.0.MATERIAL.VOLUME_USED:3907
;EXTRUDER_TRAIN.0.MATERIAL.GUID:506c9f0d-e3aa-4bd4-b2d2-23e2425b1aa9
;EXTRUDER_TRAIN.0.NOZZLE.DIAMETER:0.4
;EXTRUDER_TRAIN.0.NOZZLE.NAME:AA 0.4
;BUILD_PLATE.INITIAL_TEMPERATURE:60
;PRINT.TIME:2245
;PRINT.SIZE.MIN.X:9
;PRINT.SIZE.MIN.Y:6
;PRINT.SIZE.MIN.Z:0.27
;PRINT.SIZE.MAX.X:139.998
;PRINT.SIZE.MAX.Y:146.004
;PRINT.SIZE.MAX.Z:7.27
;END_OF_HEADER
;Generated with Cura_SteamEngine 2.7.0

T0
G92 E0

M109 S205
G0 F15000 X9 Y6 Z2
G280
G1 F1500 E-6.5
;LAYER_COUNT:36
;LAYER:0
M107
M204 S625
M205 X6 Y6
G0 F4285.7 X95.409 Y70.508 Z0.27
M204 S500
M205 X5 Y5
;TYPE:SKIRT
G1 F1500 E0
G1 F1200 X95.742 Y70.095 E0.00786
G1 X96.133 Y69.737 E0.01571
G1 X96.574 Y69.442 E0.02357
G1 X97.054 Y69.216 E0.03143
G1 X97.563 Y69.064 E0.0393
G1 X98.311 Y68.984 E0.05044
G1 X134.691 Y68.985 E0.58935
G1 X135.22 Y69.025 E0.59721
G1 X135.737 Y69.144 E0.60507
G1 X136.231 Y69.339 E0.61294
G1 X136.689 Y69.606 E0.62079
G1 X137.103 Y69.939 E0.62866
G1 X137.461 Y70.33 E0.63651
G1 X137.757 Y70.771 E0.64438
G1 X137.983 Y71.251 E0.65224
G1 X138.135 Y71.759 E0.66009
G1 X138.216 Y72.509 E0.67127
G1 X138.225 Y101.775 E1.1048
G1 X138.382 Y107.307 E1.18678
G1 X138.842 Y112.723 E1.26729
G1 X139.811 Y119.452 E1.368
G1 X139.834 Y119.649 E1.37094
G1 X139.974 Y121.257 E1.39485
G1 X139.987 Y121.538 E1.39902
G1 X139.998 Y123.117 E1.42241
G1 X139.989 Y123.393 E1.4265
G1 X139.878 Y124.95 E1.44962
G1 X139.846 Y125.232 E1.45382
G1 X139.595 Y126.873 E1.47842
G1 X139.525 Y127.218 E1.48363
G1 X138.942 Y129.484 E1.51829
G1 X138.839 Y129.817 E1.52345
G1 X138.285 Y131.332 E1.54735
G1 X138.176 Y131.595 E1.55157
G1 X137.502 Y133.059 E1.57544
G1 X137.372 Y133.313 E1.57967
G1 X136.581 Y134.719 E1.60356
G1 X136.432 Y134.962 E1.60779
G1 X135.55 Y136.27 E1.63116
G1 X135.39 Y136.488 E1.63516
G1 X134.411 Y137.724 E1.65852
G1 X134.224 Y137.941 E1.66276
G1 X133.115 Y139.128 E1.68683
G1 X132.858 Y139.376 E1.69212
G1 X131.028 Y140.975 E1.72812
G1 X130.694 Y141.234 E1.73438
G1 X128.75 Y142.559 E1.76923
G1 X128.452 Y142.741 E1.7744
G1 X127.026 Y143.518 E1.79845
G1 X126.772 Y143.644 E1.80266
G1 X125.331 Y144.285 E1.82602
G1 X125.071 Y144.388 E1.83016
G1 X123.569 Y144.918 E1.85375
G1 X123.298 Y145.002 E1.85796
G1 X121.722 Y145.419 E1.88211
G1 X121.445 Y145.48 E1.88631
G1 X119.881 Y145.762 E1.90985
G1 X119.605 Y145.801 E1.91398
G1 X118.039 Y145.957 E1.93729
G1 X117.758 Y145.973 E1.94146
G1 X116.162 Y146.004 E1.96511
G1 X115.88 Y145.999 E1.96929
G1 X114.266 Y145.901 E1.99324
G1 X113.984 Y145.872 E1.99744
G1 X112.414 Y145.649 E2.02093
G1 X112.134 Y145.597 E2.02515
G1 X110.557 Y145.241 E2.04909
G1 X110.291 Y145.17 E2.05317
G1 X108.795 Y144.707 E2.07637
G1 X108.53 Y144.614 E2.08053
G1 X107.03 Y144.015 E2.10446
G1 X106.77 Y143.899 E2.10867
G1 X105.357 Y143.198 E2.13204
G1 X105.111 Y143.063 E2.1362
G1 X103.724 Y142.231 E2.16016
G1 X103.492 Y142.079 E2.16426
G1 X102.247 Y141.192 E2.18691
G1 X101.973 Y140.976 E2.19208
G1 X100.142 Y139.377 E2.22809
G1 X99.885 Y139.128 E2.23339
G1 X98.776 Y137.941 E2.25745
G1 X98.59 Y137.725 E2.26167
G1 X97.611 Y136.49 E2.28502
G1 X97.45 Y136.271 E2.28905
G1 X96.568 Y134.963 E2.31242
G1 X96.418 Y134.719 E2.31666
G1 X95.627 Y133.312 E2.34057
G1 X95.471 Y132.999 E2.34575
G1 X94.521 Y130.829 E2.38084
G1 X94.356 Y130.367 E2.38811
G1 X93.494 Y127.293 E2.4354
G1 X93.394 Y126.808 E2.44273
G1 X93.076 Y124.429 E2.47829
G1 X93.047 Y124.074 E2.48356
G1 X92.994 Y122.411 E2.50821
G1 X92.996 Y122.126 E2.51243
G1 X93.073 Y120.561 E2.53564
G1 X93.106 Y120.226 E2.54063
G1 X93.946 Y114.452 E2.62706
G1 X94.509 Y108.971 E2.70868
G1 X94.76 Y103.519 E2.78953
G1 X94.786 Y72.506 E3.24894
G1 X94.826 Y71.977 E3.25679
G1 X94.946 Y71.46 E3.26466
G1 X95.141 Y70.967 E3.27251
G1 X95.409 Y70.508 E3.28038
M204 S625
M205 X6 Y6
G0 F4285.7 X95.757 Y70.623
M204 S500
M205 X5 Y5
G1 F1200 X96.087 Y70.243 E3.28784
G1 X96.473 Y69.92 E3.29529
G1 X96.906 Y69.662 E3.30276
G1 X97.373 Y69.476 E3.31021
G1 X97.865 Y69.365 E3.31768
G1 X98.311 Y69.334 E3.3243
G1 X134.691 Y69.335 E3.86321
G1 X135.193 Y69.375 E3.87067
G1 X135.682 Y69.494 E3.87812
G1 X136.147 Y69.688 E3.88559
G1 X136.575 Y69.954 E3.89305
G1 X136.955 Y70.284 E3.90051
G1 X137.279 Y70.67 E3.90797
G1 X137.537 Y71.102 E3.91543
G1 X137.724 Y71.57 E3.92289
G1 X137.834 Y72.061 E3.93035
G1 X137.866 Y72.509 E3.937
G1 X137.875 Y101.785 E4.37067
G1 X138.031 Y107.312 E4.45258
G1 X138.495 Y112.768 E4.53369
G1 X139.465 Y119.502 E4.63448
G1 X139.485 Y119.68 E4.63713
G1 X139.625 Y121.288 E4.66104
G1 X139.637 Y121.541 E4.66479
G1 X139.648 Y123.12 E4.68818
G1 X139.64 Y123.368 E4.69186
G1 X139.529 Y124.925 E4.71498
G1 X139.5 Y125.179 E4.71877
G1 X139.249 Y126.82 E4.74336
G1 X139.186 Y127.131 E4.74806
G1 X138.603 Y129.397 E4.78272
G1 X138.51 Y129.696 E4.78736
G1 X137.956 Y131.211 E4.81125
G1 X137.858 Y131.449 E4.81507
G1 X137.184 Y132.913 E4.83894
G1 X137.067 Y133.142 E4.84275
G1 X136.276 Y134.548 E4.86665
G1 X136.141 Y134.766 E4.87045
G1 X135.259 Y136.074 E4.89382
G1 X135.116 Y136.27 E4.89741
G1 X134.137 Y137.506 E4.92077
G1 X133.968 Y137.703 E4.92461
G1 X132.859 Y138.89 E4.94867
G1 X132.628 Y139.113 E4.95343
G1 X130.798 Y140.712 E4.98943
G1 X130.497 Y140.945 E4.99507
G1 X128.553 Y142.27 E5.02992
G1 X128.284 Y142.434 E5.03458
G1 X126.858 Y143.211 E5.05864
G1 X126.629 Y143.324 E5.06242
G1 X125.188 Y143.965 E5.08579
G1 X124.954 Y144.058 E5.08952
G1 X123.452 Y144.588 E5.11311
G1 X123.208 Y144.663 E5.11689
G1 X121.632 Y145.08 E5.14104
G1 X121.383 Y145.136 E5.14482
G1 X119.819 Y145.418 E5.16836
G1 X119.571 Y145.452 E5.17207
G1 X118.005 Y145.608 E5.19538
G1 X117.752 Y145.623 E5.19914
G1 X116.156 Y145.654 E5.22278
G1 X115.902 Y145.649 E5.22655
G1 X114.288 Y145.551 E5.2505
G1 X114.034 Y145.525 E5.25428
G1 X112.464 Y145.302 E5.27777
G1 X112.211 Y145.256 E5.28158
G1 X110.634 Y144.9 E5.30553
G1 X110.394 Y144.836 E5.30921
G1 X108.898 Y144.373 E5.33241
G1 X108.66 Y144.289 E5.33615
G1 X107.16 Y143.69 E5.36007
G1 X106.926 Y143.585 E5.36387
G1 X105.513 Y142.884 E5.38724
G1 X105.291 Y142.763 E5.39098
G1 X103.904 Y141.931 E5.41494
G1 X103.695 Y141.794 E5.41864
G1 X102.45 Y140.907 E5.44129
G1 X102.204 Y140.712 E5.44594
G1 X100.373 Y139.113 E5.48195
G1 X100.141 Y138.89 E5.48672
G1 X99.032 Y137.703 E5.51078
G1 X98.864 Y137.507 E5.5146
G1 X97.885 Y136.272 E5.53795
G1 X97.741 Y136.075 E5.54156
G1 X96.859 Y134.767 E5.56493
G1 X96.723 Y134.548 E5.56875
G1 X95.932 Y133.141 E5.59266
G1 X95.792 Y132.858 E5.59734
G1 X94.842 Y130.688 E5.63243
G1 X94.693 Y130.272 E5.63897
G1 X93.831 Y127.198 E5.68627
G1 X93.741 Y126.762 E5.69286
G1 X93.423 Y124.383 E5.72842
G1 X93.397 Y124.063 E5.73317
G1 X93.344 Y122.4 E5.75782
G1 X93.346 Y122.143 E5.76163
G1 X93.423 Y120.578 E5.78484
G1 X93.452 Y120.277 E5.78932
G1 X94.297 Y114.469 E5.87626
G1 X94.856 Y109.023 E5.95736
G1 X95.11 Y103.513 E6.03906
G1 X95.136 Y72.506 E6.49838
G1 X95.176 Y72.004 E6.50584
G1 X95.296 Y71.515 E6.5133
G1 X95.491 Y71.051 E6.52075
G1 X95.757 Y70.623 E6.52822
M204 S625
M205 X6 Y6
G1 F1500 E0.02822
G0 F4285.7 X98.489 Y72.689
G0 X98.545 Y72.745
G0 X98.475 Y72.675
M204 S500
M205 X5 Y5
;TYPE:WALL-OUTER
G1 F1500 E6.52822
G1 F1200 X113.825 Y72.675 E6.7556
G1 X113.825 Y89.675 E7.00743
G1 X119.175 Y89.675 E7.08668
G1 X119.175 Y72.675 E7.33851
G1 X134.525 Y72.675 E7.56589
G1 X134.525 Y114.244 E8.18167
G1 X134.856 Y115.011 E8.19404
G1 X135.138 Y115.744 E8.20567
G1 X135.393 Y116.494 E8.21741
G1 X135.618 Y117.254 E8.22915
G1 X135.814 Y118.029 E8.24099
G1 X135.977 Y118.797 E8.25262
G1 X136.108 Y119.578 E8.26435
G1 X136.21 Y120.371 E8.2762
G1 X136.279 Y121.153 E8.28783
G1 X136.317 Y121.945 E8.29957
G1 X136.324 Y122.736 E8.31129
G1 X136.298 Y123.528 E8.32303
G1 X136.24 Y124.325 E8.33487
G1 X136.153 Y125.107 E8.34652
G1 X136.033 Y125.889 E8.35824
G1 X135.88 Y126.673 E8.37007
G1 X135.701 Y127.438 E8.38171
G1 X135.487 Y128.201 E8.39345
G1 X135.243 Y128.962 E8.40529
G1 X134.971 Y129.699 E8.41693
G1 X134.666 Y130.438 E8.42877
G1 X134.338 Y131.152 E8.44041
G1 X133.978 Y131.857 E8.45213
G1 X133.586 Y132.554 E8.46398
G1 X133.171 Y133.228 E8.4757
G1 X132.734 Y133.881 E8.48734
G1 X132.266 Y134.52 E8.49908
G1 X131.772 Y135.14 E8.51082
G1 X131.25 Y135.746 E8.52267
G1 X130.715 Y136.319 E8.53428
G1 X130.146 Y136.881 E8.54613
G1 X129.566 Y137.41 E8.55776
G1 X128.954 Y137.925 E8.5696
G1 X128.334 Y138.406 E8.58123
G1 X127.682 Y138.869 E8.59307
G1 X127.026 Y139.3 E8.6047
G1 X126.346 Y139.707 E8.61644
G1 X125.645 Y140.09 E8.62827
G1 X124.934 Y140.441 E8.64002
G1 X124.217 Y140.761 E8.65165
G1 X123.475 Y141.057 E8.66348
G1 X122.734 Y141.319 E8.67513
G1 X121.974 Y141.554 E8.68691
G1 X121.212 Y141.757 E8.69859
G1 X120.432 Y141.931 E8.71043
G1 X119.653 Y142.073 E8.72216
G1 X118.874 Y142.182 E8.73381
G1 X118.086 Y142.261 E8.74554
G1 X117.288 Y142.309 E8.75739
G1 X116.5 Y142.325 E8.76906
G1 X115.712 Y142.309 E8.78074
G1 X114.914 Y142.261 E8.79258
G1 X114.126 Y142.182 E8.80431
G1 X113.347 Y142.073 E8.81596
G1 X112.568 Y141.931 E8.82769
G1 X111.788 Y141.757 E8.83953
G1 X111.026 Y141.554 E8.85121
G1 X110.266 Y141.319 E8.863
G1 X109.525 Y141.057 E8.87464
G1 X108.783 Y140.761 E8.88647
G1 X108.066 Y140.441 E8.8981
G1 X107.355 Y140.09 E8.90985
G1 X106.654 Y139.707 E8.92168
G1 X105.974 Y139.3 E8.93342
G1 X105.318 Y138.87 E8.94504
G1 X104.667 Y138.405 E8.95689
G1 X104.046 Y137.925 E8.96852
G1 X103.434 Y137.41 E8.98037
G1 X102.854 Y136.881 E8.992
G1 X102.285 Y136.319 E9.00384
G1 X101.75 Y135.746 E9.01546
G1 X101.228 Y135.14 E9.0273
G1 X100.734 Y134.52 E9.03905
G1 X100.266 Y133.881 E9.05078
G1 X99.829 Y133.228 E9.06242
G1 X99.414 Y132.554 E9.07414
G1 X99.022 Y131.857 E9.08599
G1 X98.662 Y131.152 E9.09772
G1 X98.334 Y130.438 E9.10936
G1 X98.029 Y129.699 E9.1212
G1 X97.758 Y128.962 E9.13283
G1 X97.513 Y128.201 E9.14467
G1 X97.299 Y127.438 E9.15641
G1 X97.119 Y126.673 E9.16805
G1 X96.967 Y125.889 E9.17988
G1 X96.847 Y125.107 E9.1916
G1 X96.76 Y124.325 E9.20326
G1 X96.702 Y123.528 E9.2151
G1 X96.676 Y122.744 E9.22672
G1 X96.683 Y121.951 E9.23846
G1 X96.721 Y121.153 E9.2503
G1 X96.79 Y120.371 E9.26193
G1 X96.891 Y119.585 E9.27367
G1 X97.024 Y118.797 E9.2855
G1 X97.186 Y118.029 E9.29713
G1 X97.38 Y117.261 E9.30886
G1 X97.605 Y116.5 E9.32062
G1 X97.862 Y115.744 E9.33245
G1 X98.144 Y115.011 E9.34408
G1 X98.475 Y114.244 E9.35646
G1 X98.475 Y72.675 E9.97223
M204 S625
M205 X6 Y6
G0 F4285.7 X98.675 Y72.675
G0 X98.675 Y72.775
G0 X113.797 Y89.703
G0 X119.203 Y89.703
G0 X134.384 Y73.007
M204 S500
M205 X5 Y5
;TYPE:SKIN
G1 F1200 X134.191 Y72.815 E9.97626
M204 S625
M205 X6 Y6
G0 F4285.7 X133.696 Y72.815
M204 S500
M205 X5 Y5
G1 F1200 X134.384 Y73.502 E9.99067
M204 S625
M205 X6 Y6
G0 F4285.7 X134.384 Y73.997
M204 S500
M205 X5 Y5
G1 F1200 X133.201 Y72.815 E10.01544
M204 S625
M205 X6 Y6
G0 F4285.7 X132.706 Y72.815
M204 S500
M205 X5 Y5
G1 F1200 X134.384 Y74.492 E10.05058
M204 S625
M205 X6 Y6
G0 F4285.7 X134.384 Y74.987
M204 S500
M205 X5 Y5
G1 F1200 X132.211 Y72.815 E10.09609
M204 S625
M205 X6 Y6
G0 F4285.7 X131.717 Y72.815
M204 S500
M205 X5 Y5
G1 F1200 X134.384 Y75.482 E10.15196
M204 S625
M205 X6 Y6
G0 F4285.7 X134.384 Y75.977
M204 S500
M205 X5 Y5
G1 F1200 X131.222 Y72.815 E10.21821
M204 S625
M205 X6 Y6
G0 F4285.7 X130.727 Y72.815
M204 S500
M205 X5 Y5
G1 F1200 X134.384 Y76.472 E10.29482
M204 S625
M205 X6 Y6
G0 F4285.7 X134.384 Y76.967
M204 S500
M205 X5 Y5
G1 F1200 X130.232 Y72.815 E10.3818
M204 S625
M205 X6 Y6
G0 F4285.7 X129.737 Y72.815
M204 S500
M205 X5 Y5
G1 F1200 X134.384 Y77.462 E10.47915
M204 S625
M205 X6 Y6
G0 F4285.7 X134.384 Y77.957
M204 S500
M205 X5 Y5
G1 F1200 X129.242 Y72.815 E10.58687
M204 S625
M205 X6 Y6
G0 F4285.7 X128.747 Y72.815
M204 S500
M205 X5 Y5
G1 F1200 X134.384 Y78.452 E10.70496
M204 S625
M205 X6 Y6
G0 F4285.7 X134.384 Y78.947
M204 S500
M205 X5 Y5
G1 F1200 X128.252 Y72.815 E10.83342
M204 S625
M205 X6 Y6
G0 F4285.7 X127.757 Y72.815
M204 S500
M205 X5 Y5
G1 F1200 X134.384 Y79.442 E10.97225
M204 S625
M205 X6 Y6
G0 F4285.7 X134.384 Y79.937
M204 S500
M205 X5 Y5
G1 F1200 X127.262 Y72.815 E11.12145
M204 S625
M205 X6 Y6
G0 F4285.7 X126.767 Y72.815
M204 S500
M205 X5 Y5
G1 F1200 X134.384 Y80.431 E11.28101
M204 S625
M205 X6 Y6
G0 F4285.7 X134.384 Y80.926
M204 S500
M205 X5 Y5
G1 F1200 X126.272 Y72.815 E11.45094
M204 S625
M205 X6 Y6
G0 F4285.7 X125.777 Y72.815
M204 S500
M205 X5 Y5
G1 F1200 X134.384 Y81.421 E11.63124
M204 S625
M205 X6 Y6
G0 F4285.7 X134.384 Y81.916
M204 S500
M205 X5 Y5
G1 F1200 X125.282 Y72.815 E11.82191
M204 S625
M205 X6 Y6
G0 F4285.7 X124.787 Y72.815
M204 S500
M205 X5 Y5
G1 F1200 X134.384 Y82.411 E12.02295
M204 S625
M205 X6 Y6
G0 F4285.7 X134.384 Y82.906
M204 S500
M205 X5 Y5
G1 F1200 X124.292 Y72.815 E12.23436
M204 S625
M205 X6 Y6
G0 F4285.7 X123.797 Y72.815
M204 S500
M205 X5 Y5
G1 F1200 X134.384 Y83.401 E12.45613
M204 S625
M205 X6 Y6
G0 F4285.7 X134.384 Y83.896
M204 S500
M205 X5 Y5
G1 F1200 X123.302 Y72.815 E12.68828
M204 S625
M205 X6 Y6
G0 F4285.7 X122.807 Y72.815
M204 S500
M205 X5 Y5
G1 F1200 X134.384 Y84.391 E12.9308
M204 S625
M205 X6 Y6
G0 F4285.7 X134.384 Y84.886
M204 S500
M205 X5 Y5
G1 F1200 X122.312 Y72.815 E13.18369
M204 S625
M205 X6 Y6
G0 F4285.7 X121.817 Y72.815
M204 S500
M205 X5 Y5
G1 F1200 X134.384 Y85.381 E13.44695
M204 S625
M205 X6 Y6
G0 F4285.7 X134.384 Y85.876
M204 S500
M205 X5 Y5
G1 F1200 X121.322 Y72.815 E13.72058
M204 S625
M205 X6 Y6
G0 F4285.7 X120.827 Y72.815
M204 S500
M205 X5 Y5
G1 F1200 X134.384 Y86.371 E14.00457
M204 S625
M205 X6 Y6
G0 F4285.7 X134.384 Y86.866
M204 S500
M205 X5 Y5
G1 F1200 X120.332 Y72.815 E14.29894
M204 S625
M205 X6 Y6
G0 F4285.7 X119.837 Y72.815
M204 S500
M205 X5 Y5
G1 F1200 X134.384 Y87.361 E14.60368
M204 S625
M205 X6 Y6
G0 F4285.7 X134.384 Y87.856
M204 S500
M205 X5 Y5
G1 F1200 X119.342 Y72.815 E14.91878
M204 S625
M205 X6 Y6
G0 F4285.7 X119.314 Y73.281
M204 S500
M205 X5 Y5
G1 F1200 X134.384 Y88.351 E15.23449
M204 S625
M205 X6 Y6
G0 F4285.7 X134.384 Y88.846
M204 S500
M205 X5 Y5
G1 F1200 X119.314 Y73.776 E15.55019
M204 S625
M205 X6 Y6
G0 F4285.7 X119.314 Y74.271
M204 S500
M205 X5 Y5
G1 F1200 X134.384 Y89.341 E15.8659
M204 S625
M205 X6 Y6
G0 F4285.7 X134.384 Y89.836
M204 S500
M205 X5 Y5
G1 F1200 X119.314 Y74.766 E16.1816
M204 S625
M205 X6 Y6
G0 F4285.7 X119.314 Y75.261
M204 S500
M205 X5 Y5
G1 F1200 X134.384 Y90.331 E16.49731
M204 S625
M205 X6 Y6
G0 F4285.7 X134.384 Y90.826
M204 S500
M205 X5 Y5
G1 F1200 X119.314 Y75.756 E16.81301
M204 S625
M205 X6 Y6
G0 F4285.7 X119.314 Y76.251
M204 S500
M205 X5 Y5
G1 F1200 X134.384 Y91.321 E17.12871
M204 S625
M205 X6 Y6
G0 F4285.7 X134.384 Y91.816
M204 S500
M205 X5 Y5
G1 F1200 X119.314 Y76.746 E17.44442
M204 S625
M205 X6 Y6
G0 F4285.7 X119.314 Y77.241
M204 S500
M205 X5 Y5
G1 F1200 X134.384 Y92.311 E17.76012
M204 S625
M205 X6 Y6
G0 F4285.7 X134.384 Y92.806
M204 S500
M205 X5 Y5
G1 F1200 X119.314 Y77.736 E18.07583
M204 S625
M205 X6 Y6
G0 F4285.7 X119.314 Y78.231
M204 S500
M205 X5 Y5
G1 F1200 X134.384 Y93.301 E18.39153
M204 S625
M205 X6 Y6
G0 F4285.7 X134.384 Y93.796
M204 S500
M205 X5 Y5
G1 F1200 X119.314 Y78.726 E18.70724
M204 S625
M205 X6 Y6
G0 F4285.7 X119.314 Y79.221
M204 S500
M205 X5 Y5
G1 F1200 X134.384 Y94.291 E19.02294
M204 S625
M205 X6 Y6
G0 F4285.7 X134.384 Y94.786
M204 S500
M205 X5 Y5
G1 F1200 X119.314 Y79.716 E19.33864
M204 S625
M205 X6 Y6
G0 F4285.7 X119.314 Y80.211
M204 S500
M205 X5 Y5
G1 F1200 X134.384 Y95.281 E19.65435
M204 S625
M205 X6 Y6
G0 F4285.7 X134.384 Y95.776
M204 S500
M205 X5 Y5
G1 F1200 X119.314 Y80.706 E19.97005
M204 S625
M205 X6 Y6
G0 F4285.7 X119.314 Y81.201
M204 S500
M205 X5 Y5
G1 F1200 X134.384 Y96.271 E20.28576
M204 S625
M205 X6 Y6
G0 F4285.7 X134.384 Y96.766
M204 S500
M205 X5 Y5
G1 F1200 X119.314 Y81.696 E20.60146
M204 S625
M205 X6 Y6
G0 F4285.7 X119.314 Y82.191
M204 S500
M205 X5 Y5
G1 F1200 X134.384 Y97.261 E20.91717
M204 S625
M205 X6 Y6
G0 F4285.7 X134.384 Y97.756
M204 S500
M205 X5 Y5
G1 F1200 X119.314 Y82.686 E21.23287
M204 S625
M205 X6 Y6
G0 F4285.7 X119.314 Y83.181
M204 S500
M205 X5 Y5
