;FLAVOR:UltiGCode
;TIME:7651
;MATERIAL:15501
;MATERIAL2:0
;NOZZLE_DIAMETER:0.4
;Generated with Cura_SteamEngine 2.7.0

;LAYER_COUNT:101
;LAYER:0
M107
G0 F4500 X59.341 Y46.117 Z0.27
;TYPE:SKIRT
G1 F1800 X60.175 Y45.076 E0.12605
G1 X60.452 Y44.773 E0.16485
G1 X61.289 Y43.968 E0.27459
G1 X61.576 Y43.723 E0.31025
G1 X62.599 Y42.95 E0.43142
G1 X62.885 Y42.757 E0.46402
G1 X63.63 Y42.312 E0.54603
G1 X63.915 Y42.161 E0.57651
G1 X64.95 Y41.678 E0.68444
G1 X65.307 Y41.537 E0.72071
G1 X66.544 Y41.133 E0.84369
G1 X66.932 Y41.033 E0.88155
G1 X68.074 Y40.814 E0.99144
G1 X68.451 Y40.765 E1.02736
G1 X69.739 Y40.675 E1.14937
G1 X70.078 Y40.669 E1.18142
G1 X70.915 Y40.7 E1.26057
G1 X71.308 Y40.739 E1.29789
G1 X72.902 Y40.999 E1.45051
G1 X73.275 Y41.083 E1.48664
G1 X74.079 Y41.316 E1.56575
G1 X74.338 Y41.404 E1.5916
G1 X78.013 Y42.822 E1.96384
G1 X83.222 Y44.575 E2.48322
G1 X88.496 Y46.024 E3.00008
G1 X93.888 Y47.182 E3.52124
G1 X96.521 Y47.63 E3.77363
G1 X101.996 Y48.328 E4.29521
G1 X107.439 Y48.71 E4.81084
G1 X112.93 Y48.785 E5.32979
G1 X118.399 Y48.55 E5.84708
G1 X123.844 Y48.006 E6.3642
G1 X129.262 Y47.153 E6.88251
G1 X131.917 Y46.619 E7.13843
G1 X134.582 Y46.004 E7.39689
G1 X139.896 Y44.537 E7.91785
G1 X145.098 Y42.78 E8.43672
G1 X148.694 Y41.393 E8.80094
G1 X149.085 Y41.27 E8.83968
G1 X150.694 Y40.878 E8.99617
G1 X151.142 Y40.803 E9.0391
G1 X152.306 Y40.691 E9.14961
G1 X152.681 Y40.677 E9.18507
G1 X153.933 Y40.705 E9.30341
G1 X154.281 Y40.732 E9.3364
G1 X155.183 Y40.852 E9.42239
G1 X155.569 Y40.928 E9.45956
G1 X157.102 Y41.33 E9.60933
G1 X157.476 Y41.453 E9.64654
G1 X158.301 Y41.783 E9.7305
G1 X158.597 Y41.919 E9.76129
G1 X159.577 Y42.433 E9.86586
G1 X159.888 Y42.62 E9.90015
G1 X160.93 Y43.329 E10.01926
G1 X161.209 Y43.542 E10.05243
G1 X161.911 Y44.143 E10.13976
G1 X162.152 Y44.373 E10.17124
G1 X162.923 Y45.188 E10.27726
G1 X163.163 Y45.473 E10.31247
G1 X163.93 Y46.502 E10.43375
G1 X164.207 Y46.946 E10.4832
G1 X165.113 Y48.707 E10.67035
G1 X165.29 Y49.121 E10.7129
G1 X165.558 Y49.895 E10.7903
G1 X165.648 Y50.203 E10.82063
G1 X165.945 Y51.458 E10.9425
G1 X166.006 Y51.801 E10.97542
G1 X166.105 Y52.604 E11.05188
G1 X166.129 Y52.99 E11.08843
G1 X166.17 Y121.969 E17.60694
G1 X166.169 Y122.034 E17.61309
G1 X166.027 Y129.137 E18.28445
G1 X166.024 Y129.242 E18.29438
G1 X165.681 Y135.71 E18.90647
G1 X165.672 Y135.826 E18.91746
G1 X165.12 Y141.965 E19.49994
G1 X165.105 Y142.103 E19.51306
G1 X164.234 Y148.599 E20.13242
G1 X164.207 Y148.764 E20.14822
G1 X163.114 Y154.574 E20.7069
G1 X163.052 Y154.84 E20.73271
G1 X162.312 Y157.492 E20.99289
G1 X162.241 Y157.716 E21.0151
G1 X161.414 Y160.009 E21.24545
G1 X161.308 Y160.266 E21.27172
G1 X160.035 Y163.015 E21.55801
G1 X159.912 Y163.254 E21.58341
G1 X158.67 Y165.431 E21.82026
G1 X158.533 Y165.65 E21.84467
G1 X156.986 Y167.913 E22.10372
G1 X156.807 Y168.151 E22.13186
G1 X154.796 Y170.57 E22.42913
G1 X154.629 Y170.755 E22.45268
G1 X152.907 Y172.524 E22.68598
G1 X152.761 Y172.664 E22.70509
G1 X151.771 Y173.559 E22.83121
G1 X151.606 Y173.699 E22.85166
G1 X149.186 Y175.604 E23.14271
G1 X148.907 Y175.8 E23.17493
G1 X145.545 Y177.905 E23.54977
G1 X145.234 Y178.076 E23.58331
G1 X142.334 Y179.468 E23.8873
G1 X142.068 Y179.581 E23.91461
G1 X139.483 Y180.544 E24.17529
G1 X139.191 Y180.637 E24.20425
G1 X135.719 Y181.56 E24.54375
G1 X135.407 Y181.627 E24.57391
G1 X132.582 Y182.081 E24.8443
G1 X132.362 Y182.108 E24.86524
G1 X130.723 Y182.255 E25.02075
G1 X130.531 Y182.267 E25.03893
G1 X127.944 Y182.342 E25.2835
G1 X127.847 Y182.343 E25.29267
G1 X92.911 Y182.291 E28.59412
G1 X92.675 Y182.282 E28.61644
G1 X91.307 Y182.178 E28.74609
G1 X91.109 Y182.156 E28.76492
G1 X88.346 Y181.77 E29.02856
G1 X88.125 Y181.732 E29.04975
G1 X86.417 Y181.369 E29.21476
G1 X86.195 Y181.313 E29.2364
G1 X83.386 Y180.501 E29.51271
G1 X83.156 Y180.425 E29.53561
G1 X81.073 Y179.646 E29.74576
G1 X80.884 Y179.568 E29.76509
G1 X79.277 Y178.846 E29.93157
G1 X79.097 Y178.758 E29.9505
G1 X76.962 Y177.632 E30.1786
G1 X76.741 Y177.504 E30.20274
G1 X74.388 Y176.01 E30.46613
G1 X74.155 Y175.847 E30.493
G1 X71.735 Y173.986 E30.78149
G1 X71.529 Y173.814 E30.80685
G1 X69.712 Y172.155 E31.03936
G1 X69.531 Y171.976 E31.06342
G1 X67.661 Y169.971 E31.32251
G1 X67.481 Y169.76 E31.34872
G1 X65.704 Y167.486 E31.62144
G1 X65.573 Y167.306 E31.64248
G1 X64.628 Y165.904 E31.80226
G1 X64.49 Y165.679 E31.8272
G1 X62.652 Y162.392 E32.18309
G1 X62.536 Y162.164 E32.20726
G1 X61.947 Y160.878 E32.34093
G1 X61.862 Y160.672 E32.36199
G1 X60.767 Y157.755 E32.65643
G1 X60.697 Y157.547 E32.67717
G1 X60.283 Y156.16 E32.81395
G1 X60.232 Y155.971 E32.83245
G1 X59.603 Y153.264 E33.09508
G1 X59.566 Y153.079 E33.11291
G1 X58.491 Y146.784 E33.71639
G1 X58.469 Y146.632 E33.73091
G1 X57.73 Y140.538 E34.31101
G1 X57.717 Y140.411 E34.32307
G1 X57.228 Y134.347 E34.89798
G1 X57.221 Y134.235 E34.90859
G1 X56.926 Y127.694 E35.52734
G1 X56.924 Y127.618 E35.53452
G1 X56.848 Y124.01 E35.87556
G1 X56.847 Y123.944 E35.88179
G1 X56.825 Y54.871 E42.40919
G1 X56.827 Y54.752 E42.42044
G1 X56.91 Y52.526 E42.63094
G1 X56.96 Y52.072 E42.67411
G1 X57.187 Y50.832 E42.79323
G1 X57.309 Y50.366 E42.83875
G1 X57.881 Y48.712 E43.00414
G1 X58.122 Y48.181 E43.05925
G1 X59.059 Y46.533 E43.23839
G1 X59.341 Y46.117 E43.28589
G10
G0 F4500 X61.354 Y47.55
G0 X62.084 Y48.069
G0 X62.336 Y47.886
G0 X62.257 Y47.825
;TYPE:WALL-OUTER
G11
G1 F1800 X62.778 Y47.207 E43.36227
G1 X63.349 Y46.634 E43.43872
G1 X63.965 Y46.11 E43.51514
G1 X64.613 Y45.645 E43.59051
G1 X65.32 Y45.221 E43.66842
G1 X66.034 Y44.869 E43.74364
G1 X66.792 Y44.571 E43.82061
G1 X67.556 Y44.341 E43.89601
G1 X68.362 Y44.17 E43.97387
G1 X69.147 Y44.069 E44.04867
G1 X69.963 Y44.032 E44.12586
G1 X70.766 Y44.062 E44.20179
G1 X71.577 Y44.16 E44.27899
G1 X72.363 Y44.321 E44.35481
G1 X73.135 Y44.546 E44.4308
G1 X73.897 Y44.84 E44.50798
G1 X74.628 Y45.193 E44.5847
G1 X75.317 Y45.599 E44.66027
G1 X75.97 Y46.059 E44.73575
G1 X76.602 Y46.589 E44.8137
G1 X77.836 Y47.677 E44.96916
G1 X79.111 Y48.73 E45.12543
G1 X80.418 Y49.741 E45.28158
G1 X81.757 Y50.711 E45.43783
G1 X83.117 Y51.631 E45.59299
G1 X83.556 Y51.955 E45.64455
G1 X83.94 Y52.307 E45.69378
G1 X84.289 Y52.709 E45.74409
G1 X84.588 Y53.141 E45.79374
G1 X84.842 Y53.61 E45.84414
G1 X85.041 Y54.098 E45.89394
G1 X85.183 Y54.603 E45.94352
G1 X85.27 Y55.123 E45.99334
G1 X85.3 Y55.666 E46.04473
G1 X85.3 Y64.019 E46.83409
G1 X85.321 Y64.834 E46.91113
G1 X85.388 Y65.649 E46.98841
G1 X85.527 Y66.627 E47.08176
G1 X85.688 Y67.428 E47.15897
G1 X85.892 Y68.219 E47.23616
G1 X86.139 Y68.997 E47.3133
G1 X86.429 Y69.764 E47.39079
G1 X86.834 Y70.667 E47.48431
G1 X87.211 Y71.394 E47.5617
G1 X87.627 Y72.099 E47.63906
G1 X88.139 Y72.861 E47.72581
G1 X88.624 Y73.502 E47.80177
G1 X89.191 Y74.173 E47.88479
G1 X89.775 Y74.787 E47.96487
G1 X90.392 Y75.367 E48.04489
G1 X91.058 Y75.928 E48.12718
G1 X91.38 Y76.177 E48.16565
G1 X92.052 Y76.659 E48.2438
G1 X92.748 Y77.114 E48.32238
G1 X93.469 Y77.541 E48.40156
G1 X94.216 Y77.944 E48.48177
G1 X94.425 Y78.04 E48.50351
G1 X94.644 Y78.119 E48.52551
G1 X94.87 Y78.18 E48.54763
G1 X95.1 Y78.219 E48.56967
G1 X95.332 Y78.24 E48.59169
G1 X95.566 Y78.24 E48.6138
G1 X95.798 Y78.219 E48.63581
G1 X96.028 Y78.18 E48.65786
G1 X96.254 Y78.12 E48.67996
G1 X96.474 Y78.04 E48.70208
G1 X96.686 Y77.943 E48.72411
G1 X96.889 Y77.826 E48.74625
G1 X97.081 Y77.693 E48.76832
G1 X97.261 Y77.543 E48.79046
G1 X97.429 Y77.378 E48.81272
G1 X98.264 Y76.363 E48.93692
G1 X98.992 Y75.558 E49.03949
G1 X99.445 Y75.099 E49.10043
G1 X99.921 Y74.646 E49.16253
G1 X100.523 Y74.118 E49.2382
G1 X101.154 Y73.613 E49.31457
G1 X101.811 Y73.135 E49.39135
G1 X102.472 Y72.697 E49.46628
G1 X103.163 Y72.287 E49.54221
G1 X103.88 Y71.907 E49.6189
G1 X104.596 Y71.571 E49.69364
G1 X105.345 Y71.264 E49.77014
G1 X105.882 Y71.071 E49.82406
G1 X106.442 Y70.892 E49.87962
G1 X107.001 Y70.735 E49.93449
G1 X107.56 Y70.598 E49.98888
G1 X108.138 Y70.479 E50.04464
G1 X108.714 Y70.379 E50.09989
G1 X109.288 Y70.3 E50.15464
G1 X109.87 Y70.24 E50.20993
G1 X113.13 Y70.24 E50.518
G1 X113.712 Y70.3 E50.57329
G1 X114.286 Y70.379 E50.62805
G1 X114.862 Y70.479 E50.68329
G1 X115.44 Y70.598 E50.73906
G1 X115.999 Y70.735 E50.79345
G1 X116.558 Y70.892 E50.84832
G1 X117.118 Y71.071 E50.90388
G1 X117.655 Y71.264 E50.9578
G1 X118.404 Y71.571 E51.0343
G1 X119.12 Y71.907 E51.10904
G1 X119.837 Y72.287 E51.18572
G1 X120.52 Y72.692 E51.26076
G1 X121.194 Y73.138 E51.33714
G1 X121.835 Y73.603 E51.41197
G1 X122.466 Y74.108 E51.48834
G1 X123.094 Y74.66 E51.56736
G1 X123.565 Y75.109 E51.62885
G1 X124.023 Y75.575 E51.6906
G1 X124.731 Y76.358 E51.79035
G1 X125.56 Y77.366 E51.91369
G1 X125.731 Y77.536 E51.93647
G1 X125.911 Y77.686 E51.95861
G1 X126.103 Y77.819 E51.98069
G1 X126.304 Y77.936 E52.00266
G1 X126.517 Y78.035 E52.02486
G1 X126.736 Y78.115 E52.04689
G1 X126.961 Y78.175 E52.0689
G1 X127.191 Y78.216 E52.09098
G1 X127.422 Y78.237 E52.1129
G1 X127.656 Y78.24 E52.13501
G1 X127.889 Y78.222 E52.1571
G1 X128.12 Y78.182 E52.17925
G1 X128.347 Y78.123 E52.20141
G1 X128.587 Y78.034 E52.2256
G1 X128.784 Y77.944 E52.24607
G1 X129.53 Y77.541 E52.3262
G1 X130.251 Y77.115 E52.40534
G1 X130.947 Y76.66 E52.48392
G1 X131.62 Y76.177 E52.5622
G1 X131.952 Y75.92 E52.60187
G1 X132.614 Y75.362 E52.68369
G1 X133.231 Y74.781 E52.76378
G1 X133.82 Y74.16 E52.84466
G1 X134.427 Y73.436 E52.93394
G1 X134.819 Y72.92 E52.99518
G1 X135.32 Y72.179 E53.07971
G1 X135.824 Y71.328 E53.17317
G1 X136.2 Y70.599 E53.25069
G1 X136.536 Y69.852 E53.32809
G1 X136.829 Y69.088 E53.40542
G1 X137.08 Y68.308 E53.48285
G1 X137.329 Y67.351 E53.5763
G1 X137.488 Y66.546 E53.65384
G1 X137.603 Y65.735 E53.73125
G1 X137.672 Y64.921 E53.80844
G1 X137.697 Y64.104 E53.88569
G1 X137.7 Y55.666 E54.68308
G1 X137.73 Y55.123 E54.73447
G1 X137.817 Y54.603 E54.78429
G1 X137.959 Y54.098 E54.83387
G1 X138.158 Y53.61 E54.88367
G1 X138.412 Y53.141 E54.93407
G1 X138.711 Y52.709 E54.98372
G1 X139.06 Y52.307 E55.03403
G1 X139.444 Y51.955 E55.08326
G1 X139.876 Y51.636 E55.134
G1 X141.243 Y50.711 E55.28998
G1 X142.582 Y49.741 E55.44623
G1 X143.889 Y48.729 E55.60244
G1 X145.164 Y47.677 E55.75864
G1 X146.398 Y46.589 E55.91411
G1 X147.03 Y46.059 E55.99206
G1 X147.683 Y45.599 E56.06754
G1 X148.372 Y45.193 E56.14311
G1 X149.103 Y44.84 E56.21982
G1 X149.865 Y44.546 E56.29701
G1 X150.637 Y44.321 E56.373
G1 X151.423 Y44.16 E56.44881
G1 X152.234 Y44.062 E56.52601
G1 X153.037 Y44.032 E56.60195
G1 X153.853 Y44.069 E56.67914
G1 X154.638 Y44.17 E56.75393
G1 X155.444 Y44.341 E56.8318
G1 X156.208 Y44.571 E56.90719
G1 X156.966 Y44.869 E56.98416
G1 X157.68 Y45.221 E57.05939
G1 X158.387 Y45.645 E57.13729
G1 X159.035 Y46.11 E57.21267
G1 X159.651 Y46.634 E57.28909
G1 X160.222 Y47.207 E57.36553
G1 X160.743 Y47.825 E57.44192
G1 X161.212 Y48.484 E57.51836
G1 X161.621 Y49.171 E57.59391
G1 X161.982 Y49.912 E57.6718
G1 X162.269 Y50.649 E57.74654
G1 X162.501 Y51.432 E57.82372
G1 X162.668 Y52.231 E57.90085
G1 X162.766 Y53.016 E57.97561
G1 X162.8 Y53.831 E58.0527
G1 X162.795 Y122.262 E64.51943
G1 X162.778 Y123.939 E64.67791
G1 X162.751 Y125.6 E64.8349
G1 X162.711 Y127.245 E64.9904
G1 X162.66 Y128.874 E65.14441
G1 X162.597 Y130.488 E65.29705
G1 X162.521 Y132.087 E65.44833
G1 X162.433 Y133.671 E65.59825
G1 X162.332 Y135.244 E65.7472
G1 X162.217 Y136.799 E65.89455
G1 X162.089 Y138.343 E66.04096
G1 X161.946 Y139.875 E66.18636
G1 X161.789 Y141.394 E66.33067
G1 X161.618 Y142.904 E66.47428
G1 X161.432 Y144.398 E66.61655
G1 X161.231 Y145.883 E66.75816
G1 X160.955 Y147.743 E66.93586
G1 X160.653 Y149.585 E67.11225
G1 X160.323 Y151.417 E67.28816
G1 X159.962 Y153.237 E67.4635
G1 X159.652 Y154.583 E67.59403
G1 X159.283 Y155.92 E67.7251
G1 X158.863 Y157.223 E67.85447
G1 X158.383 Y158.522 E67.98534
G1 X157.854 Y159.783 E68.11456
G1 X157.269 Y161.029 E68.24464
G1 X156.631 Y162.249 E68.37475
G1 X155.94 Y163.442 E68.50503
G1 X155.198 Y164.606 E68.63548
G1 X154.407 Y165.737 E68.7659
G1 X153.564 Y166.839 E68.89702
G1 X152.686 Y167.89 E69.02643
G1 X151.754 Y168.914 E69.15728
G1 X150.791 Y169.887 E69.28665
G1 X149.776 Y170.829 E69.41751
G1 X148.732 Y171.715 E69.54691
G1 X147.639 Y172.566 E69.67781
G1 X146.523 Y173.362 E69.80735
G1 X145.358 Y174.119 E69.93864
G1 X144.171 Y174.821 E70.06896
G1 X142.962 Y175.468 E70.19855
G1 X141.72 Y176.065 E70.32877
G1 X140.445 Y176.613 E70.45991
G1 X139.163 Y177.1 E70.58951
G1 X137.846 Y177.537 E70.72064
G1 X136.525 Y177.912 E70.85041
G1 X135.176 Y178.236 E70.98151
G1 X133.831 Y178.497 E71.11099
G1 X132.461 Y178.704 E71.24192
G1 X131.098 Y178.85 E71.37146
G1 X129.713 Y178.939 E71.50261
G1 X128.333 Y178.968 E71.63305
G1 X94.667 Y178.968 E74.81449
G1 X93.287 Y178.939 E74.94493
G1 X91.903 Y178.85 E75.07599
G1 X90.541 Y178.704 E75.20543
G1 X89.172 Y178.498 E75.33626
G1 X87.83 Y178.237 E75.46545
G1 X86.482 Y177.915 E75.59642
G1 X85.167 Y177.54 E75.72565
G1 X83.849 Y177.104 E75.85684
G1 X82.568 Y176.618 E75.98631
G1 X81.29 Y176.07 E76.11771
G1 X80.048 Y175.473 E76.24794
G1 X78.841 Y174.828 E76.37726
G1 X77.655 Y174.127 E76.50746
G1 X76.494 Y173.373 E76.63828
G1 X75.379 Y172.579 E76.76763
G1 X74.285 Y171.729 E76.89855
G1 X73.242 Y170.844 E77.02781
G1 X72.223 Y169.9 E77.15908
G1 X71.257 Y168.926 E77.28872
G1 X70.322 Y167.9 E77.41989
G1 X69.439 Y166.842 E77.55012
G1 X68.601 Y165.747 E77.68042
G1 X67.815 Y164.624 E77.80996
G1 X67.068 Y163.454 E77.94114
G1 X66.376 Y162.26 E78.07155
G1 X65.735 Y161.036 E78.20212
G1 X65.148 Y159.789 E78.33236
G1 X64.619 Y158.525 E78.46185
G1 X64.137 Y157.226 E78.59278
G1 X63.717 Y155.921 E78.72234
G1 X63.348 Y154.583 E78.8535
G1 X63.038 Y153.237 E78.98403
G1 X62.677 Y151.417 E79.15937
G1 X62.347 Y149.585 E79.33528
G1 X62.045 Y147.743 E79.51167
G1 X61.769 Y145.883 E79.68936
G1 X61.568 Y144.398 E79.83098
G1 X61.381 Y142.904 E79.97326
G1 X61.211 Y141.394 E80.11686
G1 X61.054 Y139.875 E80.26117
G1 X60.911 Y138.343 E80.40657
G1 X60.783 Y136.799 E80.55298
G1 X60.669 Y135.244 E80.70032
G1 X60.567 Y133.671 E80.84928
G1 X60.479 Y132.087 E80.9992
G1 X60.403 Y130.488 E81.15048
G1 X60.34 Y128.874 E81.30312
G1 X60.289 Y127.245 E81.45713
G1 X60.249 Y125.6 E81.61263
G1 X60.222 Y123.939 E81.76962
G1 X60.205 Y122.264 E81.92791
G1 X60.2 Y117.732 E82.35619
G1 X60.2 Y53.839 E88.39407
G1 X60.234 Y53.016 E88.47191
G1 X60.332 Y52.231 E88.54667
G1 X60.499 Y51.432 E88.62381
G1 X60.731 Y50.649 E88.70098
G1 X61.018 Y49.912 E88.77572
G1 X61.379 Y49.171 E88.85362
G1 X61.788 Y48.484 E88.92917
G1 X62.257 Y47.825 E89.00561
G0 F4500 X62.385 Y47.673
G0 X62.46 Y47.738
G0 X90.366 Y75.396
G0 X92.03 Y76.692
G0 X94.199 Y77.979
G0 X104.436 Y81.77
G0 X104.512 Y81.834
G1 F1800 X104.176 Y82.25 E89.05614
G1 X103.841 Y82.698 E89.109
G1 X103.508 Y83.177 E89.16413
G1 X103.18 Y83.686 E89.22136
G1 X102.854 Y84.228 E89.28113
G1 X102.534 Y84.8 E89.34306
G1 X102.218 Y85.404 E89.40748
G1 X101.91 Y86.038 E89.47409
G1 X101.608 Y86.701 E89.54294
G1 X101.315 Y87.393 E89.61395
G1 X101.029 Y88.116 E89.68743
G1 X100.752 Y88.868 E89.76316
G1 X100.483 Y89.649 E89.84122
G1 X100.121 Y90.8 E89.95524
G1 X99.777 Y92.006 E90.07375
G1 X99.452 Y93.266 E90.19672
G1 X99.145 Y94.582 E90.32442
G1 X98.857 Y95.953 E90.45681
G1 X98.588 Y97.376 E90.59366
G1 X98.338 Y98.852 E90.73513
G1 X98.109 Y100.382 E90.88133
G1 X97.963 Y101.466 E90.98469
G1 X97.825 Y102.574 E91.09021
G1 X97.698 Y103.706 E91.19785
G1 X97.58 Y104.862 E91.30766
G1 X97.471 Y106.043 E91.41974
G1 X97.372 Y107.247 E91.5339
G1 X97.282 Y108.473 E91.65007
G1 X97.202 Y109.725 E91.76863
G1 X97.131 Y111.001 E91.88939
G1 X97.069 Y112.298 E92.0121
G1 X97.018 Y113.619 E92.13703
G1 X96.976 Y114.963 E92.2641
G1 X96.942 Y116.331 E92.39341
G1 X96.919 Y117.721 E92.52479
G1 X96.904 Y119.427 E92.68601
G1 X96.903 Y121.709 E92.90166
G1 X96.917 Y123.354 E93.05712
G1 X96.946 Y124.99 E93.21174
G1 X96.99 Y126.613 E93.36517
G1 X97.064 Y128.719 E93.56431
G1 X97.14 Y130.289 E93.71285
G1 X97.23 Y131.837 E93.85938
G1 X97.364 Y133.783 E94.04372
G1 X97.571 Y136.194 E94.2724
G1 X97.721 Y137.637 E94.40949
G1 X97.852 Y138.785 E94.51868
G1 X97.995 Y139.911 E94.62594
G1 X98.154 Y141.061 E94.73565
G1 X98.388 Y142.579 E94.8808
G1 X98.641 Y144.047 E95.02157
