;START_OF_HEADER
;HEADER_VERSION:0.1
;FLAVOR:Griffin
;GENERATOR.NAME:Cura_SteamEngine
;GENERATOR.VERSION:2.7.0
;GENERATOR.BUILD_DATE:2017-08-30
;TARGET_MACHINE.NAME:Ultimaker 3 Extended
;EXTRUDER_TRAIN.0.INITIAL_TEMPERATURE:205
;EXTRUDER_TRAIN.0.MATERIAL.VOLUME_USED:15723
;EXTRUDER_TRAIN.0.MATERIAL.GUID:506c9f0d-e3aa-4bd4-b2d2-23e2425b1aa9
;EXTRUDER_TRAIN.0.NOZZLE.DIAMETER:0.4
;EXTRUDER_TRAIN.0.NOZZLE.NAME:AA 0.4
;BUILD_PLATE.INITIAL_TEMPERATURE:60
;PRINT.TIME:9261
;PRINT.SIZE.MIN.X:9
;PRINT.SIZE.MIN.Y:6
;PRINT.SIZE.MIN.Z:0.27
;PRINT.SIZE.MAX.X:171.17
;PRINT.SIZE.MAX.Y:178.343
;PRINT.SIZE.MAX.Z:20.27
;END_OF_HEADER
;Generated with Cura_SteamEngine 2.7.0

T0
G92 E0

M109 S205
G0 F15000 X9 Y6 Z2
G280
G1 F1500 E-6.5
;LAYER_COUNT:101
;LAYER:0
M107
M204 S625
M205 X6 Y6
G0 F4285.7 X64.059 Y42.533 Z0.27
M204 S500
M205 X5 Y5
;TYPE:SKIRT
G1 F1500 E0
G1 F1200 X64.341 Y42.117 E0.00744
G1 X65.175 Y41.076 E0.0272
G1 X65.452 Y40.773 E0.03329
G1 X66.289 Y39.968 E0.05049
G1 X66.576 Y39.723 E0.05608
G1 X67.599 Y38.95 E0.07507
G1 X67.885 Y38.757 E0.08018
G1 X68.63 Y38.312 E0.09304
G1 X68.915 Y38.161 E0.09781
G1 X69.95 Y37.678 E0.11473
G1 X70.307 Y37.537 E0.12042
G1 X71.544 Y37.133 E0.1397
G1 X71.932 Y37.033 E0.14563
G1 X73.074 Y36.814 E0.16286
G1 X73.451 Y36.765 E0.16849
G1 X74.739 Y36.675 E0.18761
G1 X75.078 Y36.669 E0.19264
G1 X75.915 Y36.7 E0.20504
G1 X76.308 Y36.739 E0.21089
G1 X77.902 Y36.999 E0.23482
G1 X78.275 Y37.083 E0.24048
G1 X79.079 Y37.316 E0.25288
G1 X79.338 Y37.404 E0.25693
G1 X83.013 Y38.822 E0.31529
G1 X88.222 Y40.575 E0.3967
G1 X93.496 Y42.024 E0.47772
G1 X98.888 Y43.182 E0.55942
G1 X101.521 Y43.63 E0.59898
G1 X106.996 Y44.328 E0.68074
G1 X112.439 Y44.71 E0.76157
G1 X117.93 Y44.785 E0.84291
G1 X123.399 Y44.55 E0.924
G1 X128.844 Y44.006 E1.00506
G1 X134.262 Y43.153 E1.08631
G1 X136.917 Y42.619 E1.12643
G1 X139.582 Y42.004 E1.16694
G1 X144.896 Y40.537 E1.2486
G1 X150.098 Y38.78 E1.32994
G1 X153.694 Y37.393 E1.38703
G1 X154.085 Y37.27 E1.39311
G1 X155.694 Y36.878 E1.41764
G1 X156.142 Y36.803 E1.42437
G1 X157.306 Y36.691 E1.44169
G1 X157.681 Y36.677 E1.44725
G1 X158.933 Y36.705 E1.4658
G1 X159.281 Y36.732 E1.47097
G1 X160.183 Y36.852 E1.48445
G1 X160.569 Y36.928 E1.49028
G1 X162.102 Y37.33 E1.51375
G1 X162.476 Y37.453 E1.51958
G1 X163.301 Y37.783 E1.53275
G1 X163.597 Y37.919 E1.53757
G1 X164.577 Y38.433 E1.55396
G1 X164.888 Y38.62 E1.55934
G1 X165.93 Y39.329 E1.57801
G1 X166.209 Y39.542 E1.58321
G1 X166.911 Y40.143 E1.5969
G1 X167.152 Y40.373 E1.60183
G1 X167.923 Y41.188 E1.61845
G1 X168.163 Y41.473 E1.62397
G1 X168.93 Y42.502 E1.64298
G1 X169.207 Y42.946 E1.65074
G1 X170.113 Y44.707 E1.68007
G1 X170.29 Y45.121 E1.68674
G1 X170.558 Y45.895 E1.69887
G1 X170.648 Y46.203 E1.70363
G1 X170.945 Y47.458 E1.72273
G1 X171.006 Y47.801 E1.72789
G1 X171.105 Y48.604 E1.73988
G1 X171.129 Y48.99 E1.74561
G1 X171.17 Y117.969 E2.76741
G1 X171.169 Y118.034 E2.76838
G1 X171.027 Y125.137 E2.87362
G1 X171.024 Y125.242 E2.87517
G1 X170.681 Y131.71 E2.97112
G1 X170.672 Y131.826 E2.97284
G1 X170.12 Y137.965 E3.06415
G1 X170.105 Y138.103 E3.06621
G1 X169.234 Y144.599 E3.1633
G1 X169.207 Y144.764 E3.16577
G1 X168.114 Y150.574 E3.25335
G1 X168.052 Y150.84 E3.25739
G1 X167.312 Y153.492 E3.29818
G1 X167.241 Y153.716 E3.30166
G1 X166.414 Y156.009 E3.33777
G1 X166.308 Y156.266 E3.34189
G1 X165.035 Y159.015 E3.38676
G1 X164.912 Y159.254 E3.39074
G1 X163.67 Y161.431 E3.42787
G1 X163.533 Y161.65 E3.4317
G1 X161.986 Y163.913 E3.4723
G1 X161.807 Y164.151 E3.47672
G1 X159.796 Y166.57 E3.52332
G1 X159.629 Y166.755 E3.52701
G1 X157.907 Y168.524 E3.56358
G1 X157.761 Y168.664 E3.56657
G1 X156.771 Y169.559 E3.58634
G1 X156.606 Y169.699 E3.58955
G1 X154.186 Y171.604 E3.63517
G1 X153.907 Y171.8 E3.64022
G1 X150.545 Y173.905 E3.69898
G1 X150.234 Y174.076 E3.70424
G1 X147.334 Y175.468 E3.75189
G1 X147.068 Y175.581 E3.75617
G1 X144.483 Y176.544 E3.79703
G1 X144.191 Y176.637 E3.80157
G1 X140.719 Y177.56 E3.85479
G1 X140.407 Y177.627 E3.85952
G1 X137.582 Y178.081 E3.9019
G1 X137.362 Y178.108 E3.90519
G1 X135.723 Y178.255 E3.92956
G1 X135.531 Y178.267 E3.93241
G1 X132.944 Y178.342 E3.97075
G1 X132.847 Y178.343 E3.97219
G1 X97.911 Y178.291 E4.48971
G1 X97.675 Y178.282 E4.4932
G1 X96.307 Y178.178 E4.51353
G1 X96.109 Y178.156 E4.51648
G1 X93.346 Y177.77 E4.55781
G1 X93.125 Y177.732 E4.56113
G1 X91.417 Y177.369 E4.58699
G1 X91.195 Y177.313 E4.59039
G1 X88.386 Y176.501 E4.6337
G1 X88.156 Y176.425 E4.63729
G1 X86.073 Y175.646 E4.67023
G1 X85.884 Y175.568 E4.67326
G1 X84.277 Y174.846 E4.69936
G1 X84.097 Y174.758 E4.70233
G1 X81.962 Y173.632 E4.73808
G1 X81.741 Y173.504 E4.74186
G1 X79.388 Y172.01 E4.78315
G1 X79.155 Y171.847 E4.78736
G1 X76.735 Y169.986 E4.83259
G1 X76.529 Y169.814 E4.83656
G1 X74.712 Y168.155 E4.87301
G1 X74.531 Y167.976 E4.87678
G1 X72.661 Y165.971 E4.91739
G1 X72.481 Y165.76 E4.9215
G1 X70.704 Y163.486 E4.96425
G1 X70.573 Y163.306 E4.96755
G1 X69.628 Y161.904 E4.9926
G1 X69.49 Y161.679 E4.99651
G1 X67.652 Y158.392 E5.05229
G1 X67.536 Y158.164 E5.05608
G1 X66.947 Y156.878 E5.07704
G1 X66.862 Y156.672 E5.08034
G1 X65.767 Y153.755 E5.12649
G1 X65.697 Y153.547 E5.12974
G1 X65.283 Y152.16 E5.15118
G1 X65.232 Y151.971 E5.15408
G1 X64.603 Y149.264 E5.19525
G1 X64.566 Y149.079 E5.19805
G1 X63.491 Y142.784 E5.29265
G1 X63.469 Y142.632 E5.29492
G1 X62.73 Y136.538 E5.38585
G1 X62.717 Y136.411 E5.38775
G1 X62.228 Y130.347 E5.47787
G1 X62.221 Y130.235 E5.47953
G1 X61.926 Y123.694 E5.57652
G1 X61.924 Y123.618 E5.57765
G1 X61.848 Y120.01 E5.6311
G1 X61.847 Y119.944 E5.63208
G1 X61.825 Y50.871 E6.65528
G1 X61.827 Y50.752 E6.65705
G1 X61.91 Y48.526 E6.69004
G1 X61.96 Y48.072 E6.69681
G1 X62.187 Y46.832 E6.71548
G1 X62.309 Y46.366 E6.72262
G1 X62.881 Y44.712 E6.74854
G1 X63.122 Y44.181 E6.75718
G1 X64.059 Y42.533 E6.78526
M204 S625
M205 X6 Y6
G1 F1500 E0.28526
G0 F4285.7 X64.152 Y42.602
G0 X66.788 Y44.474
G0 X66.847 Y44.529
G0 X66.764 Y44.475
M204 S500
M205 X5 Y5
;TYPE:WALL-OUTER
G1 F1500 E6.78526
G1 F1200 X67.233 Y43.815 E6.79726
G1 X67.759 Y43.191 E6.80935
G1 X68.336 Y42.612 E6.82146
G1 X68.942 Y42.096 E6.83325
G1 X69.605 Y41.62 E6.84534
G1 X70.301 Y41.202 E6.85736
G1 X71.025 Y40.846 E6.86931
G1 X71.78 Y40.549 E6.88133
G1 X72.564 Y40.313 E6.89346
G1 X73.342 Y40.148 E6.90524
G1 X74.156 Y40.044 E6.9174
G1 X74.963 Y40.007 E6.92936
G1 X75.769 Y40.037 E6.94131
G1 X76.583 Y40.135 E6.95346
G1 X77.363 Y40.295 E6.96525
G1 X78.15 Y40.525 E6.9774
G1 X78.896 Y40.812 E6.98924
G1 X79.633 Y41.168 E7.00136
G1 X80.332 Y41.58 E7.01338
G1 X80.998 Y42.049 E7.02545
G1 X81.615 Y42.567 E7.03738
G1 X82.852 Y43.658 E7.06182
G1 X84.127 Y44.711 E7.08631
G1 X85.433 Y45.721 E7.11077
G1 X86.772 Y46.69 E7.13525
G1 X88.132 Y47.611 E7.15958
G1 X88.57 Y47.934 E7.16764
G1 X88.958 Y48.291 E7.17545
G1 X89.306 Y48.691 E7.18331
G1 X89.612 Y49.133 E7.19127
G1 X89.864 Y49.597 E7.19909
G1 X90.064 Y50.091 E7.20699
G1 X90.206 Y50.591 E7.21469
G1 X90.296 Y51.126 E7.22272
G1 X90.325 Y51.665 E7.23072
G1 X90.325 Y60.018 E7.35446
G1 X90.346 Y60.832 E7.36652
G1 X90.413 Y61.646 E7.37862
G1 X90.551 Y62.623 E7.39323
G1 X90.712 Y63.422 E7.40531
G1 X90.916 Y64.212 E7.41739
G1 X91.163 Y64.988 E7.42946
G1 X91.452 Y65.755 E7.4416
G1 X91.856 Y66.656 E7.45622
G1 X92.233 Y67.382 E7.46834
G1 X92.648 Y68.085 E7.48044
G1 X93.159 Y68.847 E7.49403
G1 X93.643 Y69.486 E7.5059
G1 X94.21 Y70.156 E7.5189
G1 X94.793 Y70.769 E7.53143
G1 X95.409 Y71.349 E7.54397
G1 X96.074 Y71.908 E7.55684
G1 X96.395 Y72.157 E7.56285
G1 X97.066 Y72.638 E7.57508
G1 X97.762 Y73.093 E7.5874
G1 X98.482 Y73.519 E7.59979
G1 X99.227 Y73.922 E7.61234
G1 X99.435 Y74.017 E7.61573
G1 X99.652 Y74.095 E7.61915
G1 X99.875 Y74.155 E7.62257
G1 X100.103 Y74.195 E7.62599
G1 X100.333 Y74.215 E7.62941
G1 X100.565 Y74.215 E7.63285
G1 X100.795 Y74.195 E7.63627
G1 X101.022 Y74.155 E7.63969
G1 X101.246 Y74.096 E7.64312
G1 X101.464 Y74.017 E7.64655
G1 X101.674 Y73.921 E7.64997
G1 X101.875 Y73.805 E7.65341
G1 X102.066 Y73.674 E7.65684
G1 X102.245 Y73.525 E7.66029
G1 X102.41 Y73.361 E7.66374
G1 X103.246 Y72.346 E7.68322
G1 X103.969 Y71.547 E7.69918
G1 X104.428 Y71.081 E7.70887
G1 X104.904 Y70.628 E7.7186
G1 X105.507 Y70.099 E7.73048
G1 X106.139 Y69.593 E7.74248
G1 X106.796 Y69.115 E7.75451
G1 X107.467 Y68.67 E7.76644
G1 X108.151 Y68.264 E7.77822
G1 X108.868 Y67.885 E7.79024
G1 X109.586 Y67.548 E7.80199
G1 X110.328 Y67.244 E7.81386
G1 X110.874 Y67.047 E7.82246
G1 X111.434 Y66.867 E7.83118
G1 X111.988 Y66.712 E7.8397
G1 X112.56 Y66.573 E7.84842
G1 X113.133 Y66.454 E7.85709
G1 X113.704 Y66.355 E7.86567
G1 X114.286 Y66.275 E7.87437
G1 X114.868 Y66.215 E7.88304
G1 X118.132 Y66.215 E7.93139
G1 X118.714 Y66.275 E7.94006
G1 X119.296 Y66.355 E7.94876
G1 X119.867 Y66.454 E7.95734
G1 X120.44 Y66.573 E7.96601
G1 X121.012 Y66.712 E7.97473
G1 X121.566 Y66.868 E7.98326
G1 X122.12 Y67.045 E7.99187
G1 X122.672 Y67.244 E8.00057
G1 X123.414 Y67.548 E8.01245
G1 X124.132 Y67.885 E8.02419
G1 X124.849 Y68.264 E8.03621
G1 X125.533 Y68.67 E8.04799
G1 X126.201 Y69.113 E8.05986
G1 X126.857 Y69.589 E8.07187
G1 X127.482 Y70.089 E8.08373
G1 X128.111 Y70.642 E8.09613
G1 X128.583 Y71.092 E8.10579
G1 X129.041 Y71.558 E8.11547
G1 X129.751 Y72.343 E8.13115
G1 X130.578 Y73.349 E8.15044
G1 X130.748 Y73.517 E8.15398
G1 X130.926 Y73.666 E8.15742
G1 X131.116 Y73.798 E8.16085
G1 X131.316 Y73.914 E8.16427
G1 X131.526 Y74.012 E8.16771
G1 X131.743 Y74.091 E8.17113
G1 X131.967 Y74.151 E8.17456
G1 X132.194 Y74.192 E8.17798
G1 X132.423 Y74.212 E8.18139
G1 X132.655 Y74.215 E8.18482
G1 X132.886 Y74.197 E8.18825
G1 X133.115 Y74.157 E8.1917
G1 X133.339 Y74.099 E8.19513
G1 X133.578 Y74.011 E8.1989
G1 X133.773 Y73.922 E8.20207
G1 X134.518 Y73.519 E8.21462
G1 X135.237 Y73.094 E8.22699
G1 X135.933 Y72.639 E8.23931
G1 X136.605 Y72.157 E8.25156
G1 X136.936 Y71.9 E8.25777
G1 X137.597 Y71.344 E8.27056
G1 X138.214 Y70.763 E8.28312
G1 X138.802 Y70.144 E8.29577
G1 X139.408 Y69.42 E8.30975
G1 X139.798 Y68.905 E8.31932
G1 X140.299 Y68.166 E8.33255
G1 X140.802 Y67.316 E8.34718
G1 X141.178 Y66.588 E8.35931
G1 X141.513 Y65.842 E8.37143
G1 X141.805 Y65.079 E8.38353
G1 X142.056 Y64.301 E8.39564
G1 X142.305 Y63.345 E8.41027
G1 X142.464 Y62.542 E8.4224
G1 X142.578 Y61.733 E8.4345
G1 X142.647 Y60.919 E8.4466
G1 X142.672 Y60.104 E8.45868
G1 X142.675 Y51.665 E8.58369
G1 X142.704 Y51.126 E8.59169
G1 X142.794 Y50.591 E8.59972
G1 X142.936 Y50.091 E8.60742
G1 X143.136 Y49.597 E8.61532
G1 X143.388 Y49.133 E8.62314
G1 X143.694 Y48.691 E8.6311
G1 X144.042 Y48.291 E8.63896
G1 X144.43 Y47.934 E8.64677
G1 X144.868 Y47.611 E8.65483
G1 X146.228 Y46.69 E8.67916
G1 X147.567 Y45.721 E8.70364
G1 X148.873 Y44.71 E8.72811
G1 X150.148 Y43.658 E8.7526
G1 X151.385 Y42.567 E8.77703
G1 X152.002 Y42.049 E8.78896
G1 X152.668 Y41.58 E8.80103
G1 X153.367 Y41.168 E8.81305
G1 X154.104 Y40.812 E8.82517
G1 X154.85 Y40.525 E8.83701
G1 X155.637 Y40.295 E8.84916
G1 X156.417 Y40.135 E8.86095
G1 X157.231 Y40.037 E8.8731
G1 X158.037 Y40.007 E8.88505
G1 X158.844 Y40.044 E8.89701
G1 X159.658 Y40.148 E8.90917
G1 X160.436 Y40.313 E8.92095
G1 X161.22 Y40.549 E8.93308
G1 X161.975 Y40.846 E8.9451
G1 X162.699 Y41.202 E8.95705
G1 X163.395 Y41.62 E8.96908
G1 X164.058 Y42.096 E8.98117
G1 X164.664 Y42.612 E8.99296
G1 X165.241 Y43.191 E9.00506
G1 X165.767 Y43.815 E9.01715
G1 X166.236 Y44.475 E9.02915
G1 X166.647 Y45.167 E9.04107
G1 X167.002 Y45.895 E9.05307
G1 X167.293 Y46.642 E9.06494
G1 X167.527 Y47.433 E9.07716
G1 X167.69 Y48.212 E9.08895
G1 X167.792 Y49.03 E9.10116
G1 X167.825 Y49.831 E9.11304
G1 X167.82 Y118.262 E10.12673
G1 X167.803 Y119.939 E10.15157
G1 X167.776 Y121.601 E10.1762
G1 X167.736 Y123.246 E10.20057
G1 X167.685 Y124.875 E10.22471
G1 X167.622 Y126.489 E10.24864
G1 X167.546 Y128.088 E10.27235
G1 X167.458 Y129.673 E10.29587
G1 X167.356 Y131.244 E10.31919
G1 X167.242 Y132.803 E10.34234
G1 X167.114 Y134.346 E10.36528
G1 X166.971 Y135.878 E10.38807
G1 X166.814 Y137.397 E10.41069
G1 X166.643 Y138.905 E10.43318
G1 X166.456 Y140.403 E10.45554
G1 X166.256 Y141.886 E10.47771
G1 X165.98 Y143.744 E10.50553
G1 X165.677 Y145.592 E10.53327
G1 X165.347 Y147.422 E10.56082
G1 X164.986 Y149.243 E10.58832
G1 X164.676 Y150.589 E10.60878
G1 X164.309 Y151.919 E10.62922
G1 X163.884 Y153.238 E10.64974
G1 X163.407 Y154.53 E10.67014
G1 X162.874 Y155.8 E10.69055
G1 X162.291 Y157.041 E10.71086
G1 X161.653 Y158.261 E10.73125
G1 X160.961 Y159.455 E10.7517
G1 X160.214 Y160.627 E10.77228
G1 X159.427 Y161.753 E10.79263
G1 X158.589 Y162.849 E10.81307
G1 X157.705 Y163.907 E10.83349
G1 X156.778 Y164.926 E10.8539
G1 X155.808 Y165.906 E10.87433
G1 X154.793 Y166.847 E10.89483
G1 X153.747 Y167.734 E10.91514
G1 X152.654 Y168.586 E10.93567
G1 X151.537 Y169.383 E10.956
G1 X150.378 Y170.136 E10.97647
G1 X149.184 Y170.842 E10.99702
G1 X147.973 Y171.49 E11.01737
G1 X146.723 Y172.091 E11.03791
G1 X145.463 Y172.633 E11.05823
G1 X144.164 Y173.126 E11.07881
G1 X142.854 Y173.561 E11.09926
G1 X141.531 Y173.937 E11.11963
G1 X140.19 Y174.258 E11.14006
G1 X138.827 Y174.523 E11.16063
G1 X137.471 Y174.728 E11.18094
G1 X136.1 Y174.875 E11.20137
G1 X134.715 Y174.964 E11.22193
G1 X133.333 Y174.993 E11.2424
G1 X99.667 Y174.993 E11.74111
G1 X98.285 Y174.964 E11.76159
G1 X96.901 Y174.875 E11.78213
G1 X95.531 Y174.728 E11.80254
G1 X94.176 Y174.524 E11.82284
G1 X92.817 Y174.26 E11.84335
G1 X91.477 Y173.94 E11.86375
G1 X90.159 Y173.564 E11.88406
G1 X88.848 Y173.13 E11.90451
G1 X87.55 Y172.638 E11.92508
G1 X86.287 Y172.096 E11.94544
G1 X85.037 Y171.495 E11.96598
G1 X83.828 Y170.85 E11.98628
G1 X82.635 Y170.144 E12.00682
G1 X81.487 Y169.398 E12.0271
G1 X80.357 Y168.595 E12.04763
G1 X79.269 Y167.749 E12.06805
G1 X78.225 Y166.862 E12.08834
G1 X77.206 Y165.919 E12.10891
G1 X76.233 Y164.938 E12.12937
G1 X75.303 Y163.917 E12.14983
G1 X74.419 Y162.858 E12.17027
G1 X73.581 Y161.763 E12.19069
G1 X72.793 Y160.638 E12.21104
G1 X72.047 Y159.468 E12.23159
G1 X71.354 Y158.272 E12.25207
G1 X70.713 Y157.048 E12.27254
G1 X70.125 Y155.799 E12.29299
G1 X69.592 Y154.526 E12.31343
G1 X69.117 Y153.241 E12.33372
G1 X68.691 Y151.92 E12.35429
G1 X68.324 Y150.589 E12.37474
G1 X68.014 Y149.243 E12.3952
G1 X67.653 Y147.422 E12.4227
G1 X67.323 Y145.592 E12.45024
G1 X67.02 Y143.744 E12.47798
G1 X66.744 Y141.886 E12.50581
G1 X66.544 Y140.403 E12.52798
G1 X66.357 Y138.905 E12.55034
G1 X66.186 Y137.397 E12.57282
G1 X66.029 Y135.878 E12.59544
G1 X65.886 Y134.346 E12.61823
G1 X65.759 Y132.803 E12.64117
G1 X65.644 Y131.244 E12.66433
G1 X65.542 Y129.673 E12.68765
G1 X65.454 Y128.088 E12.71116
G1 X65.378 Y126.489 E12.73487
G1 X65.315 Y124.875 E12.7588
G1 X65.264 Y123.246 E12.78294
G1 X65.224 Y121.601 E12.80732
G1 X65.197 Y119.939 E12.83194
G1 X65.18 Y118.264 E12.85676
G1 X65.175 Y113.732 E12.92389
G1 X65.175 Y49.838 E13.87037
G1 X65.208 Y49.03 E13.88235
G1 X65.31 Y48.212 E13.89456
G1 X65.473 Y47.433 E13.90635
G1 X65.707 Y46.642 E13.91857
G1 X65.998 Y45.895 E13.93045
G1 X66.353 Y45.167 E13.94244
G1 X66.764 Y44.475 E13.95437
M204 S625
M205 X6 Y6
G0 F4285.7 X66.879 Y44.312
G0 X66.96 Y44.37
G0 X95.383 Y71.378
G0 X97.044 Y72.671
G0 X99.21 Y73.957
G0 X109.118 Y78.205
G0 X109.196 Y78.266
M204 S500
M205 X5 Y5
G1 F1200 X108.861 Y78.713 E13.96264
G1 X108.529 Y79.191 E13.97126
G1 X108.201 Y79.7 E13.98023
G1 X107.876 Y80.24 E13.98957
G1 X107.556 Y80.812 E13.99928
G1 X107.241 Y81.415 E14.00936
G1 X106.933 Y82.048 E14.01978
G1 X106.631 Y82.711 E14.03058
G1 X106.338 Y83.403 E14.04171
G1 X106.053 Y84.125 E14.05321
G1 X105.775 Y84.876 E14.06507
G1 X105.507 Y85.657 E14.0773
G1 X105.145 Y86.807 E14.09516
G1 X104.801 Y88.012 E14.11372
G1 X104.476 Y89.272 E14.133
G1 X104.169 Y90.587 E14.153
G1 X103.881 Y91.958 E14.17375
G1 X103.613 Y93.38 E14.19519
G1 X103.363 Y94.856 E14.21736
G1 X103.134 Y96.385 E14.24027
G1 X102.987 Y97.47 E14.25649
G1 X102.85 Y98.576 E14.273
G1 X102.723 Y99.708 E14.28987
G1 X102.605 Y100.864 E14.30708
G1 X102.496 Y102.045 E14.32465
G1 X102.397 Y103.248 E14.34253
G1 X102.307 Y104.475 E14.36076
G1 X102.227 Y105.727 E14.37934
G1 X102.156 Y107.002 E14.39826
G1 X102.094 Y108.299 E14.41749
G1 X102.043 Y109.62 E14.43707
G1 X102.001 Y110.964 E14.45699
