;START_OF_HEADER
;HEADER_VERSION:0.1
;FLAVOR:Griffin
;GENERATOR.NAME:Cura_SteamEngine
;GENERATOR.VERSION:3.5.0
;GENERATOR.BUILD_DATE:2018-10-03
;TARGET_MACHINE.NAME:Ultimaker 3 Extended
;EXTRUDER_TRAIN.0.INITIAL_TEMPERATURE:210
;EXTRUDER_TRAIN.0.MATERIAL.VOLUME_USED:2921
;EXTRUDER_TRAIN.0.MATERIAL.GUID:506c9f0d-e3aa-4bd4-b2d2-23e2425b1aa9
;EXTRUDER_TRAIN.0.NOZZLE.DIAMETER:0.4
;EXTRUDER_TRAIN.0.NOZZLE.NAME:AA 0.4
;BUILD_PLATE.TYPE:glass
;BUILD_PLATE.INITIAL_TEMPERATURE:60
;PRINT.TIME:1659
;PRINT.SIZE.MIN.X:9
;PRINT.SIZE.MIN.Y:6
;PRINT.SIZE.MIN.Z:0.27
;PRINT.SIZE.MAX.X:141.32
;PRINT.SIZE.MAX.Y:127.097
;PRINT.SIZE.MAX.Z:26.07
;END_OF_HEADER
;Generated with Cura_SteamEngine 3.5.0
T0
M82 ;absolute extrusion mode

G92 E0
M109 S210
G0 F15000 X9 Y6 Z2
G280
G1 F1500 E-6.5
;LAYER_COUNT:130
;LAYER:0
M107
M204 S625
M205 X6 Y6
G0 F4285.7 X96.554 Y88.58 Z0.27
M204 S500
M205 X5 Y5
;TYPE:SKIRT
G1 F1500 E0
G1 F1200 X96.991 Y88.138 E0.01105
G1 X97.482 Y87.757 E0.0221
G1 X98.017 Y87.441 E0.03314
G1 X98.588 Y87.197 E0.04418
G1 X99.186 Y87.028 E0.05523
G1 X99.801 Y86.937 E0.06628
G1 X100.197 Y86.921 E0.07332
G1 X132.801 Y86.921 E0.65289
G1 X133.421 Y86.961 E0.66393
G1 X134.031 Y87.08 E0.67498
G1 X134.62 Y87.277 E0.68602
G1 X135.179 Y87.547 E0.69706
G1 X135.699 Y87.887 E0.7081
G1 X136.171 Y88.291 E0.71915
G1 X136.744 Y88.962 E0.73483
G1 X137.539 Y90.086 E0.7593
G1 X137.883 Y90.65 E0.77105
G1 X139.116 Y93.025 E0.81861
G1 X139.375 Y93.617 E0.8301
G1 X140.277 Y96.128 E0.87753
G1 X140.417 Y96.59 E0.88611
G1 X140.742 Y97.89 E0.90993
G1 X140.811 Y98.214 E0.91582
G1 X141.048 Y99.545 E0.93985
G1 X141.109 Y100.023 E0.94842
G1 X141.314 Y102.695 E0.99605
G1 X141.32 Y103.338 E1.00748
G1 X141.168 Y106.009 E1.05504
G1 X141.087 Y106.656 E1.06663
G1 X140.576 Y109.288 E1.11429
G1 X140.436 Y109.838 E1.12438
G1 X139.817 Y111.774 E1.16051
G1 X139.643 Y112.234 E1.16925
G1 X138.835 Y114.086 E1.20517
G1 X138.659 Y114.447 E1.21231
G1 X138.026 Y115.621 E1.23602
G1 X137.818 Y115.971 E1.24326
G1 X136.717 Y117.656 E1.27904
G1 X136.433 Y118.047 E1.28763
G1 X135.167 Y119.616 E1.32346
G1 X134.9 Y119.919 E1.33064
G1 X133.98 Y120.882 E1.35432
G1 X133.686 Y121.166 E1.36158
G1 X132.167 Y122.508 E1.39761
G1 X131.787 Y122.811 E1.40625
G1 X130.151 Y123.986 E1.44206
G1 X129.672 Y124.289 E1.45213
G1 X127.338 Y125.581 E1.49955
G1 X126.765 Y125.851 E1.51081
G1 X124.443 Y126.763 E1.55516
G1 X123.851 Y126.952 E1.56621
G1 X123.24 Y127.064 E1.57725
G1 X122.619 Y127.097 E1.5883
G1 X122 Y127.049 E1.59934
G1 X121.392 Y126.923 E1.61038
G1 X120.805 Y126.719 E1.62142
G1 X120.249 Y126.442 E1.63247
G1 X119.891 Y126.212 E1.64003
G1 X119.714 Y126.087 E1.64388
G1 X119.23 Y125.697 E1.65493
G1 X118.801 Y125.248 E1.66597
G1 X118.433 Y124.747 E1.67702
G1 X118.341 Y124.581 E1.68039
G1 X114.668 Y124.581 E1.74568
G1 X114.345 Y125.069 E1.75609
G1 X113.938 Y125.538 E1.76713
G1 X113.283 Y126.092 E1.78238
G1 X113.107 Y126.216 E1.7862
G1 X112.577 Y126.541 E1.79725
G1 X112.01 Y126.795 E1.8083
G1 X111.415 Y126.973 E1.81934
G1 X110.802 Y127.074 E1.83038
G1 X110.181 Y127.096 E1.84143
G1 X109.562 Y127.037 E1.85248
G1 X108.956 Y126.9 E1.86352
G1 X108.561 Y126.764 E1.87095
G1 X106.241 Y125.854 E1.91525
G1 X105.733 Y125.62 E1.92519
G1 X103.943 Y124.666 E1.96125
G1 X103.526 Y124.416 E1.96989
G1 X101.855 Y123.296 E2.00565
G1 X101.524 Y123.053 E2.01295
G1 X100.487 Y122.222 E2.03657
G1 X100.19 Y121.964 E2.04356
G1 X98.725 Y120.58 E2.07939
G1 X98.387 Y120.226 E2.08809
G1 X97.061 Y118.691 E2.12415
G1 X96.809 Y118.373 E2.13136
G1 X96.033 Y117.305 E2.15483
G1 X95.808 Y116.967 E2.16204
G1 X94.756 Y115.229 E2.19816
G1 X94.525 Y114.799 E2.20683
G1 X93.656 Y112.968 E2.24286
G1 X93.467 Y112.512 E2.25164
G1 X92.792 Y110.61 E2.28751
G1 X92.676 Y110.236 E2.29447
G1 X92.331 Y108.938 E2.31835
G1 X92.256 Y108.608 E2.32436
G1 X92.003 Y107.291 E2.3482
G1 X91.935 Y106.813 E2.35678
G1 X91.695 Y104.147 E2.40437
G1 X91.681 Y103.504 E2.4158
G1 X91.797 Y100.842 E2.46316
G1 X91.868 Y100.201 E2.47463
G1 X92.34 Y97.564 E2.52225
G1 X92.496 Y96.936 E2.53375
G1 X93.321 Y94.372 E2.58163
G1 X93.562 Y93.766 E2.59322
G1 X94.717 Y91.352 E2.64079
G1 X95.054 Y90.759 E2.65292
G1 X96.177 Y89.073 E2.68893
G1 X96.554 Y88.58 E2.69996
M204 S625
M205 X6 Y6
G0 F4285.7 X96.888 Y88.835
M204 S500
M205 X5 Y5
G1 F1200 X97.31 Y88.418 E2.7105
G1 X97.784 Y88.06 E2.72106
G1 X98.301 Y87.769 E2.73161
G1 X98.853 Y87.551 E2.74216
G1 X99.429 Y87.408 E2.75271
G1 X100.197 Y87.341 E2.76641
G1 X132.801 Y87.341 E3.34598
G1 X133.393 Y87.381 E3.35653
G1 X133.975 Y87.5 E3.36709
G1 X134.535 Y87.696 E3.37763
G1 X135.064 Y87.966 E3.38819
G1 X135.552 Y88.304 E3.39874
G1 X135.99 Y88.705 E3.4093
G1 X136.401 Y89.204 E3.42079
G1 X137.196 Y90.328 E3.44527
G1 X137.51 Y90.843 E3.45599
G1 X138.743 Y93.218 E3.50356
G1 X138.979 Y93.759 E3.51405
G1 X139.881 Y96.27 E3.56148
G1 X140.009 Y96.691 E3.5693
G1 X140.334 Y97.991 E3.59312
G1 X140.398 Y98.288 E3.59852
G1 X140.635 Y99.619 E3.62255
G1 X140.69 Y100.055 E3.63036
G1 X140.895 Y102.727 E3.678
G1 X140.901 Y103.315 E3.68845
G1 X140.749 Y105.986 E3.73601
G1 X140.675 Y106.576 E3.74658
G1 X140.164 Y109.208 E3.79424
G1 X140.036 Y109.71 E3.80345
G1 X139.417 Y111.646 E3.83958
G1 X139.258 Y112.066 E3.84756
G1 X138.45 Y113.918 E3.88348
G1 X138.29 Y114.248 E3.89
G1 X137.657 Y115.422 E3.91371
G1 X137.467 Y115.741 E3.92031
G1 X136.366 Y117.426 E3.95609
G1 X136.106 Y117.783 E3.96394
G1 X134.84 Y119.352 E3.99977
G1 X134.597 Y119.629 E4.00633
G1 X133.677 Y120.592 E4.03
G1 X133.408 Y120.851 E4.03664
G1 X131.889 Y122.193 E4.07267
G1 X131.542 Y122.47 E4.08056
G1 X129.906 Y123.645 E4.11637
G1 X129.469 Y123.921 E4.12555
G1 X127.135 Y125.213 E4.17297
G1 X126.611 Y125.46 E4.18327
G1 X124.289 Y126.372 E4.22762
G1 X123.723 Y126.551 E4.23817
G1 X123.138 Y126.653 E4.24873
G1 X122.545 Y126.675 E4.25927
G1 X121.954 Y126.617 E4.26983
G1 X121.377 Y126.481 E4.28037
G1 X120.822 Y126.268 E4.29094
G1 X120.133 Y125.869 E4.30509
G1 X119.956 Y125.744 E4.30894
G1 X119.495 Y125.37 E4.31949
G1 X119.089 Y124.937 E4.33004
G1 X118.744 Y124.454 E4.34059
G1 X118.59 Y124.161 E4.34648
G1 X114.412 Y124.161 E4.42075
G1 X114.271 Y124.433 E4.42619
G1 X113.929 Y124.918 E4.43674
G1 X113.525 Y125.354 E4.44731
G1 X113.041 Y125.749 E4.45841
G1 X112.865 Y125.873 E4.46224
G1 X112.358 Y126.182 E4.47279
G1 X111.814 Y126.419 E4.48334
G1 X111.243 Y126.581 E4.49389
G1 X110.655 Y126.666 E4.50445
G1 X110.061 Y126.67 E4.51501
G1 X109.473 Y126.595 E4.52555
G1 X108.715 Y126.373 E4.53959
G1 X106.395 Y125.463 E4.58389
G1 X105.931 Y125.25 E4.59297
G1 X104.141 Y124.296 E4.62902
G1 X103.76 Y124.067 E4.63692
G1 X102.089 Y122.947 E4.67268
G1 X101.786 Y122.725 E4.67936
G1 X100.749 Y121.894 E4.70298
G1 X100.479 Y121.659 E4.70934
G1 X99.014 Y120.275 E4.74517
G1 X98.705 Y119.952 E4.75311
G1 X97.379 Y118.417 E4.78917
G1 X97.148 Y118.126 E4.79578
G1 X96.372 Y117.058 E4.81924
G1 X96.167 Y116.75 E4.82582
G1 X95.115 Y115.012 E4.86193
G1 X94.904 Y114.619 E4.86986
G1 X94.035 Y112.788 E4.90589
G1 X93.863 Y112.372 E4.91389
G1 X93.188 Y110.47 E4.94977
G1 X93.082 Y110.128 E4.95613
G1 X92.737 Y108.83 E4.98001
G1 X92.668 Y108.529 E4.9855
G1 X92.415 Y107.212 E5.00934
G1 X92.354 Y106.775 E5.01718
G1 X92.114 Y104.109 E5.06476
G1 X92.1 Y103.522 E5.0752
G1 X92.216 Y100.86 E5.12256
G1 X92.281 Y100.275 E5.13303
G1 X92.753 Y97.638 E5.18065
G1 X92.896 Y97.064 E5.19116
G1 X93.721 Y94.5 E5.23904
G1 X93.941 Y93.948 E5.2496
G1 X95.096 Y91.534 E5.29717
G1 X95.404 Y90.992 E5.30826
G1 X96.527 Y89.306 E5.34427
G1 X96.888 Y88.835 E5.35481
M204 S625
M205 X6 Y6
G0 F4285.7 X97.222 Y89.093
M204 S500
M205 X5 Y5
G1 F1200 X97.627 Y88.699 E5.36486
G1 X98.083 Y88.367 E5.37488
G1 X98.582 Y88.102 E5.38493
G1 X99.113 Y87.911 E5.39496
G1 X99.666 Y87.796 E5.405
G1 X100.197 Y87.761 E5.41446
G1 X132.801 Y87.761 E5.99403
G1 X133.364 Y87.801 E6.00406
G1 X133.916 Y87.92 E6.0141
G1 X134.446 Y88.116 E6.02414
G1 X134.942 Y88.384 E6.03416
G1 X135.396 Y88.72 E6.0442
G1 X135.798 Y89.117 E6.05425
G1 X136.059 Y89.447 E6.06173
G1 X136.854 Y90.571 E6.0862
G1 X137.137 Y91.037 E6.09589
G1 X138.37 Y93.412 E6.14346
G1 X138.584 Y93.901 E6.15295
G1 X139.486 Y96.412 E6.20038
G1 X139.602 Y96.793 E6.20746
G1 X139.927 Y98.093 E6.23128
G1 X139.984 Y98.362 E6.23616
G1 X140.221 Y99.693 E6.2602
G1 X140.271 Y100.087 E6.26726
G1 X140.476 Y102.759 E6.31489
G1 X140.482 Y103.291 E6.32435
G1 X140.33 Y105.962 E6.37191
G1 X140.263 Y106.495 E6.38146
G1 X139.752 Y109.127 E6.42912
G1 X139.635 Y109.582 E6.43747
G1 X139.016 Y111.518 E6.4736
G1 X138.873 Y111.899 E6.48083
G1 X138.065 Y113.751 E6.51675
G1 X137.92 Y114.049 E6.52264
G1 X137.287 Y115.223 E6.54635
G1 X137.115 Y115.512 E6.55233
G1 X136.014 Y117.197 E6.58811
G1 X135.779 Y117.52 E6.59521
G1 X134.513 Y119.089 E6.63105
G1 X134.293 Y119.339 E6.63696
G1 X133.373 Y120.302 E6.66064
G1 X133.13 Y120.536 E6.66664
G1 X131.611 Y121.878 E6.70267
G1 X131.297 Y122.129 E6.70981
G1 X129.661 Y123.304 E6.74562
G1 X129.265 Y123.554 E6.75394
G1 X126.931 Y124.846 E6.80136
G1 X126.458 Y125.069 E6.81066
G1 X124.136 Y125.981 E6.855
G1 X123.597 Y126.15 E6.86505
G1 X123.04 Y126.24 E6.87508
G1 X122.475 Y126.252 E6.88512
G1 X121.915 Y126.183 E6.89515
G1 X121.369 Y126.037 E6.9052
G1 X120.85 Y125.814 E6.91524
G1 X120.375 Y125.526 E6.92511
G1 X120.198 Y125.401 E6.92896
G1 X119.761 Y125.044 E6.939
G1 X119.379 Y124.628 E6.94904
G1 X119.059 Y124.163 E6.95907
G1 X118.851 Y123.741 E6.96743
G1 X114.152 Y123.741 E7.05096
G1 X114.125 Y123.814 E7.05235
G1 X113.853 Y124.308 E7.06237
G1 X113.514 Y124.76 E7.07241
G1 X113.114 Y125.159 E7.08246
G1 X112.799 Y125.406 E7.08957
G1 X112.623 Y125.53 E7.0934
G1 X112.14 Y125.821 E7.10342
G1 X111.62 Y126.042 E7.11347
G1 X111.074 Y126.187 E7.12351
G1 X110.513 Y126.254 E7.13355
G1 X109.949 Y126.24 E7.14358
G1 X109.392 Y126.147 E7.15362
G1 X108.868 Y125.982 E7.16338
G1 X106.548 Y125.072 E7.20768
G1 X106.128 Y124.879 E7.2159
G1 X104.338 Y123.925 E7.25196
G1 X103.994 Y123.718 E7.25909
G1 X102.323 Y122.598 E7.29485
G1 X102.049 Y122.398 E7.30088
G1 X101.012 Y121.567 E7.3245
G1 X100.767 Y121.353 E7.33029
G1 X99.302 Y119.969 E7.36611
G1 X99.023 Y119.677 E7.37329
G1 X97.697 Y118.142 E7.40935
G1 X97.488 Y117.879 E7.41532
G1 X96.712 Y116.811 E7.43879
G1 X96.527 Y116.532 E7.44474
G1 X95.475 Y114.794 E7.48085
G1 X95.283 Y114.439 E7.48802
G1 X94.414 Y112.608 E7.52405
G1 X94.259 Y112.231 E7.5313
G1 X93.584 Y110.329 E7.56717
G1 X93.488 Y110.02 E7.57292
G1 X93.143 Y108.722 E7.5968
G1 X93.081 Y108.45 E7.60176
G1 X92.828 Y107.133 E7.6256
G1 X92.772 Y106.738 E7.63269
G1 X92.532 Y104.072 E7.68027
G1 X92.52 Y103.54 E7.68973
G1 X92.636 Y100.878 E7.7371
G1 X92.694 Y100.349 E7.74656
G1 X93.166 Y97.712 E7.79418
G1 X93.296 Y97.193 E7.80369
G1 X94.121 Y94.629 E7.85156
G1 X94.32 Y94.129 E7.86113
G1 X95.475 Y91.715 E7.9087
G1 X95.753 Y91.225 E7.91872
G1 X96.876 Y89.539 E7.95473
G1 X97.222 Y89.093 E7.96476
M204 S625
M205 X6 Y6
G0 F4285.7 X97.554 Y89.351
M204 S500
M205 X5 Y5
G1 F1200 X97.942 Y88.983 E7.97427
G1 X98.38 Y88.678 E7.98375
G1 X98.859 Y88.441 E7.99325
G1 X99.367 Y88.279 E8.00273
G1 X99.895 Y88.194 E8.01224
G1 X100.197 Y88.181 E8.01761
G1 X132.801 Y88.181 E8.59718
G1 X133.334 Y88.221 E8.60668
G1 X133.854 Y88.34 E8.61616
G1 X134.351 Y88.535 E8.62565
G1 X134.814 Y88.802 E8.63515
G1 X135.231 Y89.136 E8.64465
G1 X135.716 Y89.689 E8.65773
G1 X136.511 Y90.813 E8.6822
G1 X136.764 Y91.23 E8.69087
G1 X137.997 Y93.605 E8.73844
G1 X138.189 Y94.043 E8.74694
G1 X139.091 Y96.554 E8.79437
G1 X139.194 Y96.895 E8.8007
G1 X139.519 Y98.195 E8.82452
G1 X139.571 Y98.435 E8.82888
G1 X139.808 Y99.766 E8.85292
G1 X139.853 Y100.119 E8.85924
G1 X140.058 Y102.791 E8.90688
G1 X140.062 Y103.267 E8.91534
G1 X139.91 Y105.938 E8.9629
G1 X139.851 Y106.415 E8.97144
G1 X139.34 Y109.047 E9.0191
G1 X139.235 Y109.454 E9.02657
G1 X138.616 Y111.39 E9.0627
G1 X138.488 Y111.731 E9.06918
G1 X137.68 Y113.583 E9.10509
G1 X137.55 Y113.849 E9.11036
G1 X136.917 Y115.023 E9.13407
G1 X136.764 Y115.282 E9.13941
G1 X135.663 Y116.967 E9.17519
G1 X135.452 Y117.256 E9.18155
G1 X134.186 Y118.825 E9.21739
G1 X133.989 Y119.049 E9.22269
G1 X133.069 Y120.012 E9.24637
G1 X132.852 Y120.221 E9.25173
G1 X131.333 Y121.563 E9.28776
G1 X131.052 Y121.788 E9.29415
G1 X129.416 Y122.963 E9.32996
G1 X129.062 Y123.186 E9.3374
G1 X126.728 Y124.478 E9.38482
G1 X126.304 Y124.678 E9.39315
G1 X123.982 Y125.59 E9.4375
G1 X123.472 Y125.747 E9.44698
G1 X122.944 Y125.827 E9.45648
G1 X122.41 Y125.827 E9.46597
G1 X121.882 Y125.747 E9.47546
G1 X121.371 Y125.59 E9.48496
G1 X120.89 Y125.358 E9.49446
G1 X120.618 Y125.183 E9.50021
G1 X120.441 Y125.058 E9.50406
G1 X120.029 Y124.718 E9.51355
G1 X119.672 Y124.321 E9.52304
G1 X119.379 Y123.875 E9.53253
G1 X119.155 Y123.39 E9.54203
G1 X119.135 Y123.321 E9.5433
G1 X113.865 Y123.321 E9.63698
G1 X113.706 Y123.716 E9.64455
G1 X113.436 Y124.177 E9.65405
G1 X113.1 Y124.592 E9.66354
G1 X112.557 Y125.062 E9.67631
G1 X112.381 Y125.186 E9.68013
G1 X111.923 Y125.46 E9.68962
G1 X111.429 Y125.663 E9.69911
G1 X110.91 Y125.79 E9.70861
G1 X110.378 Y125.838 E9.71811
G1 X109.845 Y125.806 E9.7276
G1 X109.323 Y125.694 E9.73709
G1 X109.021 Y125.591 E9.74276
G1 X106.701 Y124.681 E9.78706
G1 X106.326 Y124.508 E9.7944
G1 X104.536 Y123.554 E9.83046
G1 X104.227 Y123.369 E9.83686
G1 X102.556 Y122.249 E9.87262
G1 X102.312 Y122.07 E9.878
G1 X101.275 Y121.239 E9.90162
G1 X101.055 Y121.048 E9.9068
G1 X99.59 Y119.664 E9.94262
G1 X99.34 Y119.403 E9.94905
G1 X98.014 Y117.868 E9.9851
G1 X97.828 Y117.632 E9.99045
G1 X97.052 Y116.564 E10.01391
G1 X96.886 Y116.315 E10.01923
G1 X95.834 Y114.577 E10.05535
G1 X95.663 Y114.259 E10.06176
G1 X94.794 Y112.428 E10.09779
G1 X94.655 Y112.091 E10.10427
G1 X93.98 Y110.189 E10.14015
G1 X93.894 Y109.912 E10.1453
G1 X93.549 Y108.614 E10.16918
G1 X93.493 Y108.37 E10.17363
G1 X93.24 Y107.053 E10.19747
G1 X93.19 Y106.7 E10.2038
G1 X92.95 Y104.034 E10.25139
G1 X92.939 Y103.559 E10.25983
G1 X93.055 Y100.897 E10.3072
G1 X93.108 Y100.423 E10.31568
G1 X93.58 Y97.786 E10.3633
G1 X93.696 Y97.322 E10.3718
G1 X94.521 Y94.758 E10.41968
G1 X94.699 Y94.31 E10.42825
G1 X95.854 Y91.896 E10.47582
G1 X96.103 Y91.458 E10.48477
G1 X97.226 Y89.772 E10.52078
G1 X97.554 Y89.351 E10.53027
M204 S625
M205 X6 Y6
G0 F4285.7 X97.886 Y89.611
M204 S500
M205 X5 Y5
G1 F1200 X98.255 Y89.271 E10.53919
G1 X98.673 Y88.994 E10.5481
G1 X99.13 Y88.787 E10.55702
G1 X99.614 Y88.655 E10.56594
G1 X100.197 Y88.601 E10.57635
G1 X132.801 Y88.601 E11.15591
G1 X133.301 Y88.641 E11.16483
G1 X133.788 Y88.76 E11.17374
G1 X134.251 Y88.954 E11.18267
G1 X134.676 Y89.22 E11.19158
G1 X135.054 Y89.55 E11.2005
G1 X135.373 Y89.932 E11.20934
G1 X136.168 Y91.056 E11.23382
G1 X136.392 Y91.424 E11.24147
G1 X137.625 Y93.799 E11.28904
G1 X137.794 Y94.185 E11.29653
G1 X138.696 Y96.696 E11.34396
G1 X138.787 Y96.997 E11.34955
G1 X139.112 Y98.297 E11.37337
G1 X139.157 Y98.509 E11.37722
G1 X139.394 Y99.84 E11.40126
G1 X139.434 Y100.151 E11.40683
G1 X139.639 Y102.823 E11.45447
G1 X139.643 Y103.243 E11.46193
G1 X139.491 Y105.914 E11.50949
G1 X139.438 Y106.335 E11.51703
G1 X138.927 Y108.967 E11.56469
G1 X138.835 Y109.326 E11.57128
G1 X138.216 Y111.262 E11.60741
G1 X138.103 Y111.563 E11.61313
G1 X137.295 Y113.415 E11.64904
G1 X137.181 Y113.65 E11.65369
G1 X136.548 Y114.824 E11.6774
G1 X136.412 Y115.052 E11.68211
G1 X135.311 Y116.737 E11.71789
G1 X135.125 Y116.992 E11.72351
G1 X133.859 Y118.561 E11.75934
G1 X133.686 Y118.759 E11.76402
G1 X132.766 Y119.722 E11.78769
G1 X132.574 Y119.907 E11.79243
G1 X131.055 Y121.249 E11.82846
G1 X130.807 Y121.446 E11.83409
G1 X129.171 Y122.621 E11.8699
G1 X128.859 Y122.819 E11.87646
G1 X126.525 Y124.111 E11.92389
G1 X126.151 Y124.287 E11.93123
G1 X123.829 Y125.199 E11.97558
G1 X123.349 Y125.345 E11.9845
G1 X122.852 Y125.412 E11.99341
G1 X122.35 Y125.4 E12.00234
G1 X121.857 Y125.308 E12.01125
G1 X121.385 Y125.14 E12.02016
G1 X120.86 Y124.84 E12.03091
G1 X120.683 Y124.715 E12.03476
G1 X120.297 Y124.394 E12.04368
G1 X119.968 Y124.016 E12.05259
G1 X119.703 Y123.59 E12.06151
G1 X119.508 Y123.128 E12.07042
G1 X119.453 Y122.901 E12.07458
G1 X113.548 Y122.901 E12.17954
G1 X113.485 Y123.152 E12.18414
G1 X113.288 Y123.613 E12.19305
