;FLAVOR:UltiGCode
;TIME:2400
;MATERIAL:4317
;MATERIAL2:0
;NOZZLE_DIAMETER:0.4
;Generated with Cura_SteamEngine 2.7.0

;LAYER_COUNT:87
;LAYER:0
M107
G0 F4500 X89.166 Y83.339 Z0.27
;TYPE:SKIRT
G1 F1800 X89.557 Y82.98 E0.05016
G1 X89.998 Y82.684 E0.10035
G1 X90.478 Y82.458 E0.15049
G1 X90.986 Y82.306 E0.2006
G1 X91.738 Y82.225 E0.27207
G1 X131.719 Y82.226 E4.05028
G1 X132.248 Y82.266 E4.10041
G1 X132.765 Y82.385 E4.15055
G1 X133.259 Y82.58 E4.20073
G1 X133.717 Y82.847 E4.25083
G1 X134.131 Y83.18 E4.30104
G1 X134.489 Y83.571 E4.35114
G1 X134.785 Y84.012 E4.40133
G1 X135.011 Y84.492 E4.45147
G1 X135.163 Y85 E4.50158
G1 X135.244 Y85.753 E4.57314
G1 X135.211 Y139.705 E9.67161
G1 X135.209 Y139.835 E9.6839
G1 X135.035 Y144.481 E10.12325
G1 X135.029 Y144.58 E10.13262
G1 X134.727 Y149.175 E10.56779
G1 X134.718 Y149.292 E10.57888
G1 X134.31 Y153.41 E10.96993
G1 X134.296 Y153.53 E10.98135
G1 X133.866 Y156.743 E11.28769
G1 X133.756 Y157.262 E11.33782
G1 X133.57 Y157.759 E11.38797
G1 X133.311 Y158.222 E11.4381
G1 X132.985 Y158.641 E11.48827
G1 X132.681 Y158.939 E11.5285
G1 X131.299 Y160.137 E11.70134
G1 X130.873 Y160.453 E11.75146
G1 X130.404 Y160.702 E11.80164
G1 X129.904 Y160.878 E11.85173
G1 X129.382 Y160.976 E11.90192
G1 X128.989 Y160.998 E11.93912
G1 X124.888 Y160.997 E12.32666
G1 X124.484 Y160.974 E12.3649
G1 X121.273 Y160.603 E12.67036
G1 X115.83 Y160.217 E13.18602
G1 X110.361 Y160.139 E13.70289
G1 X104.904 Y160.371 E14.21904
G1 X99.807 Y160.883 E14.70313
G1 X99.661 Y160.895 E14.71698
G1 X97.836 Y161.002 E14.88974
G1 X97.619 Y161.008 E14.91025
G1 X94.462 Y160.998 E15.20859
G1 X93.933 Y160.956 E15.25874
G1 X93.416 Y160.836 E15.30889
G1 X92.923 Y160.639 E15.35906
G1 X92.465 Y160.371 E15.40921
G1 X92.186 Y160.155 E15.44255
G1 X90.814 Y158.985 E15.61295
G1 X90.437 Y158.611 E15.66313
G1 X90.121 Y158.185 E15.71325
G1 X89.872 Y157.717 E15.76335
G1 X89.696 Y157.216 E15.81353
G1 X89.608 Y156.778 E15.85575
G1 X89.105 Y153.077 E16.20871
G1 X89.089 Y152.934 E16.22231
G1 X88.698 Y148.798 E16.6149
G1 X88.688 Y148.674 E16.62666
G1 X88.354 Y143.024 E17.16151
G1 X88.35 Y142.925 E17.17088
G1 X88.229 Y139.021 E17.53998
G1 X88.227 Y138.913 E17.55019
G1 X88.213 Y85.751 E22.574
G1 X88.253 Y85.222 E22.62413
G1 X88.372 Y84.705 E22.67427
G1 X88.567 Y84.211 E22.72446
G1 X88.834 Y83.752 E22.77464
G1 X89.166 Y83.339 E22.82471
G0 F4500 X89.511 Y83.487
G1 F1800 X89.897 Y83.163 E22.87233
G1 X90.33 Y82.905 E22.91997
G1 X90.797 Y82.718 E22.9675
G1 X91.288 Y82.607 E23.01507
G1 X91.738 Y82.575 E23.05771
G1 X131.719 Y82.576 E26.83591
G1 X132.221 Y82.616 E26.8835
G1 X132.71 Y82.735 E26.93106
G1 X133.175 Y82.929 E26.97867
G1 X133.603 Y83.195 E27.02629
G1 X133.983 Y83.525 E27.07386
G1 X134.307 Y83.911 E27.12148
G1 X134.565 Y84.343 E27.16903
G1 X134.752 Y84.811 E27.21666
G1 X134.862 Y85.302 E27.26421
G1 X134.894 Y85.753 E27.30693
G1 X134.861 Y139.705 E32.4054
G1 X134.859 Y139.822 E32.41645
G1 X134.685 Y144.468 E32.85581
G1 X134.68 Y144.557 E32.86423
G1 X134.378 Y149.152 E33.2994
G1 X134.37 Y149.257 E33.30935
G1 X133.962 Y153.375 E33.70041
G1 X133.949 Y153.483 E33.71068
G1 X133.519 Y156.696 E34.01702
G1 X133.413 Y157.188 E34.06458
G1 X133.23 Y157.658 E34.11224
G1 X132.976 Y158.092 E34.15976
G1 X132.655 Y158.481 E34.20743
G1 X132.452 Y158.674 E34.2339
G1 X131.07 Y159.872 E34.40673
G1 X130.664 Y160.171 E34.45438
G1 X130.217 Y160.401 E34.50189
G1 X129.738 Y160.559 E34.54955
G1 X128.989 Y160.648 E34.62083
G1 X124.888 Y160.647 E35.00837
G1 X124.524 Y160.626 E35.04283
G1 X121.316 Y160.255 E35.34801
G1 X115.841 Y159.867 E35.86669
G1 X110.351 Y159.789 E36.38555
G1 X104.889 Y160.021 E36.90217
G1 X99.772 Y160.535 E37.38816
G1 X99.641 Y160.546 E37.40059
G1 X97.816 Y160.653 E37.57334
G1 X97.62 Y160.658 E37.59187
G1 X94.463 Y160.648 E37.89021
G1 X93.961 Y160.606 E37.93782
G1 X93.472 Y160.486 E37.9854
G1 X93.008 Y160.29 E38.033
G1 X92.413 Y159.889 E38.1008
G1 X91.041 Y158.719 E38.2712
G1 X90.685 Y158.363 E38.31877
G1 X90.39 Y157.955 E38.36635
G1 X90.162 Y157.505 E38.41402
G1 X90.009 Y157.026 E38.46154
G1 X89.955 Y156.731 E38.48988
G1 X89.452 Y153.03 E38.84284
G1 X89.437 Y152.901 E38.85512
G1 X89.046 Y148.765 E39.24771
G1 X89.038 Y148.653 E39.25832
G1 X88.704 Y143.003 E39.79318
G1 X88.7 Y142.914 E39.8016
G1 X88.579 Y139.01 E40.1707
G1 X88.577 Y138.913 E40.17987
G1 X88.563 Y85.751 E45.20368
G1 X88.603 Y85.249 E45.25127
G1 X88.721 Y84.759 E45.2989
G1 X88.916 Y84.295 E45.34646
G1 X89.182 Y83.867 E45.39408
G1 X89.511 Y83.487 E45.44158
G10
G0 F4500 X91.086 Y89.963
G0 X91.105 Y90.041
G0 X95.848 Y109.523
G0 X95.867 Y109.601
G0 X96.078 Y110.463
;TYPE:SUPPORT
G11
G1 F1800 X101.634 Y110.463 E45.96662
G1 X101.849 Y110.678 E45.99536
G1 X114.259 Y110.677 E47.1681
G1 X114.473 Y110.464 E47.19663
G1 X127.378 Y110.464 E48.41616
G1 X127.378 Y112.349 E48.59429
G1 X122.462 Y120.009 E49.45441
G1 X122.378 Y120.298 E49.48285
G1 X122.378 Y130.824 E50.47756
G1 X101.078 Y130.824 E52.49041
G1 X101.078 Y120.297 E53.48521
G1 X100.994 Y120.008 E53.51365
G1 X96.078 Y112.349 E54.37369
G1 X96.078 Y110.463 E54.55192
G0 F4500 X96.253 Y111.984
G1 F1800 X127.203 Y111.984 E57.47669
G0 F4500 X125.982 Y110.639
G1 F1800 X125.982 Y114.201 E57.8133
G0 F4500 X125.906 Y114.317
G1 F1800 X97.548 Y114.317 E60.49313
G0 F4500 X97.986 Y114.997
G1 F1800 X97.986 Y110.638 E60.90506
G0 F4500 X100.319 Y110.638
G1 F1800 X100.319 Y118.632 E61.66049
G0 F4500 X100.542 Y118.983
G1 F1800 X122.91 Y118.983 E63.77427
G0 F4500 X123.649 Y117.836
G1 F1800 X123.649 Y110.639 E64.45438
G0 F4500 X121.316 Y110.639
G1 F1800 X121.316 Y130.649 E66.34533
G0 F4500 X122.202 Y130.648
G1 F1800 X101.252 Y130.648 E68.3251
G0 F4500 X102.652 Y130.649
G1 F1800 X102.652 Y110.852 E70.19592
G0 F4500 X104.985 Y110.852
G1 F1800 X104.985 Y130.649 E72.06674
G0 F4500 X107.318 Y130.649
G1 F1800 X107.318 Y110.852 E73.93755
G0 F4500 X109.651 Y110.852
G1 F1800 X109.651 Y130.649 E75.80837
G0 F4500 X111.984 Y130.649
G1 F1800 X111.984 Y110.852 E77.67918
G0 F4500 X114.317 Y110.852
G1 F1800 X114.317 Y130.649 E79.55
G0 F4500 X116.65 Y130.649
G1 F1800 X116.65 Y110.639 E81.44095
G0 F4500 X118.983 Y110.639
G1 F1800 X118.983 Y130.649 E83.33189
G0 F4500 X122.202 Y128.315
G1 F1800 X101.252 Y128.315 E85.31167
G0 F4500 X101.252 Y125.982
G1 F1800 X122.202 Y125.982 E87.29144
G0 F4500 X122.202 Y123.649
G1 F1800 X101.252 Y123.649 E89.27122
G0 F4500 X101.252 Y121.316
G1 F1800 X122.202 Y121.316 E91.25099
G10
G0 F4500 X122.628 Y120.084
G0 X124.409 Y116.65
G11
G1 F1800 X99.046 Y116.65 E93.64779
G10
G0 F4500 X98.747 Y116.841
G0 X98.015 Y117.311
G0 X99.933 Y120.475
G0 X100.028 Y120.447
;TYPE:WALL-OUTER
G11
G1 F1800 X100.028 Y131.874 E94.72765
G1 X123.428 Y131.874 E96.93895
G1 X123.428 Y120.448 E98.0187
G1 X128.428 Y112.656 E98.89361
G1 X128.428 Y107.131 E99.41572
G1 X95.203 Y107.13 E102.55548
G1 X95.028 Y107.13 E102.57202
G1 X95.028 Y107.305 E102.58272
G1 X95.028 Y112.656 E103.08839
G1 X100.028 Y120.447 E103.96322
G0 F4500 X100.028 Y120.647
G0 X99.928 Y120.647
G0 X96.664 Y136.383
G0 X96.735 Y136.453
G1 F1800 X96.736 Y136.629 E103.97985
G1 X96.737 Y136.63 E103.97998
G1 X96.769 Y138.759 E104.1812
G1 X96.832 Y141.147 E104.40694
G1 X96.924 Y143.458 E104.6255
G1 X97.044 Y145.694 E104.83711
G1 X97.192 Y147.853 E105.04161
G1 X97.369 Y149.936 E105.23917
G1 X97.573 Y151.942 E105.42971
G1 X97.808 Y153.871 E105.61335
G1 X97.947 Y154.894 E105.71091
G1 X98.148 Y156.245 E105.83999
G1 X98.287 Y157.08 E105.91998
G1 X98.32 Y157.283 E105.93942
G1 X98.115 Y157.283 E105.95142
G1 X98.114 Y157.283 E105.95151
G1 X94.538 Y157.283 E106.28944
G1 X93.267 Y156.194 E106.44761
G1 X93.034 Y154.535 E106.60592
G1 X92.907 Y153.528 E106.70184
G1 X92.788 Y152.499 E106.79973
G1 X92.676 Y151.453 E106.89914
G1 X92.572 Y150.389 E107.00017
G1 X92.475 Y149.306 E107.10292
G1 X92.386 Y148.206 E107.20721
G1 X92.304 Y147.089 E107.31305
G1 X92.165 Y144.795 E107.53023
G1 X92.056 Y142.429 E107.75406
G1 X92.012 Y141.22 E107.86838
G1 X91.948 Y138.744 E108.10244
G1 X91.928 Y137.483 E108.22162
G1 X91.928 Y85.941 E113.09234
G1 X110.028 Y85.941 E114.80279
G1 X110.028 Y88.94 E115.0862
G1 X113.428 Y88.94 E115.4075
G1 X113.428 Y85.941 E115.6909
G1 X131.528 Y85.941 E117.40135
G1 X131.529 Y137.479 E122.27169
G1 X131.48 Y139.991 E122.50912
G1 X131.401 Y142.429 E122.73963
G1 X131.291 Y144.794 E122.96337
G1 X131.152 Y147.09 E123.18074
G1 X130.982 Y149.305 E123.39067
G1 X130.78 Y151.452 E123.59446
G1 X130.549 Y153.529 E123.79194
G1 X130.287 Y155.527 E123.98237
G1 X130.191 Y156.194 E124.04605
G1 X128.919 Y157.283 E124.20429
G1 X125.342 Y157.283 E124.54232
G1 X125.341 Y157.283 E124.54241
G1 X125.136 Y157.283 E124.56179
G1 X125.169 Y157.08 E124.57383
G1 X125.314 Y156.208 E124.65736
G1 X125.515 Y154.855 E124.78662
G1 X125.762 Y152.967 E124.96656
G1 X125.875 Y151.994 E125.05913
G1 X125.982 Y151.001 E125.15351
G1 X126.173 Y148.959 E125.34732
G1 X126.258 Y147.909 E125.44687
G1 X126.408 Y145.752 E125.6512
G1 X126.479 Y144.528 E125.76706
G1 X126.536 Y143.399 E125.87389
G1 X126.627 Y141.087 E126.09254
G1 X126.662 Y139.901 E126.20467
G1 X126.709 Y137.486 E126.43293
G1 X126.718 Y136.63 E126.51382
G1 X126.719 Y136.629 E126.51396
G1 X126.719 Y136.454 E126.53049
G1 X126.544 Y136.454 E126.5412
G1 X126.543 Y136.454 E126.54129
G1 X96.912 Y136.453 E129.34142
G1 X96.911 Y136.453 E129.34151
G1 X96.735 Y136.453 E129.35226
G0 F4500 X96.736 Y136.629
G0 X96.737 Y136.63
G0 X96.737 Y136.653
G0 X96.637 Y136.654
G0 X93.36 Y155.726
;TYPE:SKIN
G1 F1800 X94.757 Y157.124 E129.53903
G1 X94.818 Y157.185
G0 F4500 X95.252 Y157.124
G1 F1800 X93.278 Y155.15 E129.80284
G1 X93.217 Y155.089
G0 F4500 X93.197 Y154.574
G1 F1800 X95.747 Y157.124 E130.14363
G1 X95.808 Y157.185
G0 F4500 X96.242 Y157.124
G1 F1800 X93.126 Y154.008 E130.56006
G1 X93.065 Y153.947
G0 F4500 X93.055 Y153.442
G1 F1800 X96.737 Y157.124 E131.05214
G1 X96.798 Y157.185
G0 F4500 X97.232 Y157.124
G1 F1800 X92.99 Y152.882 E131.61905
G1 X92.929 Y152.821
G0 F4500 X92.927 Y152.324
G1 F1800 X97.727 Y157.124 E132.26054
G1 X97.788 Y157.185
G0 F4500 X98.116 Y157.018
G1 F1800 X92.868 Y151.77 E132.9619
G1 X92.807 Y151.709
G0 F4500 X92.811 Y151.218
G1 F1800 X98.018 Y156.425 E133.65778
G1 X98.079 Y156.486
G0 F4500 X97.928 Y155.84
G1 F1800 X92.757 Y150.669 E134.34885
G1 X92.696 Y150.608
G0 F4500 X92.705 Y150.123
G1 F1800 X97.842 Y155.259 E135.03531
G1 X97.903 Y155.32
G0 F4500 X97.758 Y154.681
G1 F1800 X92.657 Y149.579 E135.71709
G1 X92.596 Y149.518
G0 F4500 X92.611 Y149.038
G1 F1800 X97.68 Y154.107 E136.39452
G1 X97.741 Y154.168
G0 F4500 X97.608 Y153.54
G1 F1800 X92.567 Y148.499 E137.06822
G1 X92.506 Y148.438
G0 F4500 X92.527 Y147.964
G1 F1800 X97.539 Y152.976 E137.73804
G1 X97.6 Y153.037
G0 F4500 X97.471 Y152.414
G1 F1800 X92.488 Y147.43 E138.40405
G1 X92.427 Y147.369
G0 F4500 X92.45 Y146.897
G1 F1800 X97.405 Y151.852 E139.06625
G1 X97.466 Y151.913
G0 F4500 X97.349 Y151.301
G1 F1800 X92.418 Y146.371 E139.72518
G1 X92.357 Y146.31
G0 F4500 X92.387 Y145.844
G1 F1800 X97.293 Y150.75 E140.38083
G1 X97.354 Y150.811
G0 F4500 X97.237 Y150.199
G1 F1800 X92.354 Y145.316 E141.03341
G1 X92.293 Y145.255
G0 F4500 X92.322 Y144.79
G1 F1800 X97.186 Y149.654 E141.68345
G1 X97.247 Y149.715
G0 F4500 X97.141 Y149.113
G1 F1800 X92.298 Y144.27 E142.33069
G1 X92.237 Y144.209
G0 F4500 X92.274 Y143.751
G1 F1800 X97.095 Y148.573 E142.97505
G1 X97.156 Y148.634
G0 F4500 X97.049 Y148.032
G1 F1800 X92.25 Y143.232 E143.61647
G1 X92.189 Y143.171
G0 F4500 X92.227 Y142.714
G1 F1800 X97.01 Y147.497 E144.25568
G1 X97.071 Y147.558
G0 F4500 X96.973 Y146.965
G1 F1800 X92.205 Y142.197 E144.89289
G1 X92.144 Y142.136
G0 F4500 X92.186 Y141.684
G1 F1800 X96.936 Y146.434 E145.5277
G1 X96.997 Y146.495
G0 F4500 X96.899 Y145.902
G1 F1800 X92.168 Y141.171 E146.15997
G1 X92.107 Y141.11
G0 F4500 X92.155 Y140.662
G1 F1800 X96.868 Y145.376 E146.78989
G1 X96.929 Y145.437
G0 F4500 X96.84 Y144.852
G1 F1800 X92.142 Y140.154 E147.41775
G1 X92.081 Y140.093
G0 F4500 X92.128 Y139.646
G1 F1800 X96.812 Y144.33 E148.04373
G1 X96.873 Y144.391
G0 F4500 X96.784 Y143.807
G1 F1800 X92.115 Y139.138 E148.66771
G1 X92.054 Y139.077
G0 F4500 X92.103 Y138.631
G1 F1800 X96.759 Y143.286 E149.28989
G1 X96.82 Y143.347
G0 F4500 X96.738 Y142.771
G1 F1800 X92.095 Y138.128 E149.91039
G1 X92.034 Y138.067
G0 F4500 X92.087 Y137.625
G1 F1800 X96.718 Y142.256 E150.5293
G1 X96.779 Y142.317
G0 F4500 X96.698 Y141.74
G1 F1800 X92.085 Y137.127 E151.14579
G1 X92.024 Y137.066
G0 F4500 X92.085 Y136.632
G1 F1800 X96.677 Y141.225 E151.75955
G1 X96.738 Y141.286
G0 F4500 X96.662 Y140.715
G1 F1800 X92.085 Y136.137 E152.3713
G1 X92.024 Y136.076
G0 F4500 X92.085 Y135.642
G1 F1800 X96.649 Y140.207 E152.98131
G1 X96.71 Y140.268
G0 F4500 X96.636 Y139.698
G1 F1800 X92.085 Y135.147 E153.58952
G1 X92.024 Y135.086
G0 F4500 X92.085 Y134.652
G1 F1800 X96.622 Y139.19 E154.19593
G1 X96.683 Y139.251
G0 F4500 X96.61 Y138.683
G1 F1800 X92.085 Y134.157 E154.80073
G1 X92.024 Y134.096
G0 F4500 X92.085 Y133.662
G1 F1800 X96.602 Y138.18 E155.40447
G1 X96.663 Y138.241
G0 F4500 X96.595 Y137.678
G1 F1800 X92.085 Y133.168 E156.0072
G1 X92.024 Y133.107
G0 F4500 X92.085 Y132.673
G1 F1800 X96.587 Y137.175 E156.60886
G1 X96.648 Y137.236
G0 F4500 X96.58 Y136.673
G1 F1800 X92.085 Y132.178 E157.20958
G1 X92.024 Y132.117
G0 F4500 X92.085 Y131.683
G1 F1800 X96.696 Y136.294 E157.82581
G1 X96.757 Y136.355
G0 F4500 X97.191 Y136.294
G1 F1800 X92.085 Y131.188 E158.50819
G1 X92.024 Y131.127
G0 F4500 X92.085 Y130.693
G1 F1800 X97.686 Y136.294 E159.25673
G1 X97.747 Y136.355
G0 F4500 X98.181 Y136.294
G1 F1800 X92.085 Y130.198 E160.07142
G1 X92.024 Y130.137
G0 F4500 X92.085 Y129.703
G1 F1800 X98.676 Y136.294 E160.95226
G1 X98.737 Y136.355
G0 F4500 X99.171 Y136.294
G1 F1800 X92.085 Y129.208 E161.89926
G1 X92.024 Y129.147
G0 F4500 X92.085 Y128.713
G1 F1800 X99.665 Y136.294 E162.91234
G1 X99.726 Y136.355
G0 F4500 X100.16 Y136.294
G1 F1800 X92.085 Y128.218 E163.99157
G1 X92.024 Y128.157
G0 F4500 X92.085 Y127.723
G1 F1800 X100.655 Y136.294 E165.13696
G1 X100.716 Y136.355
G0 F4500 X101.15 Y136.294
G1 F1800 X92.085 Y127.228 E166.34851
G1 X92.024 Y127.167
G0 F4500 X92.085 Y126.733
G1 F1800 X101.645 Y136.294 E167.6262
G1 X101.706 Y136.355
G0 F4500 X102.14 Y136.294
G1 F1800 X92.085 Y126.238 E168.97005
G1 X92.024 Y126.177
G0 F4500 X92.085 Y125.743
G1 F1800 X102.635 Y136.294 E170.38005
G1 X102.696 Y136.355
G0 F4500 X103.13 Y136.294
G1 F1800 X92.085 Y125.248 E171.85621
G1 X92.024 Y125.187
G0 F4500 X92.085 Y124.753
G1 F1800 X103.625 Y136.294 E173.39852
G1 X103.686 Y136.355
G0 F4500 X104.12 Y136.294
G1 F1800 X92.085 Y124.258 E175.00698
G1 X92.024 Y124.197
G0 F4500 X92.085 Y123.763
G1 F1800 X99.87 Y131.548 E176.04739
G1 X99.931 Y131.609
G0 F4500 X99.87 Y131.053
G1 F1800 X92.085 Y123.268 E177.0878
G1 X92.024 Y123.207
G0 F4500 X92.085 Y122.773
G1 F1800 X99.87 Y130.558 E178.12822
G1 X99.931 Y130.619
G0 F4500 X99.87 Y130.063
G1 F1800 X92.085 Y122.278 E179.16863
G1 X92.024 Y122.217
G0 F4500 X92.085 Y121.783
G1 F1800 X99.87 Y129.568 E180.20904
G1 X99.931 Y129.629
G0 F4500 X99.87 Y129.073
G1 F1800 X92.085 Y121.288 E181.24945
G1 X92.024 Y121.227
G0 F4500 X92.085 Y120.793
G1 F1800 X99.87 Y128.578 E182.28987
G1 X99.931 Y128.639
G0 F4500 X99.87 Y128.083
G1 F1800 X92.085 Y120.298 E183.33028
G1 X92.024 Y120.237
G0 F4500 X92.085 Y119.803
G1 F1800 X99.87 Y127.588 E184.37069
G1 X99.931 Y127.649
G0 F4500 X99.87 Y127.093
G1 F1800 X92.085 Y119.308 E185.4111
G1 X92.024 Y119.247
G0 F4500 X92.085 Y118.813
G1 F1800 X99.87 Y126.598 E186.45151
G1 X99.931 Y126.659
G0 F4500 X99.87 Y126.104
G1 F1800 X92.085 Y118.318 E187.49199
G1 X92.024 Y118.257
G0 F4500 X92.085 Y117.823
G1 F1800 X99.87 Y125.609 E188.53247
G1 X99.931 Y125.67
G0 F4500 X99.87 Y125.114
G1 F1800 X92.085 Y117.328 E189.57295
G1 X92.024 Y117.267
G0 F4500 X92.085 Y116.833
G1 F1800 X99.87 Y124.619 E190.61343
G1 X99.931 Y124.68
G0 F4500 X99.87 Y124.124
G1 F1800 X92.085 Y116.338 E191.65391
G1 X92.024 Y116.277
G0 F4500 X92.085 Y115.843
G1 F1800 X99.87 Y123.629 E192.69439
G1 X99.931 Y123.69
G0 F4500 X99.87 Y123.134
G1 F1800 X92.085 Y115.348 E193.73487
G1 X92.024 Y115.287
G0 F4500 X92.085 Y114.853
G1 F1800 X99.87 Y122.639 E194.77535
G1 X99.931 Y122.7
