;START_OF_HEADER
;HEADER_VERSION:0.1
;FLAVOR:Griffin
;GENERATOR.NAME:Cura_SteamEngine
;GENERATOR.VERSION:2.7.0
;GENERATOR.BUILD_DATE:2017-08-30
;TARGET_MACHINE.NAME:Ultimaker 3 Extended
;EXTRUDER_TRAIN.0.INITIAL_TEMPERATURE:205
;EXTRUDER_TRAIN.0.MATERIAL.VOLUME_USED:3971
;EXTRUDER_TRAIN.0.MATERIAL.GUID:506c9f0d-e3aa-4bd4-b2d2-23e2425b1aa9
;EXTRUDER_TRAIN.0.NOZZLE.DIAMETER:0.4
;EXTRUDER_TRAIN.0.NOZZLE.NAME:AA 0.4
;BUILD_PLATE.INITIAL_TEMPERATURE:60
;PRINT.TIME:2836
;PRINT.SIZE.MIN.X:9
;PRINT.SIZE.MIN.Y:6
;PRINT.SIZE.MIN.Z:0.27
;PRINT.SIZE.MAX.X:140.244
;PRINT.SIZE.MAX.Y:157.008
;PRINT.SIZE.MAX.Z:17.47
;END_OF_HEADER
;Generated with Cura_SteamEngine 2.7.0

T0
G92 E0

M109 S205
G0 F15000 X9 Y6 Z2
G280
G1 F1500 E-6.5
;LAYER_COUNT:87
;LAYER:0
M107
M204 S625
M205 X6 Y6
G0 F4285.7 X94.166 Y79.339 Z0.27
M204 S500
M205 X5 Y5
;TYPE:SKIRT
G1 F1500 E0
G1 F1200 X94.557 Y78.98 E0.00786
G1 X94.998 Y78.684 E0.01573
G1 X95.478 Y78.458 E0.02359
G1 X95.986 Y78.306 E0.03144
G1 X96.738 Y78.225 E0.04265
G1 X136.719 Y78.226 E0.6349
G1 X137.248 Y78.266 E0.64276
G1 X137.765 Y78.385 E0.65062
G1 X138.259 Y78.58 E0.65848
G1 X138.717 Y78.847 E0.66634
G1 X139.131 Y79.18 E0.67421
G1 X139.489 Y79.571 E0.68206
G1 X139.785 Y80.012 E0.68993
G1 X140.011 Y80.492 E0.69779
G1 X140.163 Y81 E0.70564
G1 X140.244 Y81.753 E0.71686
G1 X140.211 Y135.705 E1.51607
G1 X140.209 Y135.835 E1.518
G1 X140.035 Y140.481 E1.58687
G1 X140.029 Y140.58 E1.58834
G1 X139.727 Y145.175 E1.65655
G1 X139.718 Y145.292 E1.65829
G1 X139.31 Y149.41 E1.71959
G1 X139.296 Y149.53 E1.72138
G1 X138.866 Y152.743 E1.7694
G1 X138.756 Y153.262 E1.77726
G1 X138.57 Y153.759 E1.78512
G1 X138.311 Y154.222 E1.79298
G1 X137.985 Y154.641 E1.80084
G1 X137.681 Y154.939 E1.80715
G1 X136.299 Y156.137 E1.83424
G1 X135.873 Y156.453 E1.8421
G1 X135.404 Y156.702 E1.84996
G1 X134.904 Y156.878 E1.85781
G1 X134.382 Y156.976 E1.86568
G1 X133.989 Y156.998 E1.87151
G1 X129.888 Y156.997 E1.93226
G1 X129.484 Y156.974 E1.93826
G1 X126.273 Y156.603 E1.98614
G1 X120.83 Y156.217 E2.06697
G1 X115.361 Y156.139 E2.14799
G1 X109.904 Y156.371 E2.2289
G1 X104.807 Y156.883 E2.30478
G1 X104.661 Y156.895 E2.30695
G1 X102.836 Y157.002 E2.33404
G1 X102.619 Y157.008 E2.33725
G1 X99.462 Y156.998 E2.38402
G1 X98.933 Y156.956 E2.39188
G1 X98.416 Y156.836 E2.39974
G1 X97.923 Y156.639 E2.4076
G1 X97.465 Y156.371 E2.41546
G1 X97.186 Y156.155 E2.42069
G1 X95.814 Y154.985 E2.4474
G1 X95.437 Y154.611 E2.45527
G1 X95.121 Y154.185 E2.46313
G1 X94.872 Y153.717 E2.47098
G1 X94.696 Y153.216 E2.47884
G1 X94.608 Y152.778 E2.48546
G1 X94.105 Y149.077 E2.54079
G1 X94.089 Y148.934 E2.54292
G1 X93.698 Y144.798 E2.60446
G1 X93.688 Y144.674 E2.60631
G1 X93.354 Y139.024 E2.69015
G1 X93.35 Y138.925 E2.69161
G1 X93.229 Y135.021 E2.74947
G1 X93.227 Y134.913 E2.75107
G1 X93.213 Y81.751 E3.53858
G1 X93.253 Y81.222 E3.54644
G1 X93.372 Y80.705 E3.5543
G1 X93.567 Y80.211 E3.56216
G1 X93.834 Y79.752 E3.57003
G1 X94.166 Y79.339 E3.57788
M204 S625
M205 X6 Y6
G0 F4285.7 X94.511 Y79.487
M204 S500
M205 X5 Y5
G1 F1200 X94.897 Y79.163 E3.58534
G1 X95.33 Y78.905 E3.59281
G1 X95.797 Y78.718 E3.60026
G1 X96.288 Y78.607 E3.60772
G1 X96.738 Y78.575 E3.6144
G1 X136.719 Y78.576 E4.20665
G1 X137.221 Y78.616 E4.21411
G1 X137.71 Y78.735 E4.22157
G1 X138.175 Y78.929 E4.22903
G1 X138.603 Y79.195 E4.2365
G1 X138.983 Y79.525 E4.24395
G1 X139.307 Y79.911 E4.25142
G1 X139.565 Y80.343 E4.25887
G1 X139.752 Y80.811 E4.26634
G1 X139.862 Y81.302 E4.27379
G1 X139.894 Y81.753 E4.28049
G1 X139.861 Y135.705 E5.0797
G1 X139.859 Y135.822 E5.08143
G1 X139.685 Y140.468 E5.1503
G1 X139.68 Y140.557 E5.15162
G1 X139.378 Y145.152 E5.21984
G1 X139.37 Y145.257 E5.22139
G1 X138.962 Y149.375 E5.28269
G1 X138.949 Y149.483 E5.28431
G1 X138.519 Y152.696 E5.33233
G1 X138.413 Y153.188 E5.33978
G1 X138.23 Y153.658 E5.34725
G1 X137.976 Y154.092 E5.3547
G1 X137.655 Y154.481 E5.36217
G1 X137.452 Y154.674 E5.36632
G1 X136.07 Y155.872 E5.39341
G1 X135.664 Y156.171 E5.40088
G1 X135.217 Y156.401 E5.40833
G1 X134.738 Y156.559 E5.4158
G1 X133.989 Y156.648 E5.42698
G1 X129.888 Y156.647 E5.48773
G1 X129.524 Y156.626 E5.49313
G1 X126.316 Y156.255 E5.54096
G1 X120.841 Y155.867 E5.62227
G1 X115.351 Y155.789 E5.7036
G1 X109.889 Y156.021 E5.78459
G1 X104.772 Y156.535 E5.86077
G1 X104.641 Y156.546 E5.86272
G1 X102.816 Y156.653 E5.8898
G1 X102.62 Y156.658 E5.8927
G1 X99.463 Y156.648 E5.93947
G1 X98.961 Y156.606 E5.94693
G1 X98.472 Y156.486 E5.95439
G1 X98.008 Y156.29 E5.96185
G1 X97.413 Y155.889 E5.97248
G1 X96.041 Y154.719 E5.99919
G1 X95.685 Y154.363 E6.00665
G1 X95.39 Y153.955 E6.0141
G1 X95.162 Y153.505 E6.02158
G1 X95.009 Y153.026 E6.02903
G1 X94.955 Y152.731 E6.03347
G1 X94.452 Y149.03 E6.0888
G1 X94.437 Y148.901 E6.09072
G1 X94.046 Y144.765 E6.15226
G1 X94.038 Y144.653 E6.15392
G1 X93.704 Y139.003 E6.23777
G1 X93.7 Y138.914 E6.23909
G1 X93.579 Y135.01 E6.29694
G1 X93.577 Y134.913 E6.29838
G1 X93.563 Y81.751 E7.08589
G1 X93.603 Y81.249 E7.09335
G1 X93.721 Y80.759 E7.10081
G1 X93.916 Y80.295 E7.10827
G1 X94.182 Y79.867 E7.11573
G1 X94.511 Y79.487 E7.12318
M204 S625
M205 X6 Y6
G1 F1500 E0.62318
G0 F4285.7 X96.917 Y81.93
G0 X96.973 Y81.986
G0 X96.903 Y81.916
M204 S500
M205 X5 Y5
;TYPE:WALL-OUTER
G1 F1500 E7.12318
G1 F1200 X115.053 Y81.916 E7.39204
G1 X115.053 Y84.915 E7.43647
G1 X118.403 Y84.915 E7.48609
G1 X118.403 Y81.916 E7.53052
G1 X136.553 Y81.916 E7.79938
G1 X136.554 Y133.48 E8.56321
G1 X136.505 Y135.991 E8.60041
G1 X136.426 Y138.43 E8.63656
G1 X136.316 Y140.795 E8.67163
G1 X136.177 Y143.091 E8.70571
G1 X136.007 Y145.308 E8.73864
G1 X135.805 Y147.455 E8.77059
G1 X135.574 Y149.528 E8.80149
G1 X135.312 Y151.533 E8.83144
G1 X135.214 Y152.206 E8.84152
G1 X133.928 Y153.308 E8.8666
G1 X130.313 Y153.308 E8.92015
G1 X130.312 Y153.308 E8.92017
G1 X130.107 Y153.308 E8.9232
G1 X130.14 Y153.105 E8.92509
G1 X130.289 Y152.204 E8.93862
G1 X130.49 Y150.852 E8.95887
G1 X130.617 Y149.918 E8.97283
G1 X130.737 Y148.964 E8.98707
G1 X130.85 Y147.992 E9.00157
G1 X130.957 Y146.999 E9.01636
G1 X131.148 Y144.957 E9.04674
G1 X131.234 Y143.907 E9.06235
G1 X131.383 Y141.75 E9.09438
G1 X131.454 Y140.526 E9.11254
G1 X131.511 Y139.398 E9.12927
G1 X131.602 Y137.086 E9.16355
G1 X131.637 Y135.9 E9.18112
G1 X131.684 Y133.486 E9.21689
G1 X131.693 Y132.655 E9.2292
G1 X131.694 Y132.654 E9.22922
G1 X131.694 Y132.479 E9.23181
G1 X131.519 Y132.479 E9.23349
G1 X131.518 Y132.479 E9.23351
G1 X101.937 Y132.478 E9.6717
G1 X101.936 Y132.478 E9.67171
G1 X101.76 Y132.478 E9.67432
G1 X101.761 Y132.654 E9.67601
G1 X101.762 Y132.655 E9.67603
G1 X101.794 Y134.759 E9.7072
G1 X101.857 Y137.146 E9.74257
G1 X101.949 Y139.457 E9.77683
G1 X102.069 Y141.693 E9.81
G1 X102.217 Y143.851 E9.84204
G1 X102.394 Y145.933 E9.87299
G1 X102.598 Y147.939 E9.90286
G1 X102.832 Y149.867 E9.93163
G1 X102.972 Y150.891 E9.94694
G1 X103.173 Y152.241 E9.96716
G1 X103.316 Y153.105 E9.98013
G1 X103.349 Y153.308 E9.98318
G1 X103.144 Y153.308 E9.98506
G1 X103.143 Y153.308 E9.98508
G1 X99.529 Y153.308 E10.03861
G1 X98.243 Y152.207 E10.06369
G1 X98.01 Y150.541 E10.08861
G1 X97.883 Y149.529 E10.10372
G1 X97.763 Y148.502 E10.11903
G1 X97.651 Y147.455 E10.13463
G1 X97.547 Y146.391 E10.15047
G1 X97.45 Y145.308 E10.16658
G1 X97.361 Y144.209 E10.18291
G1 X97.28 Y143.089 E10.19954
G1 X97.206 Y141.952 E10.21642
G1 X97.14 Y140.796 E10.23357
G1 X97.031 Y138.43 E10.26866
G1 X96.987 Y137.221 E10.28658
G1 X96.923 Y134.744 E10.32329
G1 X96.903 Y133.483 E10.34197
G1 X96.903 Y81.916 E11.10585
M204 S625
M205 X6 Y6
G0 F4285.7 X97.103 Y81.916
G0 X97.103 Y82.016
G0 X99.983 Y103.085
G0 X100.053 Y103.155
M204 S500
M205 X5 Y5
G1 F1200 X100.053 Y103.33 E11.10844
G1 X100.053 Y108.648 E11.18721
G1 X105.053 Y116.44 E11.32436
G1 X105.053 Y127.849 E11.49337
G1 X128.403 Y127.849 E11.83926
G1 X128.403 Y116.441 E12.00825
G1 X133.403 Y108.648 E12.1454
G1 X133.403 Y103.156 E12.22676
G1 X100.228 Y103.155 E12.71819
G1 X100.053 Y103.155 E12.71987
M204 S625
M205 X6 Y6
G0 F4285.7 X100.053 Y103.33
G0 X100.053 Y103.355
G0 X99.953 Y103.355
G0 X100.025 Y103.127
G0 X136.412 Y82.46
M204 S500
M205 X5 Y5
;TYPE:SKIN
G1 F1200 X136.007 Y82.055 E12.72835
M204 S625
M205 X6 Y6
G0 F4285.7 X135.512 Y82.055
M204 S500
M205 X5 Y5
G1 F1200 X136.412 Y82.955 E12.74721
M204 S625
M205 X6 Y6
G0 F4285.7 X136.412 Y83.45
M204 S500
M205 X5 Y5
G1 F1200 X135.017 Y82.055 E12.77643
M204 S625
M205 X6 Y6
G0 F4285.7 X134.522 Y82.055
M204 S500
M205 X5 Y5
G1 F1200 X136.412 Y83.945 E12.81603
M204 S625
M205 X6 Y6
G0 F4285.7 X136.412 Y84.44
M204 S500
M205 X5 Y5
G1 F1200 X134.027 Y82.055 E12.86599
M204 S625
M205 X6 Y6
G0 F4285.7 X133.532 Y82.055
M204 S500
M205 X5 Y5
G1 F1200 X136.412 Y84.935 E12.92632
M204 S625
M205 X6 Y6
G0 F4285.7 X136.412 Y85.43
M204 S500
M205 X5 Y5
G1 F1200 X133.037 Y82.055 E12.99703
M204 S625
M205 X6 Y6
G0 F4285.7 X132.542 Y82.055
M204 S500
M205 X5 Y5
G1 F1200 X136.412 Y85.925 E13.0781
M204 S625
M205 X6 Y6
G0 F4285.7 X136.412 Y86.42
M204 S500
M205 X5 Y5
G1 F1200 X132.047 Y82.055 E13.16954
M204 S625
M205 X6 Y6
G0 F4285.7 X131.552 Y82.055
M204 S500
M205 X5 Y5
G1 F1200 X136.412 Y86.915 E13.27136
M204 S625
M205 X6 Y6
G0 F4285.7 X136.412 Y87.41
M204 S500
M205 X5 Y5
G1 F1200 X131.057 Y82.055 E13.38354
M204 S625
M205 X6 Y6
G0 F4285.7 X130.563 Y82.055
M204 S500
M205 X5 Y5
G1 F1200 X136.412 Y87.905 E13.50608
M204 S625
M205 X6 Y6
G0 F4285.7 X136.412 Y88.4
M204 S500
M205 X5 Y5
G1 F1200 X130.068 Y82.055 E13.63899
M204 S625
M205 X6 Y6
G0 F4285.7 X129.573 Y82.055
M204 S500
M205 X5 Y5
G1 F1200 X136.412 Y88.895 E13.78228
M204 S625
M205 X6 Y6
G0 F4285.7 X136.412 Y89.39
M204 S500
M205 X5 Y5
G1 F1200 X129.078 Y82.055 E13.93593
M204 S625
M205 X6 Y6
G0 F4285.7 X128.583 Y82.055
M204 S500
M205 X5 Y5
G1 F1200 X136.412 Y89.885 E14.09995
M204 S625
M205 X6 Y6
G0 F4285.7 X136.412 Y90.38
M204 S500
M205 X5 Y5
G1 F1200 X128.088 Y82.055 E14.27434
M204 S625
M205 X6 Y6
G0 F4285.7 X127.593 Y82.055
M204 S500
M205 X5 Y5
G1 F1200 X136.412 Y90.875 E14.4591
M204 S625
M205 X6 Y6
G0 F4285.7 X136.412 Y91.37
M204 S500
M205 X5 Y5
G1 F1200 X127.098 Y82.055 E14.65423
M204 S625
M205 X6 Y6
G0 F4285.7 X126.603 Y82.055
M204 S500
M205 X5 Y5
G1 F1200 X136.412 Y91.865 E14.85973
M204 S625
M205 X6 Y6
G0 F4285.7 X136.412 Y92.36
M204 S500
M205 X5 Y5
G1 F1200 X126.108 Y82.055 E15.0756
M204 S625
M205 X6 Y6
G0 F4285.7 X125.613 Y82.055
M204 S500
M205 X5 Y5
G1 F1200 X136.412 Y92.855 E15.30185
M204 S625
M205 X6 Y6
G0 F4285.7 X136.412 Y93.35
M204 S500
M205 X5 Y5
G1 F1200 X125.118 Y82.055 E15.53846
M204 S625
M205 X6 Y6
G0 F4285.7 X124.623 Y82.055
M204 S500
M205 X5 Y5
G1 F1200 X136.412 Y93.845 E15.78544
M204 S625
M205 X6 Y6
G0 F4285.7 X136.412 Y94.34
M204 S500
M205 X5 Y5
G1 F1200 X124.128 Y82.055 E16.04279
M204 S625
M205 X6 Y6
G0 F4285.7 X123.633 Y82.055
M204 S500
M205 X5 Y5
G1 F1200 X136.412 Y94.835 E16.31051
M204 S625
M205 X6 Y6
G0 F4285.7 X136.412 Y95.33
M204 S500
M205 X5 Y5
G1 F1200 X123.138 Y82.055 E16.5886
M204 S625
M205 X6 Y6
G0 F4285.7 X122.643 Y82.055
M204 S500
M205 X5 Y5
G1 F1200 X136.412 Y95.824 E16.87705
M204 S625
M205 X6 Y6
G0 F4285.7 X136.412 Y96.319
M204 S500
M205 X5 Y5
G1 F1200 X122.148 Y82.055 E17.17587
M204 S625
M205 X6 Y6
G0 F4285.7 X121.653 Y82.055
M204 S500
M205 X5 Y5
G1 F1200 X136.412 Y96.814 E17.48505
M204 S625
M205 X6 Y6
G0 F4285.7 X136.412 Y97.309
M204 S500
M205 X5 Y5
G1 F1200 X121.158 Y82.055 E17.80461
M204 S625
M205 X6 Y6
G0 F4285.7 X120.663 Y82.055
M204 S500
M205 X5 Y5
G1 F1200 X136.412 Y97.804 E18.13454
M204 S625
M205 X6 Y6
G0 F4285.7 X136.412 Y98.299
M204 S500
M205 X5 Y5
G1 F1200 X120.168 Y82.055 E18.47484
M204 S625
M205 X6 Y6
G0 F4285.7 X119.673 Y82.055
M204 S500
M205 X5 Y5
G1 F1200 X136.412 Y98.794 E18.82551
M204 S625
M205 X6 Y6
G0 F4285.7 X136.412 Y99.289
M204 S500
M205 X5 Y5
G1 F1200 X119.178 Y82.055 E19.18655
M204 S625
M205 X6 Y6
G0 F4285.7 X118.683 Y82.055
M204 S500
M205 X5 Y5
G1 F1200 X136.412 Y99.784 E19.55796
M204 S625
M205 X6 Y6
G0 F4285.7 X136.412 Y100.279
M204 S500
M205 X5 Y5
G1 F1200 X118.542 Y82.409 E19.93232
M204 S625
M205 X6 Y6
G0 F4285.7 X118.542 Y82.904
M204 S500
M205 X5 Y5
G1 F1200 X136.412 Y100.774 E20.30668
M204 S625
M205 X6 Y6
G0 F4285.7 X136.412 Y101.269
M204 S500
M205 X5 Y5
G1 F1200 X118.542 Y83.399 E20.68104
M204 S625
M205 X6 Y6
G0 F4285.7 X118.542 Y83.893
M204 S500
M205 X5 Y5
G1 F1200 X136.412 Y101.764 E21.05541
M204 S625
M205 X6 Y6
G0 F4285.7 X136.412 Y102.259
M204 S500
M205 X5 Y5
G1 F1200 X118.542 Y84.388 E21.42979
M204 S625
M205 X6 Y6
G0 F4285.7 X118.542 Y84.883
M204 S500
M205 X5 Y5
G1 F1200 X136.412 Y102.754 E21.80416
M204 S625
M205 X6 Y6
G0 F4285.7 X136.412 Y103.249
M204 S500
M205 X5 Y5
G1 F1200 X118.218 Y85.055 E22.18531
M204 S625
M205 X6 Y6
G0 F4285.7 X117.723 Y85.055
M204 S500
M205 X5 Y5
G1 F1200 X136.412 Y103.744 E22.57683
M204 S625
M205 X6 Y6
G0 F4285.7 X136.412 Y104.239
M204 S500
M205 X5 Y5
G1 F1200 X117.228 Y85.055 E22.97872
M204 S625
M205 X6 Y6
G0 F4285.7 X116.733 Y85.055
M204 S500
M205 X5 Y5
G1 F1200 X136.412 Y104.734 E23.39098
M204 S625
M205 X6 Y6
G0 F4285.7 X136.412 Y105.229
M204 S500
M205 X5 Y5
G1 F1200 X116.238 Y85.055 E23.81361
M204 S625
M205 X6 Y6
G0 F4285.7 X115.743 Y85.055
M204 S500
M205 X5 Y5
G1 F1200 X136.412 Y105.724 E24.2466
M204 S625
M205 X6 Y6
G0 F4285.7 X136.412 Y106.219
M204 S500
M205 X5 Y5
G1 F1200 X133.542 Y103.348 E24.30674
M204 S625
M205 X6 Y6
G0 F4285.7 X133.209 Y103.015
M204 S500
M205 X5 Y5
G1 F1200 X115.248 Y85.055 E24.683
M204 S625
M205 X6 Y6
G0 F4285.7 X114.912 Y84.719
M204 S500
M205 X5 Y5
G1 F1200 X112.249 Y82.056 E24.73878
M204 S625
M205 X6 Y6
G0 F4285.7 X112.744 Y82.056
M204 S500
M205 X5 Y5
G1 F1200 X114.912 Y84.224 E24.7842
M204 S625
M205 X6 Y6
G0 F4285.7 X114.912 Y83.729
M204 S500
M205 X5 Y5
G1 F1200 X113.239 Y82.056 E24.81925
M204 S625
M205 X6 Y6
G0 F4285.7 X113.734 Y82.056
M204 S500
M205 X5 Y5
G1 F1200 X114.912 Y83.234 E24.84393
M204 S625
M205 X6 Y6
G0 F4285.7 X114.912 Y82.739
M204 S500
M205 X5 Y5
G1 F1200 X114.229 Y82.056 E24.85824
M204 S625
M205 X6 Y6
G0 F4285.7 X114.724 Y82.056
M204 S500
M205 X5 Y5
G1 F1200 X114.912 Y82.244 E24.86218
M204 S625
M205 X6 Y6
G0 F4285.7 X111.754 Y82.056
M204 S500
M205 X5 Y5
G1 F1200 X132.714 Y103.015 E25.30126
M204 S625
M205 X6 Y6
G0 F4285.7 X132.219 Y103.015
M204 S500
M205 X5 Y5
G1 F1200 X111.259 Y82.056 E25.74034
M204 S625
M205 X6 Y6
G0 F4285.7 X110.764 Y82.056
M204 S500
M205 X5 Y5
G1 F1200 X131.724 Y103.015 E26.17943
M204 S625
M205 X6 Y6
G0 F4285.7 X131.229 Y103.015
M204 S500
M205 X5 Y5
G1 F1200 X110.269 Y82.056 E26.61851
M204 S625
M205 X6 Y6
G0 F4285.7 X109.774 Y82.056
M204 S500
M205 X5 Y5
G1 F1200 X130.734 Y103.015 E27.0576
M204 S625
M205 X6 Y6
G0 F4285.7 X130.239 Y103.015
M204 S500
M205 X5 Y5
G1 F1200 X109.279 Y82.056 E27.49668
M204 S625
M205 X6 Y6
G0 F4285.7 X108.784 Y82.056
M204 S500
M205 X5 Y5
G1 F1200 X129.744 Y103.015 E27.93577
M204 S625
M205 X6 Y6
G0 F4285.7 X129.249 Y103.015
M204 S500
M205 X5 Y5
G1 F1200 X108.289 Y82.056 E28.37485
M204 S625
M205 X6 Y6
G0 F4285.7 X107.794 Y82.056
M204 S500
M205 X5 Y5
G1 F1200 X128.754 Y103.015 E28.81394
M204 S625
M205 X6 Y6
G0 F4285.7 X128.259 Y103.015
M204 S500
M205 X5 Y5
G1 F1200 X107.299 Y82.056 E29.25302
M204 S625
M205 X6 Y6
G0 F4285.7 X106.804 Y82.056
M204 S500
M205 X5 Y5
G1 F1200 X127.764 Y103.015 E29.6921
M204 S625
M205 X6 Y6
G0 F4285.7 X127.269 Y103.015
M204 S500
M205 X5 Y5
G1 F1200 X106.309 Y82.056 E30.13119
M204 S625
M205 X6 Y6
G0 F4285.7 X105.814 Y82.056
M204 S500
M205 X5 Y5
G1 F1200 X126.774 Y103.015 E30.57027
M204 S625
M205 X6 Y6
G0 F4285.7 X126.279 Y103.015
M204 S500
M205 X5 Y5
G1 F1200 X105.32 Y82.056 E31.00935
M204 S625
M205 X6 Y6
G0 F4285.7 X104.825 Y82.056
M204 S500
M205 X5 Y5
G1 F1200 X125.784 Y103.015 E31.44842
M204 S625
M205 X6 Y6
G0 F4285.7 X125.289 Y103.015
M204 S500
M205 X5 Y5
G1 F1200 X104.33 Y82.056 E31.8875
M204 S625
M205 X6 Y6
G0 F4285.7 X103.835 Y82.056
M204 S500
M205 X5 Y5
G1 F1200 X124.794 Y103.015 E32.32657
M204 S625
M205 X6 Y6
G0 F4285.7 X124.299 Y103.015
M204 S500
M205 X5 Y5
G1 F1200 X103.34 Y82.056 E32.76564
M204 S625
M205 X6 Y6
G0 F4285.7 X102.845 Y82.056
M204 S500
M205 X5 Y5
G1 F1200 X123.804 Y103.015 E33.20472
M204 S625
M205 X6 Y6
G0 F4285.7 X123.309 Y103.015
M204 S500
M205 X5 Y5
